;FLAVOR:Marlin
;TIME:7240.28
;Filament used:15.4372m
;Layer Height:0.2
;MINX:77.181
;MINY:88.931
;MINZ:0.2
;MAXX:142.819
;MAXY:131.069
;MAXZ:92
;OuterWall Time:3007.38
;InnerWall Time:2490.31
;Skin Time:1097
;Support Time:0
;SkirtBrim Time:0
;Infill Time:178.342
;Support Infills Time:0
;Combing Time:331.962
;Retraction Time:135.285
;PrimeTower Time:0

;
;;;;;;;;;;;;;;;;;;;;;;;;;;;;;;;;;;;;;;;;;;;;;;;;;;;;;;;;;;;;;;;;;;;;;;;;;;;;;
;Creality Print GCode Generated by CXEngine
;CRSLICE_GIT_HASH:6b8d75d
;Creality Print Version : V4.3.7.6619
;CXEngine Release Time:2023-09-20 15:19:09
;Gcode Generated Time:2023-12-17 10:31:26
;----------Machine Config--------------
;Machine Name:Ender-3 V3 SE
;Machine Height:250
;Machine Width:220
;Machine Depth:220
;Material Type:PLA
;Material Name:CR-PLA_1.75
;Number of Extruders:1
;ExtruderParams[0] Nozzle Diameter:1000
;----------Profile Config---------------
;Wall Thickness:0.8
;Top/Bottom Thickness:0.8
;Out Wall Line Width:0.42
;Inner Wall Line Width:0.45
;Inital Height:200
;Wall Line Count:2
;Infill Line Distance:8
;Infill Pattern:grid
;Infill Sparse Density:10
;Infill Wipe Distance:0
;Print Temperature:205
;Bed Temperature:60
;Support Enable:false
;Support Density:15
;Support Angle:60
;Adhesion Type:autobrim
;machine is belt:false
;machine belt offset:10
;machine belt offset Y:0
;Raft Base Line Spacing:1.6
;Wait Heatup Sync:true
;Enable Ironing:false
;Material Type:PLA
;Max volumetric speed:20
;Material Diameter:1.75
;Material Density:1.24
;Filament Cost:0.3
;Filament Weight:0
;Preview Img Type:png
;Screen Size:Sermoon D3
;----------Shell Config----------------
;Outer Wall Wipe Distance:200
;Outer Inset First:false
;Infill Before Walls:false
;Infill Overlap:0.04
;Fill Gaps Between Walls:everywhere
;Minimum Infill Area:15
;Top Surface Skin Layer:0
;Top Layers:4
;Z Seam Alignment:sharpest_corner
;Seam Corner Preference:z_seam_corner_inner
;Z Seam X:110
;Z Seam Y:220
;Horizontal Expansion:0
;Top/Bottom Pattern:zigzag
;Ironing Pattern:zigzag
;Vase Model:false
;----------Support Config----------------
;Support Type:everywhere
;Support Pattern:zigzag
;Support Infill Layer Thickness:0.15
;Minimum Support Area:1
;Enable Support Roof:true
;Support Roof Thickness:0.8
;Support Roof Pattern:lines
;Connect Support Lines:0
;Connect Support ZigZags:1
;Minimum Support X/Y Distance:0.2
;Support Line Distance:2.67
; ---------PrintSpeed & Travel----------
;Enable Print Cool:true
;Avoid Printed Parts Traveling:true
;Enable Retraction:true
;Retraction Distance:0.8
;Retraction Speed:40
;Retraction Prime Speed:40
;Maximum Retraction Count:100
;Minimum Extrusion Distance Window:0.8
;Z Hop When Retracted:false
;Z Hop Height:0.2
;Retract Before Outer Wall:true

;Outer Wall Speed:60
;Inner Wall Speed:90
;Infill Speed:180
;Top/Bottom Speed:50
;Travel Speed:150
;Initial Layer Speed:30
;Skirt/Brim Speed:25
;Prime Tower Speed:60
;Outer Wall Acceleration:1000
;Inner Wall Acceleration:2000
;Infill Acceleration:2500
;Top/Bottom Acceleration:2500
;Travel Acceleration:2500
;Initial Layer Print Acceleration:500
;Initial Layer Travel Acceleration:500
;Skirt/Brim Acceleration:500
;Combing Mode:noskin
; --------SpecialModel&Mesh Fixes--------
;Union Overlapping Volum:true
;Remove All Holes:false
;Maximum Travel Resolution:0.25
;Maximum Deviation:0.05
;Maximum Model Angle:0.872665
;IS Mold Print:false
;Make Overhang Printable:false
;Enable Coasting:false
;Coasting Volumes:0.064
;Coasting Speed:0.9
;Raft AirGap:0.25
;Layer0 ZOverLap:0.13
;Adaptive Layers:0
;---------------------End of Head--------------------------
M140 S60
M105
M190 S60
M104 S205
M82 ;absolute extrusion mode
M220 S100 ;Reset Feedrate
M221 S100 ;Reset Flowrate

G28 ;Home

G92 E0 ;Reset Extruder
G1 Z2.0 F3000 ;Move Z Axis up
G1 X10.1 Y20 Z0.28 F5000.0 ;Move to start position
M109 S205.000000
G1 X10.1 Y145.0 Z0.28 F1500.0 E15 ;Draw the first line
G1 X10.4 Y145.0 Z0.28 F5000.0 ;Move to side a little
G1 X10.4 Y20 Z0.28 F1500.0 E30 ;Draw the second line
G92 E0  ;Reset Extruder
G1 E-1.0000 F1800 ;Retract a bit
G1 Z2.0 F3000 ;Move Z Axis up
G1 E0.0000 F1800 

G92 E0
G92 E0
G1 F2400 E-0.8
;LAYER_COUNT:460

;LAYER:0
M106 S0
M204 S500
;MESH:0_0
G0 F4800 X79.941 Y125.974 Z0.2
;TYPE:WALL-INNER
G1 F2400 E0
G1 F1800 X79.942 Y94.031 E1.31476
G1 X79.972 Y93.633 E1.33118
G1 X80.053 Y93.29 E1.34569
G1 X80.193 Y92.954 E1.36067
G1 X80.379 Y92.649 E1.37538
G1 X80.617 Y92.372 E1.39041
G1 X80.9 Y92.129 E1.40576
G1 X81.202 Y91.944 E1.42034
G1 X81.535 Y91.806 E1.43517
G1 X81.884 Y91.722 E1.44995
G1 X82.282 Y91.691 E1.46638
G1 X137.719 Y91.692 E3.74813
G1 X138.116 Y91.722 E3.76452
G1 X138.465 Y91.806 E3.7793
G1 X138.798 Y91.944 E3.79413
G1 X139.101 Y92.129 E3.80874
G1 X139.378 Y92.367 E3.82378
G1 X139.621 Y92.65 E3.83913
G1 X139.805 Y92.951 E3.85365
G1 X139.944 Y93.283 E3.86846
G1 X140.028 Y93.634 E3.88332
G1 X140.059 Y94.026 E3.8995
G1 X140.059 Y94.123 E3.9035
G1 X140.059 Y125.969 E5.21426
G1 X140.028 Y126.367 E5.23069
G1 X139.947 Y126.71 E5.24519
G1 X139.807 Y127.046 E5.26018
G1 X139.621 Y127.351 E5.27488
G1 X139.384 Y127.628 E5.28989
G1 X139.102 Y127.87 E5.30518
G1 X138.798 Y128.056 E5.31985
G1 X138.465 Y128.194 E5.33469
G1 X138.116 Y128.278 E5.34946
G1 X137.718 Y128.31 E5.36589
G1 X82.281 Y128.309 E7.64765
G1 X81.884 Y128.278 E7.66404
G1 X81.535 Y128.194 E7.67881
G1 X81.202 Y128.056 E7.69365
G1 X80.898 Y127.87 E7.70832
G1 X80.617 Y127.628 E7.72358
G1 X80.379 Y127.351 E7.73861
G1 X80.193 Y127.046 E7.75332
G1 X80.053 Y126.71 E7.7683
G1 X79.972 Y126.366 E7.78285
G1 X79.941 Y125.974 E7.79903
;;retract;;
G1 F2400 E7.23903
G1 X79.942 Y123.974 E7.01103
G1 F2400 E6.99903
G0 F4800 X79.462 Y125.993
;TYPE:WALL-OUTER
G1 F2400 E7.79903
G1 F1800 X79.463 Y94.013 E9.00299
G1 X79.498 Y93.559 E9.02013
G1 X79.597 Y93.143 E9.03623
G1 X79.766 Y92.736 E9.05282
G1 X79.991 Y92.367 E9.06909
G1 X80.277 Y92.033 E9.08564
G1 X80.617 Y91.741 E9.10252
G1 X80.984 Y91.517 E9.1187
G1 X81.387 Y91.349 E9.13514
G1 X81.808 Y91.248 E9.15144
G1 X82.263 Y91.212 E9.16862
G1 X137.737 Y91.213 E11.25706
G1 X138.191 Y91.248 E11.2742
G1 X138.613 Y91.349 E11.29054
G1 X139.016 Y91.517 E11.30698
G1 X139.383 Y91.741 E11.32316
G1 X139.717 Y92.027 E11.33972
G1 X140.01 Y92.367 E11.35661
G1 X140.233 Y92.733 E11.37275
G1 X140.401 Y93.134 E11.38912
G1 X140.502 Y93.558 E11.40553
G1 X140.538 Y94.007 E11.42248
G1 X140.538 Y94.123 E11.42685
G1 X140.537 Y125.987 E12.62644
G1 X140.502 Y126.441 E12.64358
G1 X140.404 Y126.858 E12.65971
G1 X140.235 Y127.264 E12.67626
G1 X140.009 Y127.633 E12.69256
G1 X139.723 Y127.967 E12.70911
G1 X139.385 Y128.258 E12.7259
G1 X139.016 Y128.484 E12.74219
G1 X138.613 Y128.651 E12.75861
G1 X138.192 Y128.752 E12.77491
G1 X137.737 Y128.788 E12.7921
G1 X82.263 Y128.787 E14.88053
G1 X81.809 Y128.752 E14.89768
G1 X81.387 Y128.651 E14.91401
G1 X80.984 Y128.484 E14.93043
G1 X80.616 Y128.258 E14.94669
G1 X80.277 Y127.967 E14.96351
G1 X79.991 Y127.633 E14.98007
G1 X79.766 Y127.264 E14.99634
G1 X79.597 Y126.858 E15.01289
G1 X79.498 Y126.441 E15.02903
G1 X79.462 Y125.993 E15.04595
G0 F4800 X79.462 Y125.793
;;retract;;
G1 F2400 E14.48595
G1 X79.464 Y123.793 E14.25795
G1 F2400 E14.24595
G0 F4800 X80.141 Y125.794
G0 X80.181 Y126.184
G0 X80.337 Y126.998
G1 F2400 E15.04595
G0 F4800 X80.602 Y126.837
;TYPE:SKIN
G1 F1800 X80.749 Y127.077 E15.05676
G1 X80.94 Y127.301 E15.06807
G1 X81.171 Y127.499 E15.07976
G1 X81.411 Y127.648 E15.09061
G1 X81.677 Y127.757 E15.10165
G1 X81.951 Y127.824 E15.11249
G1 X82.301 Y127.85 E15.12597
G1 X137.698 Y127.851 E17.25407
G1 X138.047 Y127.824 E17.26752
G1 X138.322 Y127.757 E17.27839
G1 X138.589 Y127.647 E17.28948
G1 X138.829 Y127.499 E17.30032
G1 X139.06 Y127.301 E17.312
G1 X139.251 Y127.077 E17.32331
G1 X139.4 Y126.833 E17.3343
G1 X139.511 Y126.565 E17.34544
G1 X139.574 Y126.299 E17.35594
G1 X139.6 Y125.949 E17.36942
G1 X139.601 Y94.12 E18.59215
G1 X139.601 Y94.042 E18.59514
G1 X139.574 Y93.702 E18.60825
G1 X139.507 Y93.424 E18.61923
G1 X139.397 Y93.163 E18.63011
G1 X139.247 Y92.917 E18.64118
G1 X139.051 Y92.69 E18.6527
G1 X138.828 Y92.499 E18.66398
G1 X138.594 Y92.356 E18.67452
G1 X138.323 Y92.243 E18.6858
G1 X138.049 Y92.176 E18.69663
G1 X137.699 Y92.15 E18.71011
G1 X82.302 Y92.149 E20.83822
G1 X81.954 Y92.176 E20.85162
G1 X81.677 Y92.243 E20.86257
G1 X81.411 Y92.354 E20.87364
G1 X81.174 Y92.499 E20.88432
G1 X80.94 Y92.699 E20.89614
G1 X80.749 Y92.923 E20.90745
G1 X80.6 Y93.167 E20.91843
G1 X80.49 Y93.435 E20.92956
G1 X80.428 Y93.7 E20.94002
G1 X80.4 Y94.051 E20.95355
G1 X80.399 Y125.958 E22.17927
G1 X80.426 Y126.298 E22.19237
G1 X80.489 Y126.565 E22.20291
G1 X80.602 Y126.837 E22.21422
G1 X80.673 Y126.408
G1 X81.837 Y127.572 E22.27746
G1 X82.536 Y127.618
G1 X80.629 Y125.712 E22.38104
G1 X80.629 Y125.058
G1 X83.189 Y127.618 E22.52011
G1 X83.843 Y127.618
G1 X80.629 Y124.405 E22.6947
G1 X80.629 Y123.752
G1 X84.496 Y127.618 E22.90475
G1 X85.149 Y127.618
G1 X80.629 Y123.098 E23.15032
G1 X80.629 Y122.445
G1 X85.803 Y127.618 E23.43138
G1 X86.456 Y127.618
G1 X80.629 Y121.792 E23.74792
G1 X80.629 Y121.138
G1 X87.109 Y127.618 E24.09996
G1 X87.763 Y127.618
G1 X80.629 Y120.485 E24.48751
G1 X80.629 Y119.831
G1 X88.416 Y127.618 E24.91056
G1 X89.069 Y127.618
G1 X80.629 Y119.178 E25.36908
G1 X80.629 Y118.525
G1 X89.723 Y127.618 E25.86311
G1 X90.376 Y127.618
G1 X80.629 Y117.871 E26.39264
G1 X80.629 Y117.218
G1 X91.03 Y127.618 E26.95768
G1 X91.683 Y127.618
G1 X80.629 Y116.565 E27.55819
G1 X80.629 Y115.911
G1 X92.336 Y127.618 E28.1942
G1 X92.99 Y127.618
G1 X80.629 Y115.258 E28.86572
G1 X80.629 Y114.605
G1 X93.643 Y127.618 E29.57271
G1 X94.296 Y127.618
G1 X80.629 Y113.951 E30.31521
G1 X80.629 Y113.298
G1 X94.95 Y127.618 E31.09321
G1 X95.603 Y127.618
G1 X80.629 Y112.644 E31.90671
G1 X80.629 Y111.991
G1 X96.257 Y127.618 E32.75572
G1 X96.91 Y127.618
G1 X80.629 Y111.338 E33.6402
G1 X80.629 Y110.684
G1 X97.563 Y127.618 E34.56018
G1 X98.217 Y127.618
G1 X80.629 Y110.031 E35.51567
G1 X80.63 Y109.378
G1 X98.87 Y127.618 E36.50661
G1 X99.523 Y127.618
G1 X80.63 Y108.725 E37.53302
G1 X80.63 Y108.072
G1 X100.177 Y127.618 E38.59494
G1 X100.83 Y127.618
G1 X80.63 Y107.418 E39.69235
G1 X80.63 Y106.765
G1 X101.483 Y127.618 E40.82525
G1 X102.137 Y127.618
G1 X80.63 Y106.111 E41.99367
G1 X80.63 Y105.458
G1 X102.79 Y127.618 E43.19757
G1 X103.444 Y127.618
G1 X80.63 Y104.805 E44.43698
G1 X80.63 Y104.151
G1 X104.097 Y127.618 E45.71189
G1 X104.75 Y127.618
G1 X80.63 Y103.498 E47.02227
G1 X80.63 Y102.845
G1 X105.404 Y127.618 E48.36816
G1 X106.057 Y127.618
G1 X80.63 Y102.191 E49.74954
G1 X80.63 Y101.538
G1 X106.71 Y127.618 E51.16641
G1 X107.364 Y127.618
G1 X80.63 Y100.885 E52.61878
G1 X80.63 Y100.231
G1 X108.017 Y127.618 E54.10665
G1 X108.67 Y127.618
G1 X80.63 Y99.578 E55.63
G1 X80.63 Y98.924
G1 X109.324 Y127.618 E57.18888
G1 X109.977 Y127.618
G1 X80.63 Y98.271 E58.78323
G1 X80.63 Y97.618
G1 X110.631 Y127.619 E60.41311
G1 X111.285 Y127.619
G1 X80.63 Y96.964 E62.07853
G1 X80.63 Y96.311
G1 X111.938 Y127.619 E63.77942
G1 X112.591 Y127.619
G1 X80.63 Y95.658 E65.51578
G1 X80.63 Y95.004
G1 X113.245 Y127.619 E67.28768
G1 X113.898 Y127.619
G1 X80.63 Y94.351 E69.09505
G1 X80.657 Y93.724
G1 X114.552 Y127.619 E70.93649
G1 X115.205 Y127.619
G1 X80.821 Y93.235 E72.80449
G1 X81.103 Y92.863
G1 X115.858 Y127.619 E74.69268
G1 X116.512 Y127.619
G1 X81.47 Y92.577 E76.59643
G1 X81.952 Y92.406
G1 X117.165 Y127.619 E78.50947
G1 X117.818 Y127.619
G1 X82.579 Y92.379 E80.42395
G1 X83.232 Y92.379
G1 X118.472 Y127.619 E82.33845
G1 X119.125 Y127.619
G1 X83.886 Y92.379 E84.25293
G1 X84.539 Y92.379
G1 X119.778 Y127.619 E86.16741
G1 X120.432 Y127.619
G1 X85.192 Y92.379 E88.08192
G1 X85.846 Y92.379
G1 X121.085 Y127.619 E89.9964
G1 X121.739 Y127.619
G1 X86.499 Y92.379 E91.9109
G1 X87.153 Y92.379
G1 X122.392 Y127.619 E93.82538
G1 X123.045 Y127.619
G1 X87.806 Y92.379 E95.73986
G1 X88.459 Y92.379
G1 X123.699 Y127.619 E97.65437
G1 X124.352 Y127.619
G1 X89.113 Y92.379 E99.56885
G1 X89.766 Y92.379
G1 X125.005 Y127.619 E101.48333
G1 X125.659 Y127.619
G1 X90.419 Y92.379 E103.39784
G1 X91.073 Y92.379
G1 X126.312 Y127.619 E105.31232
G1 X126.965 Y127.619
G1 X91.726 Y92.379 E107.2268
G1 X92.379 Y92.379
G1 X127.619 Y127.619 E109.1413
G1 X128.272 Y127.619
G1 X93.033 Y92.379 E111.05578
G1 X93.686 Y92.379
G1 X128.926 Y127.619 E112.97029
G1 X129.579 Y127.619
G1 X94.34 Y92.379 E114.88477
G1 X94.993 Y92.379
G1 X130.232 Y127.619 E116.79925
G1 X130.886 Y127.619
G1 X95.646 Y92.379 E118.71375
G1 X96.3 Y92.379
G1 X131.539 Y127.619 E120.62823
G1 X132.192 Y127.619
G1 X96.953 Y92.379 E122.54271
G1 X97.606 Y92.379
G1 X132.846 Y127.619 E124.45722
G1 X133.499 Y127.619
G1 X98.26 Y92.379 E126.3717
G1 X98.913 Y92.379
G1 X134.153 Y127.619 E128.28621
G1 X134.806 Y127.619
G1 X99.566 Y92.379 E130.20071
G1 X100.22 Y92.379
G1 X135.459 Y127.619 E132.11519
G1 X136.113 Y127.619
G1 X100.873 Y92.379 E134.0297
G1 X101.527 Y92.379
G1 X136.766 Y127.619 E135.94418
G1 X137.419 Y127.619
G1 X102.18 Y92.379 E137.85866
G1 X102.833 Y92.379
G1 X138.045 Y127.591 E139.77164
G1 X138.529 Y127.422
G1 X103.487 Y92.379 E141.67542
G1 X104.14 Y92.379
G1 X138.896 Y127.136 E143.56366
G1 X139.179 Y126.765
G1 X104.793 Y92.379 E145.43177
G1 X105.447 Y92.379
G1 X139.343 Y126.276 E147.27329
G1 X139.369 Y125.648
G1 X106.1 Y92.379 E149.08072
G1 X106.754 Y92.379
G1 X139.369 Y124.995 E150.85264
G1 X139.369 Y124.341
G1 X107.407 Y92.379 E152.58906
G1 X108.06 Y92.379
G1 X139.369 Y123.688 E154.29
G1 X139.369 Y123.035
G1 X108.714 Y92.379 E155.95545
G1 X109.367 Y92.379
G1 X139.369 Y122.381 E157.58538
G1 X139.369 Y121.728
G1 X110.021 Y92.38 E159.17979
G1 X110.674 Y92.38
G1 X139.369 Y121.075 E160.73872
G1 X139.369 Y120.421
G1 X111.328 Y92.38 E162.26213
G1 X111.981 Y92.38
G1 X139.369 Y119.768 E163.75005
G1 X139.369 Y119.114
G1 X112.635 Y92.38 E165.20245
G1 X113.288 Y92.38
G1 X139.369 Y118.461 E166.61937
G1 X139.369 Y117.808
G1 X113.941 Y92.38 E168.00081
G1 X114.595 Y92.38
G1 X139.369 Y117.154 E169.34672
G1 X139.369 Y116.501
G1 X115.248 Y92.38 E170.65716
G1 X115.901 Y92.38
G1 X139.369 Y115.848 E171.93212
G1 X139.369 Y115.194
G1 X116.555 Y92.38 E173.17155
G1 X117.208 Y92.38
G1 X139.369 Y114.541 E174.37551
G1 X139.369 Y113.888
G1 X117.861 Y92.38 E175.54399
G1 X118.515 Y92.38
G1 X139.369 Y113.234 E176.67694
G1 X139.369 Y112.581
G1 X119.168 Y92.38 E177.77441
G1 X119.822 Y92.38
G1 X139.369 Y111.927 E178.83635
G1 X139.369 Y111.274
G1 X120.475 Y92.38 E179.86282
G1 X121.128 Y92.38
G1 X139.369 Y110.621 E180.85381
G1 X139.369 Y109.967
G1 X121.782 Y92.38 E181.80927
G1 X122.435 Y92.38
G1 X139.369 Y109.314 E182.72926
G1 X139.369 Y108.661
G1 X123.088 Y92.38 E183.61377
G1 X123.742 Y92.38
G1 X139.369 Y108.007 E184.46274
G1 X139.369 Y107.354
G1 X124.395 Y92.38 E185.27625
G1 X125.049 Y92.38
G1 X139.369 Y106.7 E186.05422
G1 X139.369 Y106.047
G1 X125.702 Y92.38 E186.79671
G1 X126.355 Y92.38
G1 X139.369 Y105.394 E187.50373
G1 X139.369 Y104.74
G1 X127.009 Y92.38 E188.17522
G1 X127.662 Y92.38
G1 X139.369 Y104.087 E188.81124
G1 X139.369 Y103.434
G1 X128.315 Y92.38 E189.41178
G1 X128.969 Y92.38
G1 X139.369 Y102.78 E189.97678
G1 X139.369 Y102.127
G1 X129.622 Y92.38 E190.50632
G1 X130.275 Y92.38
G1 X139.369 Y101.474 E191.00037
G1 X139.369 Y100.82
G1 X130.929 Y92.38 E191.4589
G1 X131.582 Y92.38
G1 X139.369 Y100.167 E191.88195
G1 X139.369 Y99.513
G1 X132.236 Y92.38 E192.26947
G1 X132.889 Y92.38
G1 X139.369 Y98.86 E192.62151
G1 X139.369 Y98.207
G1 X133.542 Y92.38 E192.93808
G1 X134.196 Y92.38
G1 X139.369 Y97.553 E193.21911
G1 X139.369 Y96.9
G1 X134.849 Y92.38 E193.46467
G1 X135.502 Y92.38
G1 X139.369 Y96.247 E193.67476
G1 X139.369 Y95.593
G1 X136.156 Y92.38 E193.84931
G1 X136.809 Y92.38
G1 X139.369 Y94.94 E193.98839
G1 X139.369 Y94.287
G1 X137.462 Y92.38 E194.092
G1 X138.162 Y92.426
G1 X139.304 Y93.568 E194.15404
;;retract;;
G1 F2400 E193.59404
G1 X138.162 Y92.426
G1 X137.778 Y92.401
G1 X138.162 Y92.426 E193.55015
G1 X139.304 Y93.568 E193.36604
G1 F2400 E193.35404
;MESH:NONMESH
G0 F600 X139.304 Y93.568 Z0.4
G0 F4800 X139.831 Y93.443
G0 X139.337 Y92.638
G0 X138.838 Y92.212
G0 X138.242 Y91.967
G0 X137.71 Y91.9
G0 X81.917 Y91.928
G0 X81.297 Y92.131
G0 X80.764 Y92.519
