;FLAVOR:Marlin
;TIME:2855.27
;Filament used:3.45722m
;Layer Height:0.2
;MINX:94.368
;MINY:95.132
;MINZ:0.2
;MAXX:125.632
;MAXY:124.889
;MAXZ:30
;OuterWall Time:722.64
;InnerWall Time:949
;Skin Time:481.237
;Support Time:0
;SkirtBrim Time:0
;Infill Time:195.697
;Support Infills Time:0
;Combing Time:289.929
;Retraction Time:216.768
;PrimeTower Time:0

;
;
;;;;;;;;;;;;;;;;;;;;;;;;;;;;;;;;;;;;;;;;;;;;;;;;;;;;;;;;;;;;;;;;;;;;;;;;;;;;
;Creality Print GCode Generated by CXEngine
;CRSLICE_GIT_HASH:6b8d75d
;Creality Print Version : V4.3.7.6619
;CXEngine Release Time:2023-09-20 15:19:09
;Gcode Generated Time:2023-12-30 10:36:28
;----------Machine Config--------------
;Machine Name:Ender-3 V3 SE
;Machine Height:250
;Machine Width:220
;Machine Depth:220
;Material Type:PLA
;Material Name:CR-PLA_1.75
;Number of Extruders:1
;ExtruderParams[0] Nozzle Diameter:1000
;----------Profile Config---------------
;Wall Thickness:0.8
;Top/Bottom Thickness:0.8
;Out Wall Line Width:0.42
;Inner Wall Line Width:0.45
;Inital Height:200
;Wall Line Count:3
;Infill Line Distance:9
;Infill Pattern:quarter_cubic
;Infill Sparse Density:10
;Infill Wipe Distance:0.11
;Print Temperature:210
;Bed Temperature:60
;Support Enable:false
;Support Density:15
;Support Angle:60
;Adhesion Type:autobrim
;machine is belt:false
;machine belt offset:10
;machine belt offset Y:0
;Raft Base Line Spacing:1.6
;Wait Heatup Sync:true
;Enable Ironing:false
;Material Type:PLA
;Max volumetric speed:20
;Material Diameter:1.75
;Material Density:1.24
;Filament Cost:0.3
;Filament Weight:0
;Preview Img Type:png
;Screen Size:Sermoon D3
;----------Shell Config----------------
;Outer Wall Wipe Distance:200
;Outer Inset First:false
;Infill Before Walls:false
;Infill Overlap:0.14
;Fill Gaps Between Walls:everywhere
;Minimum Infill Area:15
;Top Surface Skin Layer:1
;Top Layers:4
;Z Seam Alignment:sharpest_corner
;Seam Corner Preference:z_seam_corner_inner
;Z Seam X:110
;Z Seam Y:220
;Horizontal Expansion:0
;Top/Bottom Pattern:zigzag
;Ironing Pattern:zigzag
;Vase Model:false
;----------Support Config----------------
;Support Type:everywhere
;Support Pattern:zigzag
;Support Infill Layer Thickness:0.15
;Minimum Support Area:1
;Enable Support Roof:true
;Support Roof Thickness:0.8
;Support Roof Pattern:lines
;Connect Support Lines:0
;Connect Support ZigZags:1
;Minimum Support X/Y Distance:0.2
;Support Line Distance:2.67
; ---------PrintSpeed & Travel----------
;Enable Print Cool:true
;Avoid Printed Parts Traveling:true
;Enable Retraction:true
;Retraction Distance:0.8
;Retraction Speed:40
;Retraction Prime Speed:40
;Maximum Retraction Count:100
;Minimum Extrusion Distance Window:0.8
;Z Hop When Retracted:false
;Z Hop Height:0.2
;Retract Before Outer Wall:true

;Outer Wall Speed:60
;Inner Wall Speed:90
;Infill Speed:180
;Top/Bottom Speed:50
;Travel Speed:150
;Initial Layer Speed:30
;Skirt/Brim Speed:25
;Prime Tower Speed:60
;Outer Wall Acceleration:1000
;Inner Wall Acceleration:2000
;Infill Acceleration:2500
;Top/Bottom Acceleration:2500
;Travel Acceleration:2500
;Initial Layer Print Acceleration:500
;Initial Layer Travel Acceleration:500
;Skirt/Brim Acceleration:500
;Combing Mode:noskin
; --------SpecialModel&Mesh Fixes--------
;Union Overlapping Volum:true
;Remove All Holes:false
;Maximum Travel Resolution:0.25
;Maximum Deviation:0.05
;Maximum Model Angle:0.872665
;IS Mold Print:false
;Make Overhang Printable:false
;Enable Coasting:false
;Coasting Volumes:0.064
;Coasting Speed:0.9
;Raft AirGap:0.25
;Layer0 ZOverLap:0.13
;Adaptive Layers:0
;---------------------End of Head--------------------------
M140 S60
M105
M190 S60
M104 S210
M82 ;absolute extrusion mode
M220 S100 ;Reset Feedrate
M221 S100 ;Reset Flowrate

G28 ;Home

G92 E0 ;Reset Extruder
G1 Z2.0 F3000 ;Move Z Axis up
G1 X10.1 Y20 Z0.28 F5000.0 ;Move to start position
M109 S210.000000
G1 X10.1 Y145.0 Z0.28 F1500.0 E15 ;Draw the first line
G1 X10.4 Y145.0 Z0.28 F5000.0 ;Move to side a little
G1 X10.4 Y20 Z0.28 F1500.0 E30 ;Draw the second line
G92 E0  ;Reset Extruder
G1 E-1.0000 F1800 ;Retract a bit
G1 Z2.0 F3000 ;Move Z Axis up
G1 E0.0000 F1800 

G92 E0
G92 E0
G1 F2400 E-0.8
;LAYER_COUNT:150

;LAYER:0
M106 S0
M204 S500
;MESH:0_0
G0 F4800 X95.351 Y101.014 Z0.2
;TYPE:WALL-OUTER
G1 F2400 E0
G1 F1800 X101.015 Y95.352 E0.21967
G1 X118.986 Y95.351 E0.71259
G1 X124.649 Y101.014 E0.93225
G1 X124.649 Y102.858 E0.98283
G1 X124.648 Y118.985 E1.42517
G1 X118.985 Y124.648 E1.64484
G1 X101.015 Y124.648 E2.13774
G1 X95.351 Y118.986 E2.3574
G1 X95.351 Y101.014 E2.85035
G0 F4800 X95.492 Y100.873
G0 X95.83 Y101.212
;TYPE:WALL-INNER
G1 F1800 X101.213 Y95.831 E3.07669
G1 X118.788 Y95.83 E3.59933
G1 X124.17 Y101.212 E3.82567
G1 X124.17 Y102.858 E3.87462
G1 X124.17 Y118.787 E4.34831
G1 X118.787 Y124.169 E4.57468
G1 X101.213 Y124.17 E5.09729
G1 X95.83 Y118.788 E5.32365
G1 X95.83 Y101.212 E5.84632
G0 F4800 X96.325 Y101.417
G1 F1800 X101.418 Y96.326 E6.06047
G1 X118.583 Y96.325 E6.57091
G1 X123.675 Y101.417 E6.78506
G1 X123.675 Y102.858 E6.82791
G1 X123.675 Y118.582 E7.29551
G1 X118.582 Y123.674 E7.50967
G1 X101.418 Y123.675 E8.02009
G1 X96.325 Y118.583 E8.23426
G1 X96.325 Y101.417 E8.74474
;;retract;;
G1 F2400 E8.18474
G1 X98.274 Y100.971 E7.95674
G1 F2400 E7.94474
G0 F4800 X96.325 Y101.417
G0 X96.572 Y118.48
G0 X104.777 Y117.579
G0 X105.716 Y117.815
G0 X109.193 Y118.642
G1 F2400 E8.74474
G0 F4800 X109.273 Y117.969
;TYPE:WALL-OUTER
G1 F1800 X108.857 Y117.92 E8.75623
G1 X108.45 Y117.85 E8.76755
G1 X108.052 Y117.76 E8.77874
G1 X107.654 Y117.649 E8.79008
G1 X107.261 Y117.519 E8.80143
G1 X106.876 Y117.367 E8.81279
G1 X106.501 Y117.197 E8.82408
G1 X106.124 Y117.001 E8.83573
G1 X105.765 Y116.79 E8.84715
G1 X105.426 Y116.567 E8.85828
G1 X105.094 Y116.321 E8.86962
G1 X104.774 Y116.059 E8.88096
G1 X104.474 Y115.788 E8.89205
G1 X104.175 Y115.487 E8.90369
G1 X103.9 Y115.18 E8.91499
G1 X103.641 Y114.858 E8.92633
G1 X103.394 Y114.516 E8.9379
G1 X103.176 Y114.178 E8.94893
G1 X102.959 Y113.802 E8.96084
G1 X102.775 Y113.441 E8.97195
G1 X102.606 Y113.062 E8.98333
G1 X102.461 Y112.685 E8.99441
G1 X102.332 Y112.288 E9.00586
G1 X102.224 Y111.888 E9.01723
G1 X102.136 Y111.483 E9.02859
G1 X102.07 Y111.08 E9.0398
G1 X102.025 Y110.663 E9.0513
G1 X102.002 Y110.254 E9.06254
G1 X102 Y109.84 E9.07389
G1 X102.018 Y109.427 E9.08523
G1 X102.059 Y109.012 E9.09667
G1 X102.12 Y108.607 E9.1079
G1 X102.203 Y108.199 E9.11932
G1 X102.307 Y107.802 E9.13058
G1 X102.429 Y107.408 E9.14189
G1 X102.577 Y107.011 E9.15351
G1 X102.739 Y106.638 E9.16467
G1 X102.924 Y106.263 E9.17614
G1 X103.115 Y105.921 E9.18688
G1 X103.348 Y105.553 E9.19883
G1 X103.585 Y105.216 E9.21013
G1 X103.847 Y104.884 E9.22173
G1 X104.112 Y104.582 E9.23275
G1 X104.399 Y104.285 E9.24408
G1 X104.704 Y104.001 E9.25551
G1 X105.011 Y103.743 E9.26651
G1 X105.352 Y103.487 E9.2782
G1 X105.692 Y103.256 E9.28948
G1 X106.048 Y103.041 E9.30089
G1 X106.409 Y102.849 E9.3121
G1 X106.786 Y102.671 E9.32354
G1 X107.173 Y102.513 E9.335
G1 X107.561 Y102.378 E9.34627
G1 X107.96 Y102.262 E9.35767
G1 X108.362 Y102.167 E9.369
G1 X108.768 Y102.093 E9.38032
G1 X109.181 Y102.04 E9.39174
G1 X109.594 Y102.008 E9.4031
G1 X110.007 Y101.999 E9.41443
G1 X110.418 Y102.01 E9.42571
G1 X110.83 Y102.042 E9.43704
G1 X111.243 Y102.096 E9.44847
G1 X111.649 Y102.17 E9.45979
G1 X112.048 Y102.266 E9.47104
G1 X112.448 Y102.383 E9.48247
G1 X112.838 Y102.519 E9.4938
G1 X113.22 Y102.677 E9.50514
G1 X113.601 Y102.855 E9.51667
G1 X113.961 Y103.047 E9.52787
G1 X114.315 Y103.262 E9.53923
G1 X114.658 Y103.494 E9.55058
G1 X114.976 Y103.733 E9.56149
G1 X115.303 Y104.01 E9.57325
G1 X115.614 Y104.3 E9.58491
G1 X115.894 Y104.59 E9.59597
G1 X116.16 Y104.894 E9.60705
G1 X116.421 Y105.227 E9.61865
G1 X116.657 Y105.564 E9.62994
G1 X116.884 Y105.923 E9.64159
G1 X117.083 Y106.28 E9.6528
G1 X117.265 Y106.647 E9.66404
G1 X117.426 Y107.023 E9.67525
G1 X117.575 Y107.42 E9.68689
G1 X117.746 Y107.997 E9.70339
G1 X117.841 Y108.414 E9.71512
G1 X117.942 Y109.022 E9.73203
G1 X117.982 Y109.436 E9.74344
G1 X117.999 Y109.85 E9.7548
G1 X117.997 Y110.264 E9.76616
G1 X117.973 Y110.676 E9.77748
G1 X117.916 Y111.192 E9.79172
G1 X117.818 Y111.704 E9.80601
G1 X117.664 Y112.301 E9.82293
G1 X117.537 Y112.69 E9.83415
G1 X117.387 Y113.079 E9.84559
G1 X117.219 Y113.454 E9.85686
G1 X117.04 Y113.803 E9.86761
G1 X116.819 Y114.185 E9.87972
G1 X116.476 Y114.699 E9.89667
G1 X116.173 Y115.096 E9.91037
G1 X115.743 Y115.575 E9.92802
G1 X115.371 Y115.931 E9.94215
G1 X115.056 Y116.202 E9.95354
G1 X114.737 Y116.448 E9.96459
G1 X114.394 Y116.687 E9.97606
G1 X114.039 Y116.909 E9.98754
G1 X113.676 Y117.107 E9.99888
G1 X113.306 Y117.287 E10.01017
G1 X112.922 Y117.449 E10.0216
G1 X112.539 Y117.588 E10.03278
G1 X112.139 Y117.71 E10.04425
G1 X111.74 Y117.809 E10.05552
G1 X111.302 Y117.896 E10.06777
G1 X110.92 Y117.948 E10.07835
G1 X110.509 Y117.986 E10.08967
G1 X110.095 Y118.001 E10.10103
G1 X109.683 Y117.996 E10.11233
G1 X109.273 Y117.969 E10.1236
G0 F4800 X109.074 Y117.946
G0 X109.218 Y118.444
;TYPE:WALL-INNER
G1 F1800 X108.777 Y118.392 E10.13681
G1 X108.382 Y118.325 E10.14872
G1 X107.924 Y118.221 E10.16269
G1 X107.504 Y118.103 E10.17566
G1 X107.124 Y117.978 E10.18756
G1 X106.68 Y117.803 E10.20175
G1 X106.28 Y117.622 E10.21481
G1 X105.914 Y117.432 E10.22707
G1 X105.533 Y117.209 E10.2402
G1 X105.141 Y116.951 E10.25415
G1 X104.79 Y116.691 E10.26714
G1 X104.453 Y116.414 E10.28011
G1 X104.153 Y116.143 E10.29214
G1 X103.844 Y115.834 E10.30513
G1 X103.528 Y115.481 E10.31922
G1 X103.253 Y115.139 E10.33227
G1 X103.013 Y114.807 E10.34445
G1 X102.761 Y114.417 E10.35826
G1 X102.55 Y114.05 E10.37085
G1 X102.338 Y113.636 E10.38468
G1 X102.16 Y113.234 E10.39776
G1 X102.007 Y112.834 E10.41049
G1 X101.87 Y112.413 E10.42366
G1 X101.765 Y112.024 E10.43564
G1 X101.664 Y111.56 E10.44976
G1 X101.6 Y111.17 E10.46151
G1 X101.548 Y110.691 E10.47584
G1 X101.525 Y110.294 E10.48767
G1 X101.522 Y109.82 E10.50176
G1 X101.539 Y109.419 E10.5137
G1 X101.585 Y108.941 E10.52798
G1 X101.644 Y108.548 E10.5398
G1 X101.74 Y108.078 E10.55406
G1 X101.85 Y107.661 E10.56689
G1 X101.968 Y107.279 E10.57878
G1 X102.138 Y106.821 E10.5933
G1 X102.31 Y106.425 E10.60614
G1 X102.49 Y106.061 E10.61822
G1 X102.717 Y105.655 E10.63205
G1 X102.937 Y105.307 E10.6443
G1 X103.209 Y104.92 E10.65836
G1 X103.463 Y104.597 E10.67058
G1 X103.768 Y104.249 E10.68434
G1 X104.054 Y103.952 E10.6966
G1 X104.37 Y103.658 E10.70944
G1 X104.733 Y103.353 E10.72354
G1 X105.083 Y103.09 E10.73656
G1 X105.444 Y102.847 E10.7495
G1 X105.789 Y102.638 E10.76149
G1 X106.204 Y102.416 E10.77549
G1 X106.571 Y102.243 E10.78755
G1 X106.979 Y102.075 E10.80068
G1 X107.427 Y101.919 E10.81478
G1 X107.814 Y101.806 E10.82677
G1 X108.276 Y101.696 E10.84089
G1 X108.707 Y101.618 E10.85392
G1 X109.108 Y101.566 E10.86594
G1 X109.583 Y101.53 E10.88011
G1 X110.019 Y101.521 E10.89308
G1 X110.455 Y101.533 E10.90605
G1 X110.891 Y101.567 E10.91905
G1 X111.292 Y101.619 E10.93108
G1 X111.723 Y101.697 E10.9441
G1 X112.148 Y101.798 E10.95709
G1 X112.57 Y101.92 E10.97016
G1 X113.021 Y102.076 E10.98435
G1 X113.423 Y102.243 E10.99729
G1 X113.793 Y102.416 E11.00944
G1 X114.175 Y102.619 E11.0223
G1 X114.583 Y102.865 E11.03647
G1 X114.917 Y103.091 E11.04847
G1 X115.295 Y103.376 E11.06254
G1 X115.604 Y103.637 E11.07457
G1 X115.959 Y103.967 E11.08898
G1 X116.231 Y104.249 E11.10064
G1 X116.536 Y104.598 E11.11442
G1 X116.79 Y104.921 E11.12664
G1 X117.062 Y105.308 E11.14071
G1 X117.282 Y105.656 E11.15295
G1 X117.511 Y106.066 E11.16691
G1 X117.688 Y106.421 E11.17871
G1 X117.875 Y106.855 E11.19276
G1 X118.018 Y107.237 E11.20489
G1 X118.216 Y107.905 E11.22561
G1 X118.313 Y108.335 E11.23872
G1 X118.412 Y108.927 E11.25657
G1 X118.46 Y109.416 E11.27118
G1 X118.478 Y109.853 E11.28419
G1 X118.476 Y110.255 E11.29614
G1 X118.448 Y110.728 E11.31023
G1 X118.386 Y111.282 E11.32681
G1 X118.291 Y111.779 E11.34186
G1 X118.119 Y112.449 E11.36243
G1 X117.996 Y112.827 E11.37425
G1 X117.824 Y113.274 E11.38849
G1 X117.661 Y113.638 E11.40035
G1 X117.449 Y114.051 E11.41416
G1 X117.242 Y114.411 E11.42651
G1 X116.856 Y114.99 E11.4472
G1 X116.553 Y115.387 E11.46205
G1 X116.085 Y115.91 E11.48292
G1 X115.711 Y116.268 E11.49832
G1 X115.348 Y116.581 E11.51257
G1 X115.011 Y116.84 E11.52521
G1 X114.648 Y117.092 E11.53835
G1 X114.268 Y117.329 E11.55167
G1 X113.886 Y117.537 E11.5646
G1 X113.527 Y117.712 E11.57648
G1 X113.085 Y117.899 E11.59075
G1 X112.68 Y118.045 E11.60356
G1 X112.254 Y118.175 E11.6168
G1 X111.834 Y118.278 E11.62966
G1 X111.393 Y118.366 E11.64303
G1 X110.965 Y118.425 E11.65588
G1 X110.566 Y118.462 E11.6678
G1 X110.089 Y118.48 E11.68199
G1 X109.689 Y118.475 E11.69389
G1 X109.218 Y118.444 E11.70793
G0 F4800 X109.161 Y118.936
G1 F1800 X108.757 Y118.889 E11.72002
G1 X108.234 Y118.8 E11.7358
G1 X107.791 Y118.698 E11.74932
G1 X107.403 Y118.59 E11.76129
G1 X106.904 Y118.425 E11.77692
G1 X106.529 Y118.277 E11.78891
G1 X106.052 Y118.061 E11.80448
G1 X105.631 Y117.841 E11.81861
G1 X105.282 Y117.636 E11.83064
G1 X104.867 Y117.364 E11.8454
G1 X104.476 Y117.074 E11.85988
G1 X104.165 Y116.819 E11.87184
G1 X103.776 Y116.466 E11.88746
G1 X103.45 Y116.137 E11.90123
G1 X103.143 Y115.792 E11.91496
G1 X102.852 Y115.429 E11.9288
G1 X102.576 Y115.045 E11.94286
G1 X102.364 Y114.717 E11.95448
G1 X102.093 Y114.246 E11.97064
G1 X101.914 Y113.897 E11.9823
G1 X101.698 Y113.412 E11.99809
G1 X101.536 Y112.988 E12.01159
G1 X101.41 Y112.603 E12.02363
G1 X101.273 Y112.096 E12.03925
G1 X101.175 Y111.64 E12.05312
G1 X101.111 Y111.25 E12.06487
G1 X101.053 Y110.72 E12.08073
G1 X101.03 Y110.323 E12.09255
G1 X101.028 Y109.799 E12.10814
G1 X101.049 Y109.333 E12.12201
G1 X101.088 Y108.93 E12.13405
G1 X101.166 Y108.412 E12.14963
G1 X101.247 Y108.016 E12.16165
G1 X101.377 Y107.514 E12.17707
G1 X101.495 Y107.133 E12.18893
G1 X101.683 Y106.625 E12.20504
G1 X101.866 Y106.206 E12.21863
G1 X102.074 Y105.789 E12.23249
G1 X102.299 Y105.39 E12.24611
G1 X102.519 Y105.042 E12.25836
G1 X102.82 Y104.614 E12.27392
G1 X103.074 Y104.291 E12.28613
G1 X103.411 Y103.905 E12.30137
G1 X103.704 Y103.602 E12.31391
G1 X104.078 Y103.256 E12.32906
G1 X104.435 Y102.958 E12.34289
G1 X104.806 Y102.68 E12.35667
G1 X105.137 Y102.456 E12.36856
G1 X105.589 Y102.183 E12.38426
G1 X105.993 Y101.968 E12.39787
G1 X106.36 Y101.795 E12.40994
G1 X106.854 Y101.593 E12.42581
G1 X107.231 Y101.462 E12.43768
G1 X107.734 Y101.315 E12.45326
G1 X108.187 Y101.209 E12.4671
G1 X108.643 Y101.127 E12.48087
G1 X109.044 Y101.075 E12.4929
G1 X109.506 Y101.038 E12.50668
G1 X110.031 Y101.026 E12.5223
G1 X110.493 Y101.039 E12.53604
G1 X110.955 Y101.076 E12.54982
G1 X111.356 Y101.128 E12.56185
G1 X111.812 Y101.21 E12.57563
G1 X112.319 Y101.331 E12.59113
G1 X112.708 Y101.444 E12.60317
G1 X113.211 Y101.619 E12.61901
G1 X113.583 Y101.773 E12.63098
G1 X114.059 Y101.996 E12.64661
G1 X114.408 Y102.182 E12.65838
G1 X114.86 Y102.455 E12.67408
G1 X115.243 Y102.716 E12.68786
G1 X115.561 Y102.955 E12.69969
G1 X115.967 Y103.297 E12.71548
G1 X116.3 Y103.608 E12.72903
G1 X116.627 Y103.949 E12.74308
G1 X116.925 Y104.292 E12.75659
G1 X117.179 Y104.615 E12.76881
G1 X117.48 Y105.043 E12.78437
G1 X117.734 Y105.448 E12.79858
G1 X117.954 Y105.846 E12.81211
G1 X118.16 Y106.263 E12.82594
G1 X118.317 Y106.629 E12.83778
G1 X118.508 Y107.144 E12.85412
G1 X118.679 Y107.721 E12.87201
G1 X118.801 Y108.253 E12.88824
G1 X118.911 Y108.928 E12.90858
G1 X118.955 Y109.395 E12.92253
G1 X118.973 Y109.855 E12.93622
G1 X118.971 Y110.257 E12.94817
G1 X118.941 Y110.781 E12.96378
G1 X118.876 Y111.357 E12.98102
G1 X118.761 Y111.946 E12.99887
G1 X118.611 Y112.529 E13.01677
G1 X118.467 Y112.98 E13.03085
G1 X118.275 Y113.476 E13.04666
G1 X118.085 Y113.898 E13.06043
G1 X117.906 Y114.247 E13.07209
G1 X117.629 Y114.726 E13.08854
G1 X117.25 Y115.29 E13.10875
G1 X116.947 Y115.687 E13.1236
G1 X116.417 Y116.278 E13.14721
G1 X116.054 Y116.626 E13.16216
G1 X115.651 Y116.973 E13.17798
G1 X115.341 Y117.212 E13.18962
G1 X114.911 Y117.512 E13.20521
G1 X114.568 Y117.727 E13.21725
G1 X114.103 Y117.982 E13.23302
G1 X113.744 Y118.157 E13.2449
G1 X113.313 Y118.341 E13.25883
G1 X112.882 Y118.499 E13.27248
