; G-Code originally generated by Simplify3D(R) Version 4.1.2
; This calibration test gcode modified by the Teaching Tech Calibration website: https://teachingtechyt.github.io/calibration.html
;M80 ; power supply on
G90
M82
M106 S0
M140 S60 ; custom bed temp
M190 S60 ; custom bed temp
M104 S155 T0 ; custom hot end temp minus 50 degrees
G28 ; home all axes
;G29 ; probe ABL
M420 S1 ; restore ABL mesh
M109 S205 T0 ; custom hot end temp 
; custom start gcode
G28 ;Home

G92 E0 ;Reset Extruder
G1 Z2.0 F3000 ;Move Z Axis up
G1 X10.1 Y20 Z0.28 F5000.0 ;Move to start position
M109 S205.000000
G1 X10.1 Y145.0 Z0.28 F1500.0 E15 ;Draw the first line
G1 X10.4 Y145.0 Z0.28 F5000.0 ;Move to side a little
G1 X10.4 Y20 Z0.28 F1500.0 E30 ;Draw the second line
G92 E0  ;Reset Extruder
G1 E-1.0000 F1800 ;Retract a bit
G1 Z2.0 F3000 ;Move Z Axis up
G1 E0.0000 F1800 
G0 Z3; fix for delta printers that home at max
;process Process
;layer 1, Z = 0.200
T0
G92 E0.0000
G1 E-2 F2700 ; custom retraction
;fan1;
G1 Z0.200 F1200
G1 X97.1360 Y98.8140 F10000 ; custom feedrate
G1 E0 F2700 ; custom un-retraction/prime
G92 E0.0000
G1 X98.8140 Y97.1360 E0.1023 F3000 ; custom feedrate
G1 X121.1860 Y97.1360 E1.0666
G1 X122.8640 Y98.8140 E1.1689
G1 X122.8640 Y121.1860 E2.1333
G1 X121.1860 Y122.8640 E2.2356
G1 X98.8140 Y122.8640 E3.1999
G1 X97.1360 Y121.1860 E3.3022
G1 X97.1360 Y98.8140 E4.2666
G92 E0.0000
G1 E-2 F2700 ; custom retraction
;zhop1
G1 X97.7120 Y99.0520 F10000 ; custom feedrate
G1 Z0.200 F1200
G1 E0 F2700 ; custom un-retraction/prime
G92 E0.0000
G1 X99.0520 Y97.7120 E0.0817 F3000 ; custom feedrate
G1 X120.9480 Y97.7120 E1.0255
G1 X122.2880 Y99.0520 E1.1072
G1 X122.2880 Y120.9480 E2.0510
G1 X120.9480 Y122.2880 E2.1327
G1 X99.0520 Y122.2880 E3.0765
G1 X97.7120 Y120.9480 E3.1582
G1 X97.7120 Y99.0520 E4.1020
G92 E0.0000
G1 E-2 F2700 ; custom retraction
;zhop1
G1 X100.2880 Y100.2880 F10000 ; custom feedrate
G1 X100.2880 Y100.7020
G1 X101.4400 Y101.4400
G1 Z0.200 F1200
G1 E0 F2700 ; custom un-retraction/prime
G92 E0.0000
G1 X118.5600 Y101.4400 E0.7380 F2400 ; custom feedrate
G1 X118.5600 Y118.5600 E1.4759
G1 X101.4400 Y118.5600 E2.2139
G1 X101.4400 Y101.4400 E2.9518
G1 X100.8640 Y100.8640 F10000 ; custom feedrate
G92 E0.0000
G1 X119.1360 Y100.8640 E0.7876 F2400 ; custom feedrate
G1 X119.1360 Y119.1360 E1.5752
G1 X100.8640 Y119.1360 E2.3629
G1 X100.8640 Y100.8640 E3.1505
G1 X100.2880 Y100.2880 F10000 ; custom feedrate
G92 E0.0000
G1 X119.7120 Y100.2880 E0.8373 F1800 ; custom feedrate
G1 X119.7120 Y119.7120 E1.6745
G1 X100.2880 Y119.7120 E2.5118
G1 X100.2880 Y100.2880 E3.3491
G1 X118.0770 Y101.7860 F10000 ; custom feedrate
G92 E0.0000
G1 X118.2140 Y101.9230 E0.0084 F2400 ; custom feedrate
G1 X118.2140 Y102.7370 E0.0435
G1 X117.2630 Y101.7860 E0.1015
G1 X116.4480 Y101.7860 E0.1366
G1 X118.2140 Y103.5520 E0.2443
G1 X118.2140 Y104.3660 E0.2794
G1 X115.6340 Y101.7860 E0.4367
G1 X114.8190 Y101.7860 E0.4718
G1 X118.2140 Y105.1810 E0.6788
G1 X118.2140 Y105.9960 E0.7139
G1 X114.0040 Y101.7860 E0.9705
G1 X113.1900 Y101.7860 E1.0057
G1 X118.2140 Y106.8100 E1.3120
G1 X118.2140 Y107.6250 E1.3471
G1 X112.3750 Y101.7860 E1.7030
G1 X111.5610 Y101.7860 E1.7381
G1 X118.2140 Y108.4390 E2.1437
G1 X118.2140 Y109.2540 E2.1789
G1 X110.7460 Y101.7860 E2.6341
G1 X109.9310 Y101.7860 E2.6692
G1 X118.2140 Y110.0690 E3.1742
G1 X118.2140 Y110.8830 E3.2093
G1 X109.1170 Y101.7860 E3.7639
G1 X108.3020 Y101.7860 E3.7990
G1 X118.2140 Y111.6980 E4.4032
G1 X118.2140 Y112.5120 E4.4383
G1 X107.4880 Y101.7860 E5.0922
G1 X106.6730 Y101.7860 E5.1273
G1 X118.2140 Y113.3270 E5.8309
G1 X118.2140 Y114.1410 E5.8660
G1 X105.8590 Y101.7860 E6.6192
G1 X105.0440 Y101.7860 E6.6543
G1 X118.2140 Y114.9560 E7.4572
G1 X118.2140 Y115.7710 E7.4923
G1 X104.2290 Y101.7860 E8.3448
G1 X103.4150 Y101.7860 E8.3799
G1 X118.2140 Y116.5850 E9.2821
G1 X118.2140 Y117.4000 E9.3172
G1 X102.6000 Y101.7860 E10.2691
G1 X101.7860 Y101.7860 E10.3042
G1 X118.2140 Y118.2140 E11.3057
G1 X117.4000 Y118.2140 E11.3408
G1 X101.7860 Y102.6000 E12.2926
G1 X101.7860 Y103.4150 E12.3278
G1 X116.5850 Y118.2140 E13.2299
G1 X115.7710 Y118.2140 E13.2651
G1 X101.7860 Y104.2290 E14.1176
G1 X101.7860 Y105.0440 E14.1527
G1 X114.9560 Y118.2140 E14.9556
G1 X114.1410 Y118.2140 E14.9907
G1 X101.7860 Y105.8590 E15.7439
G1 X101.7860 Y106.6730 E15.7790
G1 X113.3270 Y118.2140 E16.4826
G1 X112.5120 Y118.2140 E16.5177
G1 X101.7860 Y107.4880 E17.1716
G1 X101.7860 Y108.3020 E17.2067
G1 X111.6980 Y118.2140 E17.8109
G1 X110.8830 Y118.2140 E17.8460
G1 X101.7860 Y109.1170 E18.4006
G1 X101.7860 Y109.9310 E18.4357
G1 X110.0690 Y118.2140 E18.9407
G1 X109.2540 Y118.2140 E18.9758
G1 X101.7860 Y110.7460 E19.4310
G1 X101.7860 Y111.5610 E19.4662
G1 X108.4390 Y118.2140 E19.8718
G1 X107.6250 Y118.2140 E19.9069
G1 X101.7860 Y112.3750 E20.2628
G1 X101.7860 Y113.1900 E20.2980
G1 X106.8100 Y118.2140 E20.6043
G1 X105.9960 Y118.2140 E20.6394
G1 X101.7860 Y114.0040 E20.8960
G1 X101.7860 Y114.8190 E20.9311
G1 X105.1810 Y118.2140 E21.1381
G1 X104.3660 Y118.2140 E21.1732
G1 X101.7860 Y115.6340 E21.3305
G1 X101.7860 Y116.4480 E21.3657
G1 X103.5520 Y118.2140 E21.4733
G1 X102.7370 Y118.2140 E21.5084
G1 X101.7860 Y117.2630 E21.5665
G1 X101.7860 Y118.0770 E21.6016
G1 X101.9230 Y118.2140 E21.6099
G92 E0.0000
G1 E-2 F2700 ; custom retraction
;layer 2, Z = 0.400
M106 S255; custom fan 100% from layer 2
G1 Z0.400 F1200
G1 X101.2000 Y118.8000 F10000 ; custom feedrate
G1 E0 F2700 ; custom un-retraction/prime
G92 E0.0000
G1 X101.2000 Y101.2000 E0.6322 F4800 ; custom feedrate
G1 X118.8000 Y101.2000 E1.2644
G1 X118.8000 Y118.8000 E1.8966
G1 X101.2000 Y118.8000 E2.5288
G1 X100.7200 Y119.2800 F10000 ; custom feedrate
G92 E0.0000
G1 X100.7200 Y100.7200 E0.6667 F4800 ; custom feedrate
G1 X119.2800 Y100.7200 E1.3334
G1 X119.2800 Y119.2800 E2.0001
G1 X100.7200 Y119.2800 E2.6668
G1 X100.2400 Y119.7600 F10000 ; custom feedrate
G92 E0.0000
G1 X100.2400 Y100.2400 E0.7012 F3600 ; custom feedrate
G1 X119.7600 Y100.2400 E1.4024
G1 X119.7600 Y119.7600 E2.1035
G1 X100.2400 Y119.7600 E2.8047
G1 X101.4880 Y101.5410 F10000 ; custom feedrate
G92 E0.0000
G1 X101.5410 Y101.4880 E0.0027 F4800 ; custom feedrate
G1 X102.2200 Y101.4880 E0.0271
G1 X101.4880 Y102.2200 E0.0643
G1 X101.4880 Y102.8990 E0.0887
G1 X102.8990 Y101.4880 E0.1604
G1 X103.5780 Y101.4880 E0.1848
G1 X101.4880 Y103.5780 E0.2909
G1 X101.4880 Y104.2570 E0.3153
G1 X104.2570 Y101.4880 E0.4560
G1 X104.9360 Y101.4880 E0.4803
G1 X101.4880 Y104.9360 E0.6555
G1 X101.4880 Y105.6140 E0.6799
G1 X105.6140 Y101.4880 E0.8895
G1 X106.2930 Y101.4880 E0.9139
G1 X101.4880 Y106.2930 E1.1580
G1 X101.4880 Y106.9720 E1.1824
G1 X106.9720 Y101.4880 E1.4609
G1 X107.6510 Y101.4880 E1.4853
G1 X101.4880 Y107.6510 E1.7984
G1 X101.4880 Y108.3300 E1.8228
G1 X108.3300 Y101.4880 E2.1703
G1 X109.0090 Y101.4880 E2.1947
G1 X101.4880 Y109.0090 E2.5768
G1 X101.4880 Y109.6870 E2.6012
G1 X109.6870 Y101.4880 E3.0177
G1 X110.3660 Y101.4880 E3.0421
G1 X101.4880 Y110.3660 E3.4931
G1 X101.4880 Y111.0450 E3.5175
G1 X111.0450 Y101.4880 E4.0030
G1 X111.7240 Y101.4880 E4.0273
G1 X101.4880 Y111.7240 E4.5473
G1 X101.4880 Y112.4030 E4.5717
G1 X112.4030 Y101.4880 E5.1262
G1 X113.0810 Y101.4880 E5.1505
G1 X101.4880 Y113.0810 E5.7395
G1 X101.4880 Y113.7600 E5.7639
G1 X113.7600 Y101.4880 E6.3873
G1 X114.4390 Y101.4880 E6.4117
G1 X101.4880 Y114.4390 E7.0696
G1 X101.4880 Y115.1180 E7.0940
G1 X115.1180 Y101.4880 E7.7864
G1 X115.7970 Y101.4880 E7.8108
G1 X101.4880 Y115.7970 E8.5377
G1 X101.4880 Y116.4760 E8.5620
G1 X116.4760 Y101.4880 E9.3234
G1 X117.1540 Y101.4880 E9.3478
G1 X101.4880 Y117.1540 E10.1436
G1 X101.4880 Y117.8330 E10.1680
G1 X117.8330 Y101.4880 E10.9984
G1 X118.5120 Y101.4880 E11.0227
G1 X101.4880 Y118.5120 E11.8876
G1 X102.1670 Y118.5120 E11.9119
G1 X118.5120 Y102.1670 E12.7423
G1 X118.5120 Y102.8460 E12.7667
G1 X102.8460 Y118.5120 E13.5625
G1 X103.5250 Y118.5120 E13.5869
G1 X118.5120 Y103.5250 E14.3482
G1 X118.5120 Y104.2030 E14.3726
G1 X104.2030 Y118.5120 E15.0995
G1 X104.8820 Y118.5120 E15.1239
G1 X118.5120 Y104.8820 E15.8163
G1 X118.5120 Y105.5610 E15.8407
G1 X105.5610 Y118.5120 E16.4986
G1 X106.2400 Y118.5120 E16.5230
G1 X118.5120 Y106.2400 E17.1464
G1 X118.5120 Y106.9190 E17.1708
G1 X106.9190 Y118.5120 E17.7597
G1 X107.5970 Y118.5120 E17.7841
G1 X118.5120 Y107.5970 E18.3386
G1 X118.5120 Y108.2760 E18.3629
G1 X108.2760 Y118.5120 E18.8829
G1 X108.9550 Y118.5120 E18.9073
G1 X118.5120 Y108.9550 E19.3928
G1 X118.5120 Y109.6340 E19.4172
G1 X109.6340 Y118.5120 E19.8682
G1 X110.3130 Y118.5120 E19.8926
G1 X118.5120 Y110.3130 E20.3091
G1 X118.5120 Y110.9920 E20.3335
G1 X110.9920 Y118.5120 E20.7155
G1 X111.6700 Y118.5120 E20.7399
G1 X118.5120 Y111.6700 E21.0875
G1 X118.5120 Y112.3490 E21.1118
G1 X112.3490 Y118.5120 E21.4249
G1 X113.0280 Y118.5120 E21.4493
G1 X118.5120 Y113.0280 E21.7279
G1 X118.5120 Y113.7070 E21.7523
G1 X113.7070 Y118.5120 E21.9964
G1 X114.3860 Y118.5120 E22.0207
G1 X118.5120 Y114.3860 E22.2304
G1 X118.5120 Y115.0640 E22.2547
G1 X115.0640 Y118.5120 E22.4299
G1 X115.7430 Y118.5120 E22.4543
G1 X118.5120 Y115.7430 E22.5949
G1 X118.5120 Y116.4220 E22.6193
G1 X116.4220 Y118.5120 E22.7255
G1 X117.1010 Y118.5120 E22.7498
G1 X118.5120 Y117.1010 E22.8215
G1 X118.5120 Y117.7800 E22.8459
G1 X117.7800 Y118.5120 E22.8831
G1 X118.4590 Y118.5120 E22.9075
G1 X118.5120 Y118.4590 E22.9102
G92 E0.0000
G1 E-2 F2700 ; custom retraction
;layer 3, Z = 0.600
;fan3;
G1 Z0.600 F1200
G1 X118.8000 Y118.8000 F10000 ; custom feedrate
G1 E0 F2700 ; custom un-retraction/prime
G92 E0.0000
G1 X101.2000 Y118.8000 E0.6322 F4800 ; custom feedrate
G1 X101.2000 Y101.2000 E1.2644
G1 X118.8000 Y101.2000 E1.8966
G1 X118.8000 Y118.8000 E2.5288
G1 X119.2800 Y119.2800 F10000 ; custom feedrate
G92 E0.0000
G1 X100.7200 Y119.2800 E0.6667 F4800 ; custom feedrate
G1 X100.7200 Y100.7200 E1.3334
G1 X119.2800 Y100.7200 E2.0001
G1 X119.2800 Y119.2800 E2.6668
G1 X119.7600 Y119.7600 F10000 ; custom feedrate
G92 E0.0000
G1 X100.2400 Y119.7600 E0.7012 F3600 ; custom feedrate
G1 X100.2400 Y100.2400 E1.4024
G1 X119.7600 Y100.2400 E2.1035
G1 X119.7600 Y119.7600 E2.8047
G1 X101.5410 Y118.5120 F10000 ; custom feedrate
G92 E0.0000
G1 X101.4880 Y118.4590 E0.0027 F4800 ; custom feedrate
G1 X101.4880 Y117.7800 E0.0271
G1 X102.2200 Y118.5120 E0.0643
G1 X102.8990 Y118.5120 E0.0887
G1 X101.4880 Y117.1010 E0.1604
G1 X101.4880 Y116.4220 E0.1847
G1 X103.5780 Y118.5120 E0.2909
G1 X104.2570 Y118.5120 E0.3153
G1 X101.4880 Y115.7430 E0.4560
G1 X101.4880 Y115.0640 E0.4803
G1 X104.9360 Y118.5120 E0.6555
G1 X105.6140 Y118.5120 E0.6799
G1 X101.4880 Y114.3860 E0.8895
G1 X101.4880 Y113.7070 E0.9139
G1 X106.2930 Y118.5120 E1.1580
G1 X106.9720 Y118.5120 E1.1823
G1 X101.4880 Y113.0280 E1.4609
G1 X101.4880 Y112.3490 E1.4853
G1 X107.6510 Y118.5120 E1.7984
G1 X108.3300 Y118.5120 E1.8228
G1 X101.4880 Y111.6700 E2.1703
G1 X101.4880 Y110.9920 E2.1947
G1 X109.0080 Y118.5120 E2.5768
G1 X109.6870 Y118.5120 E2.6011
G1 X101.4880 Y110.3130 E3.0177
G1 X101.4880 Y109.6340 E3.0420
G1 X110.3660 Y118.5120 E3.4931
G1 X111.0450 Y118.5120 E3.5174
G1 X101.4880 Y108.9550 E4.0029
G1 X101.4880 Y108.2760 E4.0273
G1 X111.7240 Y118.5120 E4.5473
G1 X112.4030 Y118.5120 E4.5717
G1 X101.4880 Y107.5970 E5.1261
G1 X101.4880 Y106.9190 E5.1505
G1 X113.0810 Y118.5120 E5.7395
G1 X113.7600 Y118.5120 E5.7639
G1 X101.4880 Y106.2400 E6.3873
G1 X101.4880 Y105.5610 E6.4117
G1 X114.4390 Y118.5120 E7.0696
G1 X115.1180 Y118.5120 E7.0940
G1 X101.4880 Y104.8820 E7.7864
G1 X101.4880 Y104.2030 E7.8107
G1 X115.7970 Y118.5120 E8.5376
G1 X116.4760 Y118.5120 E8.5620
G1 X101.4880 Y103.5240 E9.3234
G1 X101.4880 Y102.8460 E9.3478
G1 X117.1540 Y118.5120 E10.1436
G1 X117.8330 Y118.5120 E10.1680
G1 X101.4880 Y102.1670 E10.9983
G1 X101.4880 Y101.4880 E11.0227
G1 X118.5120 Y118.5120 E11.8875
G1 X118.5120 Y117.8330 E11.9119
G1 X102.1670 Y101.4880 E12.7422
G1 X102.8460 Y101.4880 E12.7666
G1 X118.5120 Y117.1540 E13.5625
G1 X118.5120 Y116.4760 E13.5869
G1 X103.5240 Y101.4880 E14.3482
G1 X104.2030 Y101.4880 E14.3726
G1 X118.5120 Y115.7970 E15.0995
G1 X118.5120 Y115.1180 E15.1239
G1 X104.8820 Y101.4880 E15.8163
G1 X105.5610 Y101.4880 E15.8407
G1 X118.5120 Y114.4390 E16.4986
G1 X118.5120 Y113.7600 E16.5230
G1 X106.2400 Y101.4880 E17.1464
G1 X106.9190 Y101.4880 E17.1708
G1 X118.5120 Y113.0810 E17.7597
G1 X118.5120 Y112.4030 E17.7841
G1 X107.5970 Y101.4880 E18.3385
G1 X108.2760 Y101.4880 E18.3629
G1 X118.5120 Y111.7240 E18.8829
G1 X118.5120 Y111.0450 E18.9073
G1 X108.9550 Y101.4880 E19.3928
G1 X109.6340 Y101.4880 E19.4172
G1 X118.5120 Y110.3660 E19.8682
G1 X118.5120 Y109.6870 E19.8926
G1 X110.3130 Y101.4880 E20.3091
G1 X110.9920 Y101.4880 E20.3335
G1 X118.5120 Y109.0080 E20.7155
G1 X118.5120 Y108.3300 E20.7399
G1 X111.6700 Y101.4880 E21.0874
G1 X112.3490 Y101.4880 E21.1118
G1 X118.5120 Y107.6510 E21.4249
G1 X118.5120 Y106.9720 E21.4493
G1 X113.0280 Y101.4880 E21.7279
G1 X113.7070 Y101.4880 E21.7523
G1 X118.5120 Y106.2930 E21.9964
G1 X118.5120 Y105.6140 E22.0207
G1 X114.3860 Y101.4880 E22.2304
G1 X115.0640 Y101.4880 E22.2547
G1 X118.5120 Y104.9360 E22.4299
G1 X118.5120 Y104.2570 E22.4543
G1 X115.7430 Y101.4880 E22.5949
G1 X116.4220 Y101.4880 E22.6193
G1 X118.5120 Y103.5780 E22.7255
G1 X118.5120 Y102.8990 E22.7498
G1 X117.1010 Y101.4880 E22.8215
G1 X117.7800 Y101.4880 E22.8459
G1 X118.5120 Y102.2200 E22.8831
G1 X118.5120 Y101.5410 E22.9075
G1 X118.4590 Y101.4880 E22.9102
G92 E0.0000
G1 E-2 F2700 ; custom retraction
;layer 4, Z = 0.800
;fan4;
G1 Z0.800 F1200
G1 X118.8000 Y101.2000 F10000 ; custom feedrate
G1 E0 F2700 ; custom un-retraction/prime
G92 E0.0000
G1 X118.8000 Y118.8000 E0.6322 F4800 ; custom feedrate
G1 X101.2000 Y118.8000 E1.2644
G1 X101.2000 Y101.2000 E1.8966
G1 X118.8000 Y101.2000 E2.5288
G1 X119.2800 Y100.7200 F10000 ; custom feedrate
G92 E0.0000
G1 X119.2800 Y119.2800 E0.6667 F4800 ; custom feedrate
G1 X100.7200 Y119.2800 E1.3334
G1 X100.7200 Y100.7200 E2.0001
G1 X119.2800 Y100.7200 E2.6668
G1 X119.7600 Y100.2400 F10000 ; custom feedrate
G92 E0.0000
G1 X119.7600 Y119.7600 E0.7012 F3600 ; custom feedrate
G1 X100.2400 Y119.7600 E1.4024
G1 X100.2400 Y100.2400 E2.1035
G1 X119.7600 Y100.2400 E2.8047
G1 X118.4520 Y114.2760 F10000 ; custom feedrate
G92 E0.0000
G1 X114.2760 Y118.4520 E0.2652 F6000 ; custom feedrate
G1 X110.0330 Y118.4520 E0.4557
G1 X118.4520 Y110.0330 E0.9903
G1 X118.4520 Y105.7910 E1.1808
G1 X105.7910 Y118.4520 E1.9848
G1 X101.5480 Y118.4520 E2.1753
G1 X118.4520 Y101.5480 E3.2487
G1 X114.2090 Y101.5480 E3.4392
G1 X101.5480 Y114.2090 E4.2432
G1 X101.5480 Y109.9670 E4.4337
G1 X109.9670 Y101.5480 E4.9682
G1 X105.7240 Y101.5480 E5.1587
G1 X101.5480 Y105.7240 E5.4239
G92 E0.0000
G1 E-2 F2700 ; custom retraction
;layer 5, Z = 1.000
;fan5;
;
G1 Z1.000 F1200
G1 X101.2000 Y101.2000 F10000 ; custom feedrate
G1 E0 F2700 ; custom un-retraction/prime
G92 E0.0000
G1 X118.8000 Y101.2000 E0.6322 F4800 ; custom feedrate
G1 X118.8000 Y118.8000 E1.2644
G1 X101.2000 Y118.8000 E1.8966
G1 X101.2000 Y101.2000 E2.5288
G1 X100.7200 Y100.7200 F10000 ; custom feedrate
G92 E0.0000
G1 X119.2800 Y100.7200 E0.6667 F4800 ; custom feedrate
G1 X119.2800 Y119.2800 E1.3334
G1 X100.7200 Y119.2800 E2.0001
G1 X100.7200 Y100.7200 E2.6668
G1 X100.2400 Y100.2400 F10000 ; custom feedrate
G92 E0.0000
G1 X119.7600 Y100.2400 E0.7012 F3600 ; custom feedrate
G1 X119.7600 Y119.7600 E1.4024
G1 X100.2400 Y119.7600 E2.1035
G1 X100.2400 Y100.2400 E2.8047
G1 X114.2760 Y101.5480 F10000 ; custom feedrate
G92 E0.0000
G1 X118.4520 Y105.7240 E0.2652 F6000 ; custom feedrate
G1 X118.4520 Y109.9670 E0.4557
G1 X110.0330 Y101.5480 E0.9903
G1 X105.7910 Y101.5480 E1.1808
G1 X118.4520 Y114.2090 E1.9848
G1 X118.4520 Y118.4520 E2.1753
G1 X101.5480 Y101.5480 E3.2487
G1 X101.5480 Y105.7910 E3.4392
G1 X114.2090 Y118.4520 E4.2432
G1 X109.9670 Y118.4520 E4.4337
G1 X101.5480 Y110.0330 E4.9682
G1 X101.5480 Y114.2760 E5.1587
G1 X105.7240 Y118.4520 E5.4239
G92 E0.0000
G1 E-2 F2700 ; custom retraction
;layer 6, Z = 1.200
;fan6;
G1 Z1.200 F1200
G1 X101.2000 Y118.8000 F10000 ; custom feedrate
G1 E0 F2700 ; custom un-retraction/prime
G92 E0.0000
G1 X101.2000 Y101.2000 E0.6322 F4800 ; custom feedrate
G1 X118.8000 Y101.2000 E1.2644
G1 X118.8000 Y118.8000 E1.8966
G1 X101.2000 Y118.8000 E2.5288
G1 X100.7200 Y119.2800 F10000 ; custom feedrate
G92 E0.0000
G1 X100.7200 Y100.7200 E0.6667 F4800 ; custom feedrate
G1 X119.2800 Y100.7200 E1.3334
G1 X119.2800 Y119.2800 E2.0001
G1 X100.7200 Y119.2800 E2.6668
G1 X100.2400 Y119.7600 F10000 ; custom feedrate
G92 E0.0000
G1 X100.2400 Y100.2400 E0.7012 F3600 ; custom feedrate
G1 X119.7600 Y100.2400 E1.4024
G1 X119.7600 Y119.7600 E2.1035
G1 X100.2400 Y119.7600 E2.8047
G1 X101.5480 Y105.7240 F10000 ; custom feedrate
G92 E0.0000
G1 X105.7240 Y101.5480 E0.2652 F6000 ; custom feedrate
G1 X109.9670 Y101.5480 E0.4557
G1 X101.5480 Y109.9670 E0.9903
G1 X101.5480 Y114.2090 E1.1808
G1 X114.2090 Y101.5480 E1.9848
G1 X118.4520 Y101.5480 E2.1753
G1 X101.5480 Y118.4520 E3.2487
G1 X105.7910 Y118.4520 E3.4392
G1 X118.4520 Y105.7910 E4.2432
G1 X118.4520 Y110.0330 E4.4337
G1 X110.0330 Y118.4520 E4.9682
G1 X114.2760 Y118.4520 E5.1587
G1 X118.4520 Y114.2760 E5.4239
G92 E0.0000
G1 E-2 F2700 ; custom retraction
;layer 7, Z = 1.400
;fan7;
G1 Z1.400 F1200
G1 X118.8000 Y118.8000 F10000 ; custom feedrate
G1 E0 F2700 ; custom un-retraction/prime
G92 E0.0000
G1 X101.2000 Y118.8000 E0.6322 F4800 ; custom feedrate
G1 X101.2000 Y101.2000 E1.2644
G1 X118.8000 Y101.2000 E1.8966
G1 X118.8000 Y118.8000 E2.5288
G1 X119.2800 Y119.2800 F10000 ; custom feedrate
G92 E0.0000
G1 X100.7200 Y119.2800 E0.6667 F4800 ; custom feedrate
G1 X100.7200 Y100.7200 E1.3334
G1 X119.2800 Y100.7200 E2.0001
G1 X119.2800 Y119.2800 E2.6668
G1 X119.7600 Y119.7600 F10000 ; custom feedrate
G92 E0.0000
G1 X100.2400 Y119.7600 E0.7012 F3600 ; custom feedrate
G1 X100.2400 Y100.2400 E1.4024
G1 X119.7600 Y100.2400 E2.1035
G1 X119.7600 Y119.7600 E2.8047
G1 X105.7240 Y118.4520 F10000 ; custom feedrate
G92 E0.0000
G1 X101.5480 Y114.2760 E0.2652 F6000 ; custom feedrate
G1 X101.5480 Y110.0330 E0.4557
G1 X109.9670 Y118.4520 E0.9903
G1 X114.2090 Y118.4520 E1.1808
G1 X101.5480 Y105.7910 E1.9848
G1 X101.5480 Y101.5480 E2.1753
G1 X118.4520 Y118.4520 E3.2487
G1 X118.4520 Y114.2090 E3.4392
G1 X105.7910 Y101.5480 E4.2432
G1 X110.0330 Y101.5480 E4.4337
G1 X118.4520 Y109.9670 E4.9682
G1 X118.4520 Y105.7240 E5.1587
G1 X114.2760 Y101.5480 E5.4239
G92 E0.0000
G1 E-2 F2700 ; custom retraction
;layer 8, Z = 1.600
;fan8;
G1 Z1.600 F1200
G1 X118.8000 Y101.2000 F10000 ; custom feedrate
G1 E0 F2700 ; custom un-retraction/prime
G92 E0.0000
G1 X118.8000 Y118.8000 E0.6322 F4800 ; custom feedrate
G1 X101.2000 Y118.8000 E1.2644
G1 X101.2000 Y101.2000 E1.8966
G1 X118.8000 Y101.2000 E2.5288
G1 X119.2800 Y100.7200 F10000 ; custom feedrate
G92 E0.0000
G1 X119.2800 Y119.2800 E0.6667 F4800 ; custom feedrate
G1 X100.7200 Y119.2800 E1.3334
G1 X100.7200 Y100.7200 E2.0001
G1 X119.2800 Y100.7200 E2.6668
G1 X119.7600 Y100.2400 F10000 ; custom feedrate
G92 E0.0000
G1 X119.7600 Y119.7600 E0.7012 F3600 ; custom feedrate
G1 X100.2400 Y119.7600 E1.4024
G1 X100.2400 Y100.2400 E2.1035
G1 X119.7600 Y100.2400 E2.8047
G1 X118.4520 Y114.2760 F10000 ; custom feedrate
G92 E0.0000
G1 X114.2760 Y118.4520 E0.2652 F6000 ; custom feedrate
G1 X110.0330 Y118.4520 E0.4557
G1 X118.4520 Y110.0330 E0.9903
G1 X118.4520 Y105.7910 E1.1808
G1 X105.7910 Y118.4520 E1.9848
G1 X101.5480 Y118.4520 E2.1753
G1 X118.4520 Y101.5480 E3.2487
G1 X114.2090 Y101.5480 E3.4392
G1 X101.5480 Y114.2090 E4.2432
G1 X101.5480 Y109.9670 E4.4337
G1 X109.9670 Y101.5480 E4.9682
G1 X105.7240 Y101.5480 E5.1587
G1 X101.5480 Y105.7240 E5.4239
G92 E0.0000
G1 E-2 F2700 ; custom retraction
;layer 9, Z = 1.800
;fan9;
G1 Z1.800 F1200
G1 X101.2000 Y101.2000 F10000 ; custom feedrate
G1 E0 F2700 ; custom un-retraction/prime
G92 E0.0000
G1 X118.8000 Y101.2000 E0.6322 F4800 ; custom feedrate
G1 X118.8000 Y118.8000 E1.2644
G1 X101.2000 Y118.8000 E1.8966
G1 X101.2000 Y101.2000 E2.5288
G1 X100.7200 Y100.7200 F10000 ; custom feedrate
G92 E0.0000
G1 X119.2800 Y100.7200 E0.6667 F4800 ; custom feedrate
G1 X119.2800 Y119.2800 E1.3334
G1 X100.7200 Y119.2800 E2.0001
G1 X100.7200 Y100.7200 E2.6668
G1 X100.2400 Y100.2400 F10000 ; custom feedrate
G92 E0.0000
G1 X119.7600 Y100.2400 E0.7012 F3600 ; custom feedrate
G1 X119.7600 Y119.7600 E1.4024
G1 X100.2400 Y119.7600 E2.1035
G1 X100.2400 Y100.2400 E2.8047
G1 X114.2760 Y101.5480 F10000 ; custom feedrate
G92 E0.0000
G1 X118.4520 Y105.7240 E0.2652 F6000 ; custom feedrate
G1 X118.4520 Y109.9670 E0.4557
G1 X110.0330 Y101.5480 E0.9903
G1 X105.7910 Y101.5480 E1.1808
G1 X118.4520 Y114.2090 E1.9848
G1 X118.4520 Y118.4520 E2.1753
G1 X101.5480 Y101.5480 E3.2487
G1 X101.5480 Y105.7910 E3.4392
G1 X114.2090 Y118.4520 E4.2432
G1 X109.9670 Y118.4520 E4.4337
G1 X101.5480 Y110.0330 E4.9682
G1 X101.5480 Y114.2760 E5.1587
G1 X105.7240 Y118.4520 E5.4239
G92 E0.0000
G1 E-2 F2700 ; custom retraction
;layer 10, Z = 2.000
;fan10;
G1 Z2.000 F1200
G1 X101.2000 Y118.8000 F10000 ; custom feedrate
G1 E0 F2700 ; custom un-retraction/prime
G92 E0.0000
G1 X101.2000 Y101.2000 E0.6322 F4800 ; custom feedrate
G1 X118.8000 Y101.2000 E1.2644
G1 X118.8000 Y118.8000 E1.8966
G1 X101.2000 Y118.8000 E2.5288
G1 X100.7200 Y119.2800 F10000 ; custom feedrate
G92 E0.0000
G1 X100.7200 Y100.7200 E0.6667 F4800 ; custom feedrate
G1 X119.2800 Y100.7200 E1.3334
G1 X119.2800 Y119.2800 E2.0001
G1 X100.7200 Y119.2800 E2.6668
G1 X100.2400 Y119.7600 F10000 ; custom feedrate
G92 E0.0000
G1 X100.2400 Y100.2400 E0.7012 F3600 ; custom feedrate
G1 X119.7600 Y100.2400 E1.4024
G1 X119.7600 Y119.7600 E2.1035
G1 X100.2400 Y119.7600 E2.8047
G1 X101.5480 Y105.7240 F10000 ; custom feedrate
G92 E0.0000
G1 X105.7240 Y101.5480 E0.2652 F6000 ; custom feedrate
G1 X109.9670 Y101.5480 E0.4557
G1 X101.5480 Y109.9670 E0.9903
G1 X101.5480 Y114.2090 E1.1808
G1 X114.2090 Y101.5480 E1.9848
G1 X118.4520 Y101.5480 E2.1753
G1 X101.5480 Y118.4520 E3.2487
G1 X105.7910 Y118.4520 E3.4392
G1 X118.4520 Y105.7910 E4.2432
G1 X118.4520 Y110.0330 E4.4337
G1 X110.0330 Y118.4520 E4.9682
G1 X114.2760 Y118.4520 E5.1587
G1 X118.4520 Y114.2760 E5.4239
G92 E0.0000
G1 E-2 F2700 ; custom retraction
;layer 11, Z = 2.200
;fan11;
G1 Z2.200 F1200
G1 X118.8000 Y118.8000 F10000 ; custom feedrate
G1 E0 F2700 ; custom un-retraction/prime
G92 E0.0000
G1 X101.2000 Y118.8000 E0.6322 F4800 ; custom feedrate
G1 X101.2000 Y101.2000 E1.2644
G1 X118.8000 Y101.2000 E1.8966
G1 X118.8000 Y118.8000 E2.5288
G1 X119.2800 Y119.2800 F10000 ; custom feedrate
G92 E0.0000
G1 X100.7200 Y119.2800 E0.6667 F4800 ; custom feedrate
G1 X100.7200 Y100.7200 E1.3334
G1 X119.2800 Y100.7200 E2.0001
G1 X119.2800 Y119.2800 E2.6668
G1 X119.7600 Y119.7600 F10000 ; custom feedrate
G92 E0.0000
G1 X100.2400 Y119.7600 E0.7012 F3600 ; custom feedrate
G1 X100.2400 Y100.2400 E1.4024
G1 X119.7600 Y100.2400 E2.1035
G1 X119.7600 Y119.7600 E2.8047
G1 X105.7240 Y118.4520 F10000 ; custom feedrate
G92 E0.0000
G1 X101.5480 Y114.2760 E0.2652 F6000 ; custom feedrate
G1 X101.5480 Y110.0330 E0.4557
G1 X109.9670 Y118.4520 E0.9903
G1 X114.2090 Y118.4520 E1.1808
G1 X101.5480 Y105.7910 E1.9848
G1 X101.5480 Y101.5480 E2.1753
G1 X118.4520 Y118.4520 E3.2487
G1 X118.4520 Y114.2090 E3.4392
G1 X105.7910 Y101.5480 E4.2432
G1 X110.0330 Y101.5480 E4.4337
G1 X118.4520 Y109.9670 E4.9682
G1 X118.4520 Y105.7240 E5.1587
G1 X114.2760 Y101.5480 E5.4239
G92 E0.0000
G1 E-2 F2700 ; custom retraction
;layer 12, Z = 2.400
;fan12;
G1 Z2.400 F1200
G1 X118.8000 Y101.2000 F10000 ; custom feedrate
G1 E0 F2700 ; custom un-retraction/prime
G92 E0.0000
G1 X118.8000 Y118.8000 E0.6322 F4800 ; custom feedrate
G1 X101.2000 Y118.8000 E1.2644
G1 X101.2000 Y101.2000 E1.8966
G1 X118.8000 Y101.2000 E2.5288
G1 X119.2800 Y100.7200 F10000 ; custom feedrate
G92 E0.0000
G1 X119.2800 Y119.2800 E0.6667 F4800 ; custom feedrate
G1 X100.7200 Y119.2800 E1.3334
G1 X100.7200 Y100.7200 E2.0001
G1 X119.2800 Y100.7200 E2.6668
G1 X119.7600 Y100.2400 F10000 ; custom feedrate
G92 E0.0000
G1 X119.7600 Y119.7600 E0.7012 F3600 ; custom feedrate
G1 X100.2400 Y119.7600 E1.4024
G1 X100.2400 Y100.2400 E2.1035
G1 X119.7600 Y100.2400 E2.8047
G1 X118.4520 Y114.2760 F10000 ; custom feedrate
G92 E0.0000
G1 X114.2760 Y118.4520 E0.2652 F6000 ; custom feedrate
G1 X110.0330 Y118.4520 E0.4557
G1 X118.4520 Y110.0330 E0.9903
G1 X118.4520 Y105.7910 E1.1808
G1 X105.7910 Y118.4520 E1.9848
G1 X101.5480 Y118.4520 E2.1753
G1 X118.4520 Y101.5480 E3.2487
G1 X114.2090 Y101.5480 E3.4392
G1 X101.5480 Y114.2090 E4.2432
G1 X101.5480 Y109.9670 E4.4337
G1 X109.9670 Y101.5480 E4.9682
G1 X105.7240 Y101.5480 E5.1587
G1 X101.5480 Y105.7240 E5.4239
G92 E0.0000
G1 E-2 F2700 ; custom retraction
;layer 13, Z = 2.600
;fan13;
G1 Z2.600 F1200
G1 X101.2000 Y101.2000 F10000 ; custom feedrate
G1 E0 F2700 ; custom un-retraction/prime
G92 E0.0000
G1 X118.8000 Y101.2000 E0.6322 F4800 ; custom feedrate
G1 X118.8000 Y118.8000 E1.2644
G1 X101.2000 Y118.8000 E1.8966
G1 X101.2000 Y101.2000 E2.5288
G1 X100.7200 Y100.7200 F10000 ; custom feedrate
G92 E0.0000
G1 X119.2800 Y100.7200 E0.6667 F4800 ; custom feedrate
G1 X119.2800 Y119.2800 E1.3334
G1 X100.7200 Y119.2800 E2.0001
G1 X100.7200 Y100.7200 E2.6668
G1 X100.2400 Y100.2400 F10000 ; custom feedrate
G92 E0.0000
G1 X119.7600 Y100.2400 E0.7012 F3600 ; custom feedrate
G1 X119.7600 Y119.7600 E1.4024
G1 X100.2400 Y119.7600 E2.1035
G1 X100.2400 Y100.2400 E2.8047
G1 X114.2760 Y101.5480 F10000 ; custom feedrate
G92 E0.0000
G1 X118.4520 Y105.7240 E0.2652 F6000 ; custom feedrate
G1 X118.4520 Y109.9670 E0.4557
G1 X110.0330 Y101.5480 E0.9903
G1 X105.7910 Y101.5480 E1.1808
G1 X118.4520 Y114.2090 E1.9848
G1 X118.4520 Y118.4520 E2.1753
G1 X101.5480 Y101.5480 E3.2487
G1 X101.5480 Y105.7910 E3.4392
G1 X114.2090 Y118.4520 E4.2432
G1 X109.9670 Y118.4520 E4.4337
G1 X101.5480 Y110.0330 E4.9682
G1 X101.5480 Y114.2760 E5.1587
G1 X105.7240 Y118.4520 E5.4239
G92 E0.0000
G1 E-2 F2700 ; custom retraction
;layer 14, Z = 2.800
;fan14;
G1 Z2.800 F1200
G1 X101.2000 Y118.8000 F10000 ; custom feedrate
G1 E0 F2700 ; custom un-retraction/prime
G92 E0.0000
G1 X101.2000 Y101.2000 E0.6322 F4800 ; custom feedrate
G1 X118.8000 Y101.2000 E1.2644
G1 X118.8000 Y118.8000 E1.8966
G1 X101.2000 Y118.8000 E2.5288
G1 X100.7200 Y119.2800 F10000 ; custom feedrate
G92 E0.0000
G1 X100.7200 Y100.7200 E0.6667 F4800 ; custom feedrate
G1 X119.2800 Y100.7200 E1.3334
G1 X119.2800 Y119.2800 E2.0001
G1 X100.7200 Y119.2800 E2.6668
G1 X100.2400 Y119.7600 F10000 ; custom feedrate
G92 E0.0000
G1 X100.2400 Y100.2400 E0.7012 F3600 ; custom feedrate
G1 X119.7600 Y100.2400 E1.4024
G1 X119.7600 Y119.7600 E2.1035
G1 X100.2400 Y119.7600 E2.8047
G1 X101.5480 Y105.7240 F10000 ; custom feedrate
G92 E0.0000
G1 X105.7240 Y101.5480 E0.2652 F6000 ; custom feedrate
G1 X109.9670 Y101.5480 E0.4557
G1 X101.5480 Y109.9670 E0.9903
G1 X101.5480 Y114.2090 E1.1808
G1 X114.2090 Y101.5480 E1.9848
G1 X118.4520 Y101.5480 E2.1753
G1 X101.5480 Y118.4520 E3.2487
G1 X105.7910 Y118.4520 E3.4392
G1 X118.4520 Y105.7910 E4.2432
G1 X118.4520 Y110.0330 E4.4337
G1 X110.0330 Y118.4520 E4.9682
G1 X114.2760 Y118.4520 E5.1587
G1 X118.4520 Y114.2760 E5.4239
G92 E0.0000
G1 E-2 F2700 ; custom retraction
;layer 15, Z = 3.000
;fan15;
G1 Z3.000 F1200
G1 X118.8000 Y118.8000 F10000 ; custom feedrate
G1 E0 F2700 ; custom un-retraction/prime
G92 E0.0000
G1 X101.2000 Y118.8000 E0.6322 F4800 ; custom feedrate
G1 X101.2000 Y101.2000 E1.2644
G1 X118.8000 Y101.2000 E1.8966
G1 X118.8000 Y118.8000 E2.5288
G1 X119.2800 Y119.2800 F10000 ; custom feedrate
G92 E0.0000
G1 X100.7200 Y119.2800 E0.6667 F4800 ; custom feedrate
G1 X100.7200 Y100.7200 E1.3334
G1 X119.2800 Y100.7200 E2.0001
G1 X119.2800 Y119.2800 E2.6668
G1 X119.7600 Y119.7600 F10000 ; custom feedrate
G92 E0.0000
G1 X100.2400 Y119.7600 E0.7012 F3600 ; custom feedrate
G1 X100.2400 Y100.2400 E1.4024
G1 X119.7600 Y100.2400 E2.1035
G1 X119.7600 Y119.7600 E2.8047
G1 X118.4600 Y109.6350 F10000 ; custom feedrate
G92 E0.0000
G1 X118.5120 Y109.6870 E0.0026 F4800 ; custom feedrate
G1 X118.5120 Y109.0080 E0.0270
G1 X118.5050 Y109.0010 E0.0274
G1 X115.0640 Y101.4880 F10000 ; custom feedrate
G92 E0.0000
G1 X115.3120 Y101.7350 E0.0126 F4800 ; custom feedrate
G1 X115.3110 Y102.4140 E0.0369
G1 X114.3860 Y101.4880 E0.0840
G1 X113.7070 Y101.4880 E0.1083
G1 X115.1180 Y102.8990 E0.1800
G1 X114.4390 Y102.8990 E0.2044
G1 X113.0280 Y101.4880 E0.2761
G1 X112.3490 Y101.4880 E0.3005
G1 X113.7610 Y102.8990 E0.3722
G1 X113.0820 Y102.8990 E0.3966
G1 X111.6700 Y101.4880 E0.4683
G1 X111.5150 Y101.4880 E0.4739
G1 X111.5150 Y102.0110 E0.4927
G1 X112.4030 Y102.8990 E0.5378
G1 X111.7240 Y102.8990 E0.5622
G1 X111.5140 Y102.6890 E0.5728
G1 X107.5970 Y101.4880 F10000 ; custom feedrate
G92 E0.0000
G1 X107.6730 Y101.5630 E0.0038 F4800 ; custom feedrate
G1 X107.6730 Y102.2430 E0.0282
G1 X106.9190 Y101.4880 E0.0666
G1 X106.2400 Y101.4880 E0.0910
G1 X107.6510 Y102.8990 E0.1626
G1 X106.9720 Y102.8990 E0.1870
G1 X105.5610 Y101.4880 E0.2587
G1 X104.8820 Y101.4880 E0.2831
G1 X106.2930 Y102.8990 E0.3548
G1 X105.6150 Y102.8990 E0.3792
G1 X104.2030 Y101.4880 E0.4509
G1 X104.0440 Y101.4880 E0.4566
G1 X104.0440 Y102.0070 E0.4753
G1 X104.9360 Y102.8990 E0.5206
G1 X104.2570 Y102.8990 E0.5450
G1 X104.0440 Y102.6870 E0.5558
G1 X115.8510 Y103.1230 F10000 ; custom feedrate
G92 E0.0000
G1 X118.4520 Y105.7240 E0.1652 F6000 ; custom feedrate
G1 X118.4520 Y108.3610 E0.2836
G1 X118.0100 Y108.3450 E0.3034
G1 X117.9320 Y109.4470 E0.3530
G1 X111.9250 Y103.4390 E0.7344
G1 X110.9740 Y103.4390 E0.7771
G1 X110.9740 Y102.4890 E0.8198
G1 X110.0330 Y101.5480 E0.8796
G1 X108.2130 Y101.5480 E0.9613
G1 X108.2140 Y103.4390 E1.0462
G1 X107.6820 Y103.4390 E1.0701
G1 X118.4520 Y114.2090 E1.7540
G1 X118.4520 Y118.4520 E1.9445
G1 X101.5480 Y101.5480 E3.0179
G1 X101.5480 Y105.7910 E3.2084
G1 X114.2090 Y118.4520 E4.0124
G1 X109.9670 Y118.4520 E4.2029
G1 X101.5480 Y110.0330 E4.7375
G1 X101.5480 Y114.2760 E4.9280
G1 X105.7240 Y118.4520 E5.1932
G92 E0.0000
G1 E-2 F2700 ; custom retraction
;layer 16, Z = 3.200
;fan16;
G1 Z3.200 F1200
G1 X101.2000 Y118.8000 F10000 ; custom feedrate
G1 E0 F2700 ; custom un-retraction/prime
G92 E0.0000
G1 X101.2000 Y101.2000 E0.6322 F4800 ; custom feedrate
G1 X118.8000 Y101.2000 E1.2644
G1 X118.8000 Y118.8000 E1.8966
G1 X101.2000 Y118.8000 E2.5288
G1 X100.7200 Y119.2800 F10000 ; custom feedrate
G92 E0.0000
G1 X100.7200 Y100.7200 E0.6667 F4800 ; custom feedrate
G1 X119.2800 Y100.7200 E1.3334
G1 X119.2800 Y119.2800 E2.0001
G1 X100.7200 Y119.2800 E2.6668
G1 X100.2400 Y119.7600 F10000 ; custom feedrate
G92 E0.0000
G1 X100.2400 Y100.2400 E0.7012 F3600 ; custom feedrate
G1 X119.7600 Y100.2400 E1.4024
G1 X119.7600 Y119.7600 E2.1035
G1 X100.2400 Y119.7600 E2.8047
G1 X107.5970 Y102.9000 F10000 ; custom feedrate
G92 E0.0000
G1 X107.7920 Y102.7050 E0.0099 F4800 ; custom feedrate
G1 X107.7920 Y102.0260 E0.0343
G1 X106.9180 Y102.9000 E0.0786
G1 X106.2390 Y102.9000 E0.1030
G1 X107.6510 Y101.4880 E0.1747
G1 X106.9720 Y101.4880 E0.1991
G1 X105.5610 Y102.9000 E0.2708
G1 X104.8820 Y102.9000 E0.2952
G1 X106.2930 Y101.4880 E0.3669
G1 X105.6140 Y101.4880 E0.3913
G1 X104.2030 Y102.9000 E0.4630
G1 X104.1550 Y102.9000 E0.4647
G1 X104.0440 Y102.8990 E0.4687
G1 X104.0440 Y102.3800 E0.4874
G1 X104.9360 Y101.4880 E0.5327
G1 X104.2570 Y101.4880 E0.5571
G1 X104.0440 Y101.7010 E0.5679
G1 X111.3930 Y101.8190 F10000 ; custom feedrate
G92 E0.0000
G1 X111.7240 Y101.4880 E0.0168 F4800 ; custom feedrate
G1 X112.4030 Y101.4880 E0.0412
G1 X111.3920 Y102.4980 E0.0925
G1 X111.3920 Y102.9000 E0.1069
G1 X111.6700 Y102.9000 E0.1169
G1 X113.0810 Y101.4880 E0.1886
G1 X113.7600 Y101.4880 E0.2130
G1 X112.3490 Y102.9000 E0.2847
G1 X113.0280 Y102.9000 E0.3091
G1 X114.4390 Y101.4880 E0.3808
G1 X115.1180 Y101.4880 E0.4052
G1 X113.7060 Y102.9000 E0.4769
G1 X114.3850 Y102.9000 E0.5013
G1 X115.3120 Y101.9730 E0.5483
G1 X115.3110 Y102.6520 E0.5727
G1 X115.0640 Y102.9000 E0.5853
G1 X117.0470 Y108.3840 F10000 ; custom feedrate
G92 E0.0000
G1 X117.6120 Y107.8190 E0.0287 F4800 ; custom feedrate
G1 X118.2900 Y107.8190 E0.0531
G1 X117.0470 Y109.0630 E0.1162
G1 X117.0460 Y109.7420 E0.1406
G1 X118.5120 Y108.2760 E0.2151
G1 X118.5120 Y108.9550 E0.2395
G1 X117.0460 Y110.4210 E0.3139
G1 X117.0460 Y111.1000 E0.3383
G1 X118.5120 Y109.6340 E0.4128
G1 X118.5120 Y110.3130 E0.4372
G1 X117.3090 Y111.5150 E0.4983
G1 X117.9880 Y111.5160 E0.5227
G1 X118.5120 Y110.9920 E0.5493
G1 X118.4520 Y114.2760 F10000 ; custom feedrate
G92 E0.0000
G1 X114.2760 Y118.4520 E0.2652 F6000 ; custom feedrate
G1 X110.0330 Y118.4520 E0.4557
G1 X116.5050 Y111.9800 E0.8667
G1 X116.5070 Y107.7350 E1.0572
G1 X105.7910 Y118.4520 E1.7377
G1 X101.5480 Y118.4520 E1.9282
G1 X118.4520 Y101.5480 E3.0016
G1 X115.8520 Y101.5480 E3.1184
G1 X115.8510 Y103.4390 E3.2033
G1 X115.7250 Y103.4390 E3.2090
G1 X112.3180 Y103.4400 E3.3620
G1 X101.5480 Y114.2090 E4.0458
G1 X101.5480 Y109.9670 E4.2363
G1 X108.0750 Y103.4400 E4.6508
G1 X103.8330 Y103.4400 E4.8413
G1 X101.5480 Y105.7240 E4.9864
G92 E0.0000
G1 E-2 F2700 ; custom retraction
;layer 17, Z = 3.400
;fan17;
G1 Z3.400 F1200
G1 X101.2000 Y101.2000 F10000 ; custom feedrate
G1 E0 F2700 ; custom un-retraction/prime
G92 E0.0000
G1 X118.8000 Y101.2000 E0.6322 F4800 ; custom feedrate
G1 X118.8000 Y118.8000 E1.2644
G1 X101.2000 Y118.8000 E1.8966
G1 X101.2000 Y101.2000 E2.5288
G1 X100.7200 Y100.7200 F10000 ; custom feedrate
G92 E0.0000
G1 X119.2800 Y100.7200 E0.6667 F4800 ; custom feedrate
G1 X119.2800 Y119.2800 E1.3334
G1 X100.7200 Y119.2800 E2.0001
G1 X100.7200 Y100.7200 E2.6668
G1 X100.2400 Y100.2400 F10000 ; custom feedrate
G92 E0.0000
G1 X119.7600 Y100.2400 E0.7012 F3600 ; custom feedrate
G1 X119.7600 Y119.7600 E1.4024
G1 X100.2400 Y119.7600 E2.1035
G1 X100.2400 Y100.2400 E2.8047
G1 X104.0440 Y102.6870 F10000 ; custom feedrate
G92 E0.0000
G1 X104.2570 Y102.9000 E0.0108 F4800 ; custom feedrate
G1 X104.2660 Y102.9000 E0.0112
G1 X104.9360 Y102.9000 E0.0352
G1 X104.0440 Y102.0070 E0.0805
G1 X104.0440 Y101.4880 E0.0992
G1 X104.2030 Y101.4880 E0.1049
G1 X105.6150 Y102.9000 E0.1766
G1 X106.2940 Y102.9000 E0.2010
G1 X104.8820 Y101.4880 E0.2727
G1 X105.5610 Y101.4880 E0.2971
G1 X106.9730 Y102.9000 E0.3688
G1 X107.6510 Y102.9000 E0.3932
G1 X106.2400 Y101.4880 E0.4649
G1 X106.9190 Y101.4880 E0.4893
G1 X107.9100 Y102.4800 E0.5397
G1 X107.9100 Y101.8010 E0.5641
G1 X107.5970 Y101.4880 E0.5800
G1 X111.2710 Y102.4460 F10000 ; custom feedrate
G92 E0.0000
G1 X111.7240 Y102.9000 E0.0231 F4800 ; custom feedrate
G1 X112.4030 Y102.9000 E0.0474
G1 X111.2710 Y101.7670 E0.1050
G1 X111.2710 Y101.4880 E0.1150
G1 X111.6700 Y101.4880 E0.1293
G1 X113.0820 Y102.9000 E0.2010
G1 X113.7610 Y102.9000 E0.2254
G1 X112.3490 Y101.4880 E0.2971
G1 X113.0280 Y101.4880 E0.3215
G1 X114.4400 Y102.9000 E0.3932
G1 X115.0580 Y102.9000 E0.4155
G1 X115.1180 Y102.9000 E0.4176
G1 X113.7070 Y101.4880 E0.4893
G1 X114.3860 Y101.4880 E0.5137
G1 X115.3110 Y102.4140 E0.5607
G1 X115.3120 Y101.7350 E0.5851
G1 X115.0640 Y101.4880 E0.5977
G1 X117.9990 Y107.8170 F10000 ; custom feedrate
G92 E0.0000
G1 X118.5120 Y108.3300 E0.0261 F4800 ; custom feedrate
G1 X118.5120 Y109.0080 E0.0504
G1 X117.3200 Y107.8170 E0.1110
G1 X117.0470 Y107.8180 E0.1209
G1 X117.0470 Y108.2220 E0.1354
G1 X118.5120 Y109.6870 E0.2098
G1 X118.5120 Y110.3660 E0.2342
G1 X117.0470 Y108.9010 E0.3086
G1 X117.0460 Y109.5790 E0.3330
G1 X118.5120 Y111.0450 E0.4074
G1 X118.5120 Y111.5160 E0.4243
G1 X118.3040 Y111.5160 E0.4318
G1 X117.0460 Y110.2580 E0.4957
G1 X117.0460 Y110.9360 E0.5201
G1 X117.6250 Y111.5160 E0.5495
G1 X115.8510 Y103.1230 F10000 ; custom feedrate
G92 E0.0000
G1 X118.4520 Y105.7240 E0.1652 F6000 ; custom feedrate
G1 X118.4520 Y107.2770 E0.2349
G1 X116.5080 Y107.2780 E0.3223
G1 X116.5070 Y108.0220 E0.3557
G1 X111.9250 Y103.4400 E0.6467
G1 X110.7300 Y103.4400 E0.7003
G1 X110.7310 Y102.2450 E0.7539
G1 X110.0330 Y101.5480 E0.7982
G1 X108.4500 Y101.5480 E0.8693
G1 X108.4510 Y103.4400 E0.9542
G1 X107.6820 Y103.4400 E0.9888
G1 X118.4520 Y114.2090 E1.6726
G1 X118.4520 Y118.4520 E1.8631
G1 X101.5480 Y101.5480 E2.9365
G1 X101.5480 Y105.7910 E3.1270
G1 X114.2090 Y118.4520 E3.9310
G1 X109.9670 Y118.4520 E4.1215
G1 X101.5480 Y110.0330 E4.6561
G1 X101.5480 Y114.2760 E4.8466
G1 X105.7240 Y118.4520 E5.1118
G92 E0.0000
G1 E-2 F2700 ; custom retraction
;layer 18, Z = 3.600
;fan18;
G1 Z3.600 F1200
G1 X101.2000 Y118.8000 F10000 ; custom feedrate
G1 E0 F2700 ; custom un-retraction/prime
G92 E0.0000
G1 X101.2000 Y101.2000 E0.6322 F4800 ; custom feedrate
G1 X118.8000 Y101.2000 E1.2644
G1 X118.8000 Y118.8000 E1.8966
G1 X101.2000 Y118.8000 E2.5288
G1 X100.7200 Y119.2800 F10000 ; custom feedrate
G92 E0.0000
G1 X100.7200 Y100.7200 E0.6667 F4800 ; custom feedrate
G1 X119.2800 Y100.7200 E1.3334
G1 X119.2800 Y119.2800 E2.0001
G1 X100.7200 Y119.2800 E2.6668
G1 X100.2400 Y119.7600 F10000 ; custom feedrate
G92 E0.0000
G1 X100.2400 Y100.2400 E0.7012 F3600 ; custom feedrate
G1 X119.7600 Y100.2400 E1.4024
G1 X119.7600 Y119.7600 E2.1035
G1 X100.2400 Y119.7600 E2.8047
G1 X107.5970 Y102.9000 F10000 ; custom feedrate
G92 E0.0000
G1 X108.0290 Y102.4680 E0.0220 F4800 ; custom feedrate
G1 X108.0280 Y101.7890 E0.0463
G1 X106.9180 Y102.9000 E0.1027
G1 X106.2390 Y102.9000 E0.1271
G1 X107.6510 Y101.4880 E0.1989
G1 X106.9720 Y101.4880 E0.2232
G1 X105.5600 Y102.9000 E0.2950
G1 X104.8810 Y102.9000 E0.3193
G1 X106.2930 Y101.4880 E0.3911
G1 X105.6140 Y101.4880 E0.4154
G1 X104.2030 Y102.9000 E0.4872
G1 X104.1550 Y102.9000 E0.4889
G1 X104.0440 Y102.8990 E0.4929
G1 X104.0440 Y102.3800 E0.5115
G1 X104.9360 Y101.4880 E0.5568
G1 X104.2570 Y101.4880 E0.5812
G1 X104.0440 Y101.7010 E0.5920
G1 X111.1490 Y102.0630 F10000 ; custom feedrate
G92 E0.0000
G1 X111.7240 Y101.4880 E0.0292 F4800 ; custom feedrate
G1 X112.4030 Y101.4880 E0.0536
G1 X111.1490 Y102.7420 E0.1173
G1 X111.1490 Y102.9000 E0.1230
G1 X111.6700 Y102.9000 E0.1417
G1 X113.0810 Y101.4880 E0.2134
G1 X113.7600 Y101.4880 E0.2378
G1 X112.3480 Y102.9000 E0.3095
G1 X113.0270 Y102.9000 E0.3339
G1 X114.4390 Y101.4880 E0.4056
G1 X115.1180 Y101.4880 E0.4300
G1 X113.7060 Y102.9000 E0.5017
G1 X114.3850 Y102.9000 E0.5261
G1 X115.3120 Y101.9730 E0.5732
G1 X115.3110 Y102.6520 E0.5976
G1 X115.0640 Y102.9000 E0.6101
G1 X117.0470 Y108.3840 F10000 ; custom feedrate
G92 E0.0000
G1 X117.6160 Y107.8140 E0.0289 F4800 ; custom feedrate
G1 X118.2950 Y107.8150 E0.0533
G1 X117.0470 Y109.0630 E0.1167
G1 X117.0460 Y109.7420 E0.1411
G1 X118.5120 Y108.2760 E0.2155
G1 X118.5120 Y108.9550 E0.2399
G1 X117.0460 Y110.4210 E0.3144
G1 X117.0460 Y111.1000 E0.3388
G1 X118.5120 Y109.6340 E0.4133
G1 X118.5120 Y110.3130 E0.4376
G1 X117.3090 Y111.5150 E0.4987
G1 X117.9880 Y111.5160 E0.5231
G1 X118.5120 Y110.9920 E0.5497
G1 X118.4520 Y114.2760 F10000 ; custom feedrate
G92 E0.0000
G1 X114.2760 Y118.4520 E0.2652 F6000 ; custom feedrate
G1 X110.0330 Y118.4520 E0.4557
G1 X116.5050 Y111.9800 E0.8667
G1 X116.5070 Y107.7350 E1.0572
G1 X105.7910 Y118.4520 E1.7377
G1 X101.5480 Y118.4520 E1.9282
G1 X118.4520 Y101.5480 E3.0016
G1 X115.8520 Y101.5480 E3.1184
G1 X115.8510 Y103.4390 E3.2033
G1 X115.7250 Y103.4390 E3.2090
G1 X115.5980 Y103.4400 E3.2147
G1 X115.4720 Y103.4400 E3.2204
G1 X112.3180 Y103.4400 E3.3620
G1 X101.5480 Y114.2090 E4.0459
G1 X101.5480 Y109.9670 E4.2364
G1 X108.0750 Y103.4400 E4.6508
G1 X103.8370 Y103.4400 E4.8411
G1 X103.8320 Y103.4400 E4.8413
G1 X101.5480 Y105.7240 E4.9864
G92 E0.0000
G1 E-2 F2700 ; custom retraction
;layer 19, Z = 3.800
;fan19;
G1 Z3.800 F1200
G1 X103.8520 Y103.0910 F10000 ; custom feedrate
G1 E0 F2700 ; custom un-retraction/prime
G92 E0.0000
G1 X107.8660 Y103.0910 E0.1442 F4800 ; custom feedrate
G1 X107.8650 Y101.2000 E0.2121
G1 X111.3230 Y101.2000 E0.3363
G1 X111.3220 Y103.0910 E0.4043
G1 X115.5030 Y103.0910 E0.5544
G1 X115.5040 Y101.2000 E0.6224
G1 X118.8000 Y101.2000 E0.7408
G1 X118.8000 Y107.6290 E0.9717
G1 X118.4100 Y107.6290 E0.9857
G1 X118.2510 Y109.8600 E1.0661
G1 X118.8000 Y109.9380 E1.0860
G1 X118.8000 Y118.8000 E1.4043
G1 X101.2000 Y118.8000 E2.0365
G1 X101.2000 Y101.2000 E2.6687
G1 X103.8520 Y101.2000 E2.7640
G1 X103.8520 Y103.0910 E2.8319
G1 X104.3320 Y102.6110 F10000 ; custom feedrate
G92 E0.0000
G1 X107.3850 Y102.6110 E0.1097 F4800 ; custom feedrate
G1 X107.3840 Y100.7200 E0.1776
G1 X111.8030 Y100.7200 E0.3363
G1 X111.8020 Y102.6110 E0.4043
G1 X115.0230 Y102.6110 E0.5200
G1 X115.0240 Y100.7200 E0.5879
G1 X119.2800 Y100.7200 E0.7408
G1 X119.2800 Y108.1100 E1.0062
G1 X118.8570 Y108.1090 E1.0214
G1 X118.7620 Y109.4480 E1.0696
G1 X119.2800 Y109.5220 E1.0884
G1 X119.2800 Y119.2800 E1.4389
G1 X100.7200 Y119.2800 E2.1056
G1 X100.7200 Y100.7200 E2.7723
G1 X104.3310 Y100.7200 E2.9020
G1 X104.3320 Y102.6110 E2.9700
G1 X104.8120 Y102.1310 F10000 ; custom feedrate
G92 E0.0000
G1 X106.9050 Y102.1310 E0.0752 F3600 ; custom feedrate
G1 X106.9040 Y100.2400 E0.1431
G1 X112.2830 Y100.2400 E0.3364
G1 X112.2820 Y102.1310 E0.4043
G1 X114.5440 Y102.1310 E0.4855
G1 X114.5450 Y100.2400 E0.5535
G1 X119.7600 Y100.2400 E0.7408
G1 X119.7600 Y108.5900 E1.0407
G1 X119.3040 Y108.5900 E1.0571
G1 X119.2730 Y109.0360 E1.0732
G1 X119.7600 Y109.1050 E1.0909
G1 X119.7600 Y119.7600 E1.4736
G1 X100.2400 Y119.7600 E2.1748
G1 X100.2400 Y100.2400 E2.8759
G1 X104.8110 Y100.2400 E3.0401
G1 X104.8120 Y102.1310 E3.1081
G1 X106.9050 Y102.1310 F10000 ; custom feedrate
G1 X106.9050 Y101.9270
G1 X111.0270 Y101.5240
G92 E0.0000
G1 X111.0350 Y101.5310 E0.0004 F4800 ; custom feedrate
G1 X111.0340 Y102.2100 E0.0247
G1 X111.0270 Y102.2020 E0.0251
G1 X111.0270 Y102.8810 E0.0495
G1 X111.0340 Y102.8880 E0.0499
G1 X117.9950 Y107.8120 F10000 ; custom feedrate
G92 E0.0000
G1 X118.1010 Y107.9190 E0.0054 F4800 ; custom feedrate
G1 X118.0560 Y108.5520 E0.0282
G1 X117.3160 Y107.8120 E0.0658
G1 X117.0480 Y107.8140 E0.0755
G1 X117.0470 Y107.8180 E0.0757
G1 X117.0470 Y108.2220 E0.0902
G1 X118.0110 Y109.1860 E0.1391
G1 X117.9660 Y109.8200 E0.1620
G1 X117.0470 Y108.9010 E0.2086
G1 X117.0460 Y109.5790 E0.2330
G1 X118.5120 Y111.0450 E0.3075
G1 X118.5120 Y111.5160 E0.3244
G1 X118.3040 Y111.5160 E0.3318
G1 X117.0460 Y110.2580 E0.3957
G1 X117.0460 Y110.9360 E0.4201
G1 X117.6250 Y111.5160 E0.4495
G1 X118.5120 Y110.3660 F10000 ; custom feedrate
G92 E0.0000
G1 X118.3040 Y110.1580 E0.0106 F4800 ; custom feedrate
G1 X115.8510 Y103.1230 F10000 ; custom feedrate
G92 E0.0000
G1 X118.4520 Y105.7240 E0.1652 F6000 ; custom feedrate
G1 X118.4520 Y107.2730 E0.2347
G1 X116.5080 Y107.2740 E0.3221
G1 X116.5080 Y107.2780 E0.3223
G1 X116.5070 Y108.0220 E0.3557
G1 X111.9250 Y103.4390 E0.6467
G1 X111.5740 Y103.4400 E0.6625
G1 X110.4860 Y103.4400 E0.7113
G1 X110.4870 Y102.0020 E0.7759
G1 X110.0330 Y101.5480 E0.8047
G1 X108.2130 Y101.5480 E0.8864
G1 X108.2140 Y103.4390 E0.9713
G1 X107.6820 Y103.4390 E0.9952
G1 X118.4520 Y114.2090 E1.6791
G1 X118.4520 Y118.4520 E1.8696
G1 X101.5480 Y101.5480 E2.9430
G1 X101.5480 Y105.7910 E3.1335
G1 X114.2090 Y118.4520 E3.9375
G1 X109.9670 Y118.4520 E4.1280
G1 X101.5480 Y110.0330 E4.6626
G1 X101.5480 Y114.2760 E4.8531
G1 X105.7240 Y118.4520 E5.1183
G92 E0.0000
G1 E-2 F2700 ; custom retraction
;layer 20, Z = 4.000
;fan20;
G1 Z4.000 F1200
G1 X101.2000 Y118.8000 F10000 ; custom feedrate
G1 E0 F2700 ; custom un-retraction/prime
G92 E0.0000
G1 X101.2000 Y101.2000 E0.6322 F4800 ; custom feedrate
G1 X103.9630 Y101.2000 E0.7314
G1 X103.9630 Y103.0920 E0.7994
G1 X107.9840 Y103.0920 E0.9438
G1 X107.9830 Y101.2000 E1.0118
G1 X111.2010 Y101.2000 E1.1274
G1 X111.2000 Y103.0920 E1.1953
G1 X115.3770 Y103.0920 E1.3453
G1 X115.3780 Y101.2000 E1.4133
G1 X118.8000 Y101.2000 E1.5362
G1 X118.8000 Y107.6270 E1.7671
G1 X116.8550 Y107.6260 E1.8369
G1 X116.8540 Y111.7070 E1.9835
G1 X118.8000 Y111.7080 E2.0534
G1 X118.8000 Y118.8000 E2.3082
G1 X101.2000 Y118.8000 E2.9404
G1 X100.7200 Y119.2800 F10000 ; custom feedrate
G92 E0.0000
G1 X100.7200 Y100.7200 E0.6667 F4800 ; custom feedrate
G1 X104.4420 Y100.7200 E0.8004
G1 X104.4430 Y102.6120 E0.8683
G1 X107.5040 Y102.6120 E0.9783
G1 X107.5030 Y100.7200 E1.0462
G1 X111.6810 Y100.7200 E1.1963
G1 X111.6800 Y102.6120 E1.2643
G1 X114.8970 Y102.6120 E1.3798
G1 X114.8980 Y100.7200 E1.4478
G1 X119.2800 Y100.7200 E1.6052
G1 X119.2800 Y108.1080 E1.8705
G1 X117.3350 Y108.1070 E1.9404
G1 X117.3340 Y111.2270 E2.0525
G1 X119.2800 Y111.2280 E2.1224
G1 X119.2800 Y119.2800 E2.4116
G1 X100.7200 Y119.2800 E3.0783
G1 X100.2400 Y119.7600 F10000 ; custom feedrate
G92 E0.0000
G1 X100.2400 Y100.2400 E0.7012 F3600 ; custom feedrate
G1 X104.9220 Y100.2400 E0.8694
G1 X104.9230 Y102.1320 E0.9373
G1 X107.0240 Y102.1320 E1.0128
G1 X107.0230 Y100.2400 E1.0807
G1 X112.1620 Y100.2400 E1.2653
G1 X112.1610 Y102.1320 E1.3332
G1 X114.4170 Y102.1320 E1.4143
G1 X114.4180 Y100.2400 E1.4822
G1 X119.7600 Y100.2400 E1.6741
G1 X119.7600 Y108.5880 E1.9740
G1 X117.8150 Y108.5870 E2.0439
G1 X117.8140 Y110.7480 E2.1215
G1 X119.7600 Y110.7490 E2.1914
G1 X119.7600 Y119.7600 E2.5151
G1 X100.2400 Y119.7600 E3.2163
G1 X110.9050 Y102.3070 F10000 ; custom feedrate
G92 E0.0000
G1 X110.9130 Y102.2990 E0.0004 F4800 ; custom feedrate
G1 X110.9130 Y101.6200 E0.0248
G1 X110.9060 Y101.6270 E0.0251
G1 X101.5480 Y105.7240 F10000 ; custom feedrate
G92 E0.0000
G1 X103.8330 Y103.4400 E0.1451 F6000 ; custom feedrate
G1 X108.0750 Y103.4400 E0.3356
G1 X101.5480 Y109.9670 E0.7500
G1 X101.5480 Y114.2090 E0.9405
G1 X112.3180 Y103.4400 E1.6244
G1 X115.7240 Y103.4400 E1.7774
G1 X115.7250 Y101.5480 E1.8623
G1 X118.4520 Y101.5480 E1.9848
G1 X101.5480 Y118.4520 E3.0582
G1 X105.7910 Y118.4520 E3.2487
G1 X116.5070 Y107.7350 E3.9292
G1 X116.5050 Y111.9800 E4.1197
G1 X110.0330 Y118.4520 E4.5307
G1 X114.2760 Y118.4520 E4.7212
G1 X118.4520 Y114.2760 E4.9864
G92 E0.0000
G1 E-2 F2700 ; custom retraction
;layer 21, Z = 4.200
;fan21;
G1 Z4.200 F1200
G1 X118.8000 Y111.7060 F10000 ; custom feedrate
G1 E0 F2700 ; custom un-retraction/prime
G92 E0.0000
G1 X118.8000 Y118.8000 E0.2548 F4800 ; custom feedrate
G1 X101.2000 Y118.8000 E0.8870
G1 X101.2000 Y101.2000 E1.5192
G1 X104.0740 Y101.2000 E1.6225
G1 X104.0740 Y103.0920 E1.6904
G1 X108.1030 Y103.0920 E1.8351
G1 X108.1020 Y101.2000 E1.9031
G1 X111.0790 Y101.2000 E2.0100
G1 X111.0780 Y103.0920 E2.0780
G1 X115.2500 Y103.0920 E2.2278
G1 X115.2510 Y101.2000 E2.2958
G1 X118.8000 Y101.2000 E2.4233
G1 X118.8000 Y107.6250 E2.6541
G1 X116.8560 Y107.6240 E2.7239
G1 X116.8540 Y111.7050 E2.8705
G1 X118.8000 Y111.7060 E2.9404
G1 X119.2800 Y111.2260 F10000 ; custom feedrate
G92 E0.0000
G1 X119.2800 Y119.2800 E0.2893 F4800 ; custom feedrate
G1 X100.7200 Y119.2800 E0.9560
G1 X100.7200 Y100.7200 E1.6227
G1 X104.5530 Y100.7200 E1.7604
G1 X104.5540 Y102.6120 E1.8283
G1 X107.6220 Y102.6120 E1.9385
G1 X107.6210 Y100.7200 E2.0065
G1 X111.5600 Y100.7200 E2.1480
G1 X111.5590 Y102.6120 E2.2159
G1 X114.7700 Y102.6120 E2.3313
G1 X114.7710 Y100.7200 E2.3992
G1 X119.2800 Y100.7200 E2.5612
G1 X119.2800 Y108.1050 E2.8265
G1 X117.3350 Y108.1050 E2.8963
G1 X117.3340 Y111.2250 E3.0084
G1 X119.2800 Y111.2260 E3.0783
G1 X119.7600 Y110.7460 F10000 ; custom feedrate
G92 E0.0000
G1 X119.7600 Y119.7600 E0.3238 F3600 ; custom feedrate
G1 X100.2400 Y119.7600 E1.0250
G1 X100.2400 Y100.2400 E1.7261
G1 X105.0330 Y100.2400 E1.8983
G1 X105.0340 Y102.1320 E1.9663
G1 X107.1420 Y102.1320 E2.0420
G1 X107.1410 Y100.2400 E2.1099
G1 X112.0400 Y100.2400 E2.2859
G1 X112.0390 Y102.1320 E2.3538
G1 X114.2910 Y102.1320 E2.4347
G1 X114.2920 Y100.2400 E2.5027
G1 X119.7600 Y100.2400 E2.6991
G1 X119.7600 Y108.5860 E2.9989
G1 X117.8150 Y108.5850 E3.0688
G1 X117.8140 Y110.7460 E3.1464
G1 X119.7600 Y110.7460 E3.2163
G92 E0.0000
G1 E-2 F2700 ; custom retraction
;zhop1
G1 X117.8140 Y110.7460 F10000 ; custom feedrate
G1 X117.8150 Y108.9890
G1 X110.7830 Y102.6370
G1 Z4.200 F1200
G1 E0 F2700 ; custom un-retraction/prime
G92 E0.0000
G1 X110.7910 Y102.6450 E0.0004 F4800 ; custom feedrate
G1 X110.7910 Y101.9660 E0.0247
G1 X110.7840 Y101.9590 E0.0251
G1 X115.5980 Y102.8700 F10000 ; custom feedrate
G92 E0.0000
G1 X118.4520 Y105.7240 E0.1812 F6000 ; custom feedrate
G1 X118.4520 Y107.2770 E0.2509
G1 X116.5080 Y107.2760 E0.3382
G1 X116.5070 Y108.0220 E0.3717
G1 X111.9250 Y103.4400 E0.6627
G1 X111.3300 Y103.4400 E0.6895
G1 X110.2430 Y103.4400 E0.7383
G1 X110.2440 Y101.7580 E0.8138
G1 X110.0330 Y101.5480 E0.8272
G1 X108.4500 Y101.5480 E0.8983
G1 X108.4510 Y103.4400 E0.9832
G1 X107.6820 Y103.4400 E1.0177
G1 X118.4520 Y114.2090 E1.7016
G1 X118.4520 Y118.4520 E1.8921
G1 X101.5480 Y101.5480 E2.9655
G1 X101.5480 Y105.7910 E3.1560
G1 X114.2090 Y118.4520 E3.9600
G1 X109.9670 Y118.4520 E4.1505
G1 X101.5480 Y110.0330 E4.6851
G1 X101.5480 Y114.2760 E4.8756
G1 X105.7240 Y118.4520 E5.1407
G92 E0.0000
G1 E-2 F2700 ; custom retraction
;layer 22, Z = 4.400
;fan22;
G1 Z4.400 F1200
G1 X101.2000 Y118.8000 F10000 ; custom feedrate
G1 E0 F2700 ; custom un-retraction/prime
G92 E0.0000
G1 X101.2000 Y101.2000 E0.6322 F4800 ; custom feedrate
G1 X104.1850 Y101.2000 E0.7394
G1 X104.1850 Y103.0920 E0.8074
G1 X108.2210 Y103.0920 E0.9523
G1 X108.2200 Y101.2000 E1.0203
G1 X110.9570 Y101.2000 E1.1186
G1 X110.9560 Y103.0920 E1.1866
G1 X115.1240 Y103.0920 E1.3363
G1 X115.1250 Y101.2000 E1.4042
G1 X118.8000 Y101.2000 E1.5362
G1 X118.8000 Y107.6230 E1.7670
G1 X116.8560 Y107.6220 E1.8368
G1 X116.8540 Y111.7030 E1.9834
G1 X118.8000 Y111.7040 E2.0533
G1 X118.8000 Y118.8000 E2.3082
G1 X101.2000 Y118.8000 E2.9404
G1 X100.7200 Y119.2800 F10000 ; custom feedrate
G92 E0.0000
G1 X100.7200 Y100.7200 E0.6667 F4800 ; custom feedrate
G1 X104.6640 Y100.7200 E0.8084
G1 X104.6650 Y102.6120 E0.8763
G1 X107.7410 Y102.6120 E0.9868
G1 X107.7400 Y100.7200 E1.0548
G1 X111.4380 Y100.7200 E1.1876
G1 X111.4370 Y102.6120 E1.2556
G1 X114.6440 Y102.6120 E1.3708
G1 X114.6450 Y100.7200 E1.4387
G1 X119.2800 Y100.7200 E1.6052
G1 X119.2800 Y108.1030 E1.8704
G1 X117.3360 Y108.1020 E1.9403
G1 X117.3340 Y111.2230 E2.0524
G1 X119.2800 Y111.2240 E2.1223
G1 X119.2800 Y119.2800 E2.4116
G1 X100.7200 Y119.2800 E3.0783
G1 X100.2400 Y119.7600 F10000 ; custom feedrate
G92 E0.0000
G1 X100.2400 Y100.2400 E0.7012 F3600 ; custom feedrate
G1 X105.1440 Y100.2400 E0.8773
G1 X105.1450 Y102.1320 E0.9453
G1 X107.2610 Y102.1320 E1.0213
G1 X107.2600 Y100.2400 E1.0892
G1 X111.9180 Y100.2400 E1.2566
G1 X111.9170 Y102.1320 E1.3245
G1 X114.1640 Y102.1320 E1.4053
G1 X114.1650 Y100.2400 E1.4732
G1 X119.7600 Y100.2400 E1.6742
G1 X119.7600 Y108.5830 E1.9739
G1 X117.8160 Y108.5830 E2.0437
G1 X117.8150 Y110.7430 E2.1214
G1 X119.7600 Y110.7440 E2.1912
G1 X119.7600 Y119.7600 E2.5151
G1 X100.2400 Y119.7600 E3.2163
G1 X110.6610 Y102.5500 F10000 ; custom feedrate
G92 E0.0000
G1 X110.6690 Y102.5430 E0.0004 F4800 ; custom feedrate
G1 X110.6690 Y101.8640 E0.0248
G1 X110.6620 Y101.8710 E0.0251
G1 X101.5480 Y105.7240 F10000 ; custom feedrate
G92 E0.0000
G1 X103.8380 Y103.4350 E0.1454 F6000 ; custom feedrate
G1 X103.8380 Y103.4400 E0.1456
G1 X108.0750 Y103.4400 E0.3359
G1 X101.5480 Y109.9670 E0.7503
G1 X101.5480 Y114.2090 E0.9408
G1 X112.3180 Y103.4400 E1.6247
G1 X115.4710 Y103.4400 E1.7663
G1 X115.4720 Y101.5480 E1.8513
G1 X118.4520 Y101.5480 E1.9851
G1 X101.5480 Y118.4520 E3.0585
G1 X105.7910 Y118.4520 E3.2490
G1 X116.5080 Y107.7350 E3.9295
G1 X116.5060 Y111.9790 E4.1201
G1 X110.0330 Y118.4520 E4.5311
G1 X114.2760 Y118.4520 E4.7216
G1 X118.4520 Y114.2760 E4.9868
G92 E0.0000
G1 E-2 F2700 ; custom retraction
;layer 23, Z = 4.600
;fan23;
G1 Z4.600 F1200
G1 X118.8000 Y111.7020 F10000 ; custom feedrate
G1 E0 F2700 ; custom un-retraction/prime
G92 E0.0000
G1 X118.8000 Y118.8000 E0.2550 F4800 ; custom feedrate
G1 X101.2000 Y118.8000 E0.8872
G1 X101.2000 Y101.2000 E1.5194
G1 X104.2960 Y101.2000 E1.6306
G1 X104.2960 Y103.0920 E1.6986
G1 X108.3400 Y103.0920 E1.8438
G1 X108.3390 Y101.2000 E1.9118
G1 X110.8360 Y101.2000 E2.0014
G1 X110.8350 Y103.0920 E2.0694
G1 X114.9970 Y103.0920 E2.2189
G1 X114.9980 Y101.2000 E2.2869
G1 X118.8000 Y101.2000 E2.4235
G1 X118.8000 Y107.6210 E2.6541
G1 X116.8560 Y107.6200 E2.7239
G1 X116.8540 Y111.7010 E2.8705
G1 X118.8000 Y111.7020 E2.9404
G1 X119.2800 Y111.2220 F10000 ; custom feedrate
G92 E0.0000
G1 X119.2800 Y119.2800 E0.2895 F4800 ; custom feedrate
G1 X100.7200 Y119.2800 E0.9562
G1 X100.7200 Y100.7200 E1.6228
G1 X104.7750 Y100.7200 E1.7685
G1 X104.7760 Y102.6120 E1.8365
G1 X107.8590 Y102.6120 E1.9472
G1 X107.8580 Y100.7200 E2.0152
G1 X111.3160 Y100.7200 E2.1394
G1 X111.3150 Y102.6120 E2.2073
G1 X114.5170 Y102.6120 E2.3224
G1 X114.5180 Y100.7200 E2.3904
G1 X119.2800 Y100.7200 E2.5614
G1 X119.2800 Y108.1010 E2.8265
G1 X117.3360 Y108.1000 E2.8964
G1 X117.3350 Y111.2210 E3.0085
G1 X119.2800 Y111.2220 E3.0783
G1 X119.7600 Y110.7420 F10000 ; custom feedrate
G92 E0.0000
G1 X119.7600 Y119.7600 E0.3239 F3600 ; custom feedrate
G1 X100.2400 Y119.7600 E1.0251
G1 X100.2400 Y100.2400 E1.7263
G1 X105.2550 Y100.2400 E1.9064
G1 X105.2560 Y102.1320 E1.9744
G1 X107.3790 Y102.1320 E2.0507
G1 X107.3780 Y100.2400 E2.1186
G1 X111.7960 Y100.2400 E2.2773
G1 X111.7950 Y102.1320 E2.3453
G1 X114.0380 Y102.1320 E2.4258
G1 X114.0390 Y100.2400 E2.4938
G1 X119.7600 Y100.2400 E2.6993
G1 X119.7600 Y108.5810 E2.9989
G1 X117.8160 Y108.5800 E3.0688
G1 X117.8150 Y110.7410 E3.1464
G1 X119.7600 Y110.7420 E3.2163
G92 E0.0000
G1 E-2 F2700 ; custom retraction
;zhop1
G1 X117.8150 Y110.7410 F10000 ; custom feedrate
G1 X117.8160 Y108.9820
G1 X110.5400 Y102.3940
G1 Z4.600 F1200
G1 E0 F2700 ; custom un-retraction/prime
G92 E0.0000
G1 X110.5470 Y102.4010 E0.0004 F4800 ; custom feedrate
G1 X110.5470 Y101.7230 E0.0247
G1 X110.5400 Y101.7150 E0.0251
G1 X111.7950 Y101.9510 F10000 ; custom feedrate
G1 X111.7950 Y102.1320
G1 X112.7600 Y102.1320
G1 X115.3450 Y102.6180
G92 E0.0000
G1 X118.4520 Y105.7240 E0.1973 F6000 ; custom feedrate
G1 X118.4520 Y107.2730 E0.2668
G1 X116.5080 Y107.2720 E0.3541
G1 X116.5080 Y108.0230 E0.3878
G1 X111.9250 Y103.4400 E0.6788
G1 X111.0870 Y103.4410 E0.7165
G1 X109.9990 Y103.4410 E0.7653
G1 X110.0000 Y101.5480 E0.8503
G1 X108.6870 Y101.5480 E0.9093
G1 X108.6880 Y103.4400 E0.9942
G1 X107.6830 Y103.4400 E1.0393
G1 X118.4520 Y114.2090 E1.7232
G1 X118.4520 Y118.4520 E1.9137
G1 X101.5480 Y101.5480 E2.9871
G1 X101.5480 Y105.7910 E3.1776
G1 X114.2090 Y118.4520 E3.9816
G1 X109.9670 Y118.4520 E4.1721
G1 X101.5480 Y110.0330 E4.7067
G1 X101.5480 Y114.2760 E4.8972
G1 X105.7240 Y118.4520 E5.1624
G92 E0.0000
G1 E-2 F2700 ; custom retraction
;layer 24, Z = 4.800
;fan24;
G1 Z4.800 F1200
G1 X101.2000 Y118.8000 F10000 ; custom feedrate
G1 E0 F2700 ; custom un-retraction/prime
G92 E0.0000
G1 X101.2000 Y101.2000 E0.6322 F4800 ; custom feedrate
G1 X104.4070 Y101.2000 E0.7474
G1 X104.4070 Y103.0920 E0.8154
G1 X108.4580 Y103.0920 E0.9609
G1 X108.4570 Y101.2000 E1.0288
G1 X110.7140 Y101.2000 E1.1099
G1 X110.7130 Y103.0920 E1.1779
G1 X114.8710 Y103.0920 E1.3272
G1 X114.8720 Y101.2000 E1.3952
G1 X118.8000 Y101.2000 E1.5363
G1 X118.8000 Y107.6190 E1.7669
G1 X116.8570 Y107.6180 E1.8367
G1 X116.8550 Y111.6990 E1.9833
G1 X118.8000 Y111.6990 E2.0531
G1 X118.8000 Y118.8000 E2.3082
G1 X101.2000 Y118.8000 E2.9404
G1 X100.7200 Y119.2800 F10000 ; custom feedrate
G92 E0.0000
G1 X100.7200 Y100.7200 E0.6667 F4800 ; custom feedrate
G1 X104.8860 Y100.7200 E0.8164
G1 X104.8870 Y102.6120 E0.8843
G1 X107.9780 Y102.6120 E0.9953
G1 X107.9770 Y100.7200 E1.0633
G1 X111.1940 Y100.7200 E1.1789
G1 X111.1930 Y102.6120 E1.2468
G1 X114.3910 Y102.6120 E1.3617
G1 X114.3920 Y100.7200 E1.4297
G1 X119.2800 Y100.7200 E1.6053
G1 X119.2800 Y108.0990 E1.8703
G1 X117.3360 Y108.0980 E1.9401
G1 X117.3350 Y111.2190 E2.0522
G1 X119.2800 Y111.2200 E2.1221
G1 X119.2800 Y119.2800 E2.4116
G1 X100.7200 Y119.2800 E3.0783
G1 X100.2400 Y119.7600 F10000 ; custom feedrate
G92 E0.0000
G1 X100.2400 Y100.2400 E0.7012 F3600 ; custom feedrate
G1 X105.3660 Y100.2400 E0.8853
G1 X105.3670 Y102.1320 E0.9533
G1 X107.4980 Y102.1320 E1.0298
G1 X107.4970 Y100.2400 E1.0978
G1 X111.6740 Y100.2400 E1.2478
G1 X111.6730 Y102.1320 E1.3158
G1 X113.9110 Y102.1320 E1.3962
G1 X113.9120 Y100.2400 E1.4642
G1 X119.7600 Y100.2400 E1.6742
G1 X119.7600 Y108.5790 E1.9738
G1 X117.8160 Y108.5780 E2.0436
G1 X117.8150 Y110.7390 E2.1212
G1 X119.7600 Y110.7400 E2.1911
G1 X119.7600 Y119.7600 E2.5151
G1 X100.2400 Y119.7600 E3.2163
G1 X110.4180 Y102.7940 F10000 ; custom feedrate
G92 E0.0000
G1 X110.4250 Y102.7870 E0.0004 F4800 ; custom feedrate
G1 X110.4250 Y102.1080 E0.0248
G1 X110.4180 Y102.1150 E0.0251
G1 X101.5480 Y105.7240 F10000 ; custom feedrate
G92 E0.0000
G1 X104.0600 Y103.2130 E0.1595 F6000 ; custom feedrate
G1 X104.0600 Y103.4400 E0.1697
G1 X108.0750 Y103.4400 E0.3500
G1 X101.5480 Y109.9670 E0.7644
G1 X101.5480 Y114.2090 E0.9549
G1 X112.3170 Y103.4400 E1.6388
G1 X115.2190 Y103.4400 E1.7690
G1 X115.2200 Y101.5480 E1.8540
G1 X118.4520 Y101.5480 E1.9991
G1 X101.5480 Y118.4520 E3.0725
G1 X105.7910 Y118.4520 E3.2630
G1 X116.5090 Y107.7340 E3.9436
G1 X116.5070 Y111.9790 E4.1342
G1 X110.0330 Y118.4520 E4.5453
G1 X114.2760 Y118.4520 E4.7358
G1 X118.4520 Y114.2760 E5.0009
G92 E0.0000
G1 E-2 F2700 ; custom retraction
;layer 25, Z = 5.000
;fan25;
G1 Z5.000 F1200
G1 X118.8000 Y111.6970 F10000 ; custom feedrate
G1 E0 F2700 ; custom un-retraction/prime
G92 E0.0000
G1 X118.8000 Y118.8000 E0.2551 F4800 ; custom feedrate
G1 X101.2000 Y118.8000 E0.8873
G1 X101.2000 Y101.2000 E1.5196
G1 X104.5180 Y101.2000 E1.6387
G1 X104.5190 Y103.0920 E1.7067
G1 X108.5770 Y103.0920 E1.8525
G1 X108.5760 Y101.2000 E1.9204
G1 X110.5920 Y101.2000 E1.9929
G1 X110.5910 Y103.0920 E2.0608
G1 X114.7440 Y103.0920 E2.2100
G1 X114.7450 Y101.2000 E2.2780
G1 X118.8000 Y101.2000 E2.4237
G1 X118.8000 Y107.6160 E2.6542
G1 X116.8570 Y107.6160 E2.7239
G1 X116.8550 Y111.6960 E2.8705
G1 X118.8000 Y111.6970 E2.9404
G1 X119.2800 Y111.2170 F10000 ; custom feedrate
G92 E0.0000
G1 X119.2800 Y119.2800 E0.2896 F4800 ; custom feedrate
G1 X100.7200 Y119.2800 E0.9563
G1 X100.7200 Y100.7200 E1.6230
G1 X104.9970 Y100.7200 E1.7766
G1 X104.9980 Y102.6120 E1.8446
G1 X108.0960 Y102.6120 E1.9559
G1 X108.0950 Y100.7200 E2.0239
G1 X111.0720 Y100.7200 E2.1308
G1 X111.0710 Y102.6120 E2.1988
G1 X114.2650 Y102.6120 E2.3135
G1 X114.2660 Y100.7200 E2.3815
G1 X119.2800 Y100.7200 E2.5616
G1 X119.2800 Y108.0970 E2.8266
G1 X117.3370 Y108.0960 E2.8964
G1 X117.3350 Y111.2170 E3.0085
G1 X119.2800 Y111.2170 E3.0783
G1 X119.7600 Y110.7380 F10000 ; custom feedrate
G92 E0.0000
G1 X119.7600 Y119.7600 E0.3241 F3600 ; custom feedrate
G1 X100.2400 Y119.7600 E1.0253
G1 X100.2400 Y100.2400 E1.7264
G1 X105.4770 Y100.2400 E1.9146
G1 X105.4780 Y102.1320 E1.9825
G1 X107.6160 Y102.1320 E2.0593
G1 X107.6150 Y100.2400 E2.1273
G1 X111.5520 Y100.2400 E2.2687
G1 X111.5510 Y102.1320 E2.3367
G1 X113.7850 Y102.1320 E2.4169
G1 X113.7860 Y100.2400 E2.4849
G1 X119.7600 Y100.2400 E2.6995
G1 X119.7600 Y108.5770 E2.9990
G1 X117.8160 Y108.5760 E3.0688
G1 X117.8160 Y110.7370 E3.1464
G1 X119.7600 Y110.7380 E3.2163
G92 E0.0000
G1 E-2 F2700 ; custom retraction
;zhop1
G1 X117.8160 Y110.7370 F10000 ; custom feedrate
G1 X117.8160 Y109.1130
G1 X110.2960 Y102.8290
G1 Z5.000 F1200
G1 E0 F2700 ; custom un-retraction/prime
G92 E0.0000
G1 X110.3030 Y102.8360 E0.0004 F4800 ; custom feedrate
G1 X110.3030 Y102.1580 E0.0247
G1 X110.2960 Y102.1500 E0.0251
G1 X115.0930 Y102.3650 F10000 ; custom feedrate
G92 E0.0000
G1 X118.4520 Y105.7240 E0.2133 F6000 ; custom feedrate
G1 X118.4520 Y107.2680 E0.2827
G1 X116.5090 Y107.2680 E0.3699
G1 X116.5090 Y108.0230 E0.4038
G1 X111.9260 Y103.4400 E0.6949
G1 X110.8430 Y103.4410 E0.7435
G1 X109.7550 Y103.4410 E0.7923
G1 X109.7560 Y101.5480 E0.8773
G1 X108.9240 Y101.5480 E0.9147
G1 X108.9250 Y103.4400 E0.9997
G1 X107.6830 Y103.4400 E1.0554
G1 X118.4520 Y114.2090 E1.7393
G1 X118.4520 Y118.4520 E1.9298
G1 X101.5480 Y101.5480 E3.0032
G1 X101.5480 Y105.7910 E3.1937
G1 X114.2090 Y118.4520 E3.9977
G1 X109.9670 Y118.4520 E4.1882
G1 X101.5480 Y110.0330 E4.7228
G1 X101.5480 Y114.2760 E4.9133
G1 X105.7240 Y118.4520 E5.1784
G92 E0.0000
G1 E-2 F2700 ; custom retraction
;layer 26, Z = 5.200
;fan26;
G1 Z5.200 F1200
G1 X101.2000 Y118.8000 F10000 ; custom feedrate
G1 E0 F2700 ; custom un-retraction/prime
G92 E0.0000
G1 X101.2000 Y101.2000 E0.6322 F4800 ; custom feedrate
G1 X104.6290 Y101.2000 E0.7554
G1 X104.6300 Y103.0930 E0.8234
G1 X108.6950 Y103.0930 E0.9694
G1 X108.6940 Y101.2000 E1.0374
G1 X110.4700 Y101.2000 E1.1012
G1 X110.4690 Y103.0930 E1.1691
G1 X114.6180 Y103.0930 E1.3182
G1 X114.6190 Y101.2000 E1.3862
G1 X118.8000 Y101.2000 E1.5363
G1 X118.8000 Y107.6140 E1.7668
G1 X116.8570 Y107.6130 E1.8365
G1 X116.8550 Y111.6940 E1.9831
G1 X118.8000 Y111.6950 E2.0530
G1 X118.8000 Y118.8000 E2.3082
G1 X101.2000 Y118.8000 E2.9404
G1 X100.7200 Y119.2800 F10000 ; custom feedrate
G92 E0.0000
G1 X100.7200 Y100.7200 E0.6667 F4800 ; custom feedrate
G1 X105.1080 Y100.7200 E0.8243
G1 X105.1090 Y102.6130 E0.8923
G1 X108.2150 Y102.6130 E1.0039
G1 X108.2140 Y100.7200 E1.0718
G1 X110.9500 Y100.7200 E1.1701
G1 X110.9490 Y102.6130 E1.2381
G1 X114.1380 Y102.6130 E1.3527
G1 X114.1390 Y100.7200 E1.4206
G1 X119.2800 Y100.7200 E1.6053
G1 X119.2800 Y108.0950 E1.8702
G1 X117.3370 Y108.0940 E1.9400
G1 X117.3360 Y111.2140 E2.0521
G1 X119.2800 Y111.2150 E2.1220
G1 X119.2800 Y119.2800 E2.4116
G1 X100.7200 Y119.2800 E3.0783
G1 X100.2400 Y119.7600 F10000 ; custom feedrate
G92 E0.0000
G1 X100.2400 Y100.2400 E0.7012 F3600 ; custom feedrate
G1 X105.5880 Y100.2400 E0.8933
G1 X105.5890 Y102.1330 E0.9613
G1 X107.7350 Y102.1330 E1.0383
G1 X107.7340 Y100.2400 E1.1063
G1 X111.4310 Y100.2400 E1.2391
G1 X111.4300 Y102.1330 E1.3071
G1 X113.6580 Y102.1330 E1.3872
G1 X113.6590 Y100.2400 E1.4551
G1 X119.7600 Y100.2400 E1.6743
G1 X119.7600 Y108.5750 E1.9737
G1 X117.8170 Y108.5740 E2.0435
G1 X117.8160 Y110.7350 E2.1211
G1 X119.7600 Y110.7360 E2.1909
G1 X119.7600 Y119.7600 E2.5151
G1 X100.2400 Y119.7600 E3.2163
G1 X110.1740 Y102.3590 F10000 ; custom feedrate
G92 E0.0000
G1 X110.1820 Y102.3510 E0.0004 F4800 ; custom feedrate
G1 X110.1820 Y101.6720 E0.0248
G1 X110.1750 Y101.6800 E0.0251
G1 X101.5480 Y105.7240 F10000 ; custom feedrate
G92 E0.0000
G1 X104.2820 Y102.9910 E0.1736 F6000 ; custom feedrate
G1 X104.2820 Y103.4410 E0.1938
G1 X108.0740 Y103.4410 E0.3641
G1 X101.5480 Y109.9670 E0.7785
G1 X101.5480 Y114.2090 E0.9690
G1 X112.3170 Y103.4410 E1.6528
G1 X114.9660 Y103.4410 E1.7717
G1 X114.9670 Y101.5480 E1.8567
G1 X118.4520 Y101.5480 E2.0132
G1 X101.5480 Y118.4520 E3.0866
G1 X105.7910 Y118.4520 E3.2771
G1 X116.5090 Y107.7340 E3.9577
G1 X116.5070 Y111.9780 E4.1483
G1 X110.0330 Y118.4520 E4.5594
G1 X114.2760 Y118.4520 E4.7499
G1 X118.4520 Y114.2760 E5.0151
G92 E0.0000
G1 E-2 F2700 ; custom retraction
;layer 27, Z = 5.400
;fan27;
G1 Z5.400 F1200
G1 X118.8000 Y111.6930 F10000 ; custom feedrate
G1 E0 F2700 ; custom un-retraction/prime
G92 E0.0000
G1 X118.8000 Y118.8000 E0.2553 F4800 ; custom feedrate
G1 X101.2000 Y118.8000 E0.8875
G1 X101.2000 Y101.2000 E1.5197
G1 X104.7400 Y101.2000 E1.6469
G1 X104.7410 Y103.0930 E1.7148
G1 X108.8140 Y103.0930 E1.8612
G1 X108.8130 Y101.2000 E1.9291
G1 X110.3480 Y101.2000 E1.9843
G1 X110.3470 Y103.0930 E2.0523
G1 X114.4910 Y103.0930 E2.2011
G1 X114.4920 Y101.2000 E2.2691
G1 X118.8000 Y101.2000 E2.4239
G1 X118.8000 Y107.6120 E2.6542
G1 X116.8580 Y107.6110 E2.7240
G1 X116.8560 Y111.6920 E2.8706
G1 X118.8000 Y111.6930 E2.9404
G1 X119.2800 Y111.2130 F10000 ; custom feedrate
G92 E0.0000
G1 X119.2800 Y119.2800 E0.2898 F4800 ; custom feedrate
G1 X100.7200 Y119.2800 E0.9565
G1 X100.7200 Y100.7200 E1.6232
G1 X105.2190 Y100.7200 E1.7848
G1 X105.2200 Y102.6130 E1.8528
G1 X108.3330 Y102.6130 E1.9646
G1 X108.3320 Y100.7200 E2.0326
G1 X110.8290 Y100.7200 E2.1222
G1 X110.8280 Y102.6130 E2.1902
G1 X114.0120 Y102.6130 E2.3046
G1 X114.0130 Y100.7200 E2.3726
G1 X119.2800 Y100.7200 E2.5618
G1 X119.2800 Y108.0920 E2.8266
G1 X117.3370 Y108.0920 E2.8964
G1 X117.3360 Y111.2120 E3.0085
G1 X119.2800 Y111.2130 E3.0783
G1 X119.7600 Y110.7330 F10000 ; custom feedrate
G92 E0.0000
G1 X119.7600 Y119.7600 E0.3242 F3600 ; custom feedrate
G1 X100.2400 Y119.7600 E1.0254
G1 X100.2400 Y100.2400 E1.7266
G1 X105.6990 Y100.2400 E1.9227
G1 X105.7000 Y102.1330 E1.9907
G1 X107.8530 Y102.1330 E2.0680
G1 X107.8520 Y100.2400 E2.1360
G1 X111.3090 Y100.2400 E2.2602
G1 X111.3080 Y102.1330 E2.3282
G1 X113.5320 Y102.1330 E2.4081
G1 X113.5330 Y100.2400 E2.4760
G1 X119.7600 Y100.2400 E2.6997
G1 X119.7600 Y108.5730 E2.9990
G1 X117.8170 Y108.5720 E3.0688
G1 X117.8160 Y110.7330 E3.1464
G1 X119.7600 Y110.7330 E3.2163
G92 E0.0000
G1 E-2 F2700 ; custom retraction
;zhop1
G1 X117.8160 Y110.7330 F10000 ; custom feedrate
G1 X117.8170 Y109.1020
G1 X110.0520 Y102.5850
G1 Z5.400 F1200
G1 E0 F2700 ; custom un-retraction/prime
G92 E0.0000
G1 X110.0600 Y102.5920 E0.0004 F4800 ; custom feedrate
G1 X110.0600 Y101.9140 E0.0247
G1 X110.0530 Y101.9070 E0.0251
G1 X111.3080 Y101.9610 F10000 ; custom feedrate
G1 X111.3080 Y102.1330
G1 X113.5320 Y102.1330
G1 X113.5320 Y102.0560
G1 X114.8400 Y102.1120
G92 E0.0000
G1 X118.4520 Y105.7240 E0.2294 F6000 ; custom feedrate
G1 X118.4520 Y107.2640 E0.2985
G1 X116.5100 Y107.2630 E0.3857
G1 X116.5090 Y108.0240 E0.4199
G1 X111.9260 Y103.4410 E0.7109
G1 X110.5990 Y103.4410 E0.7705
G1 X109.5120 Y103.4410 E0.8194
G1 X109.5130 Y101.5480 E0.9044
G1 X109.1610 Y101.5480 E0.9202
G1 X109.1620 Y103.4410 E1.0052
G1 X107.6830 Y103.4410 E1.0715
G1 X118.4520 Y114.2090 E1.7554
G1 X118.4520 Y118.4520 E1.9459
G1 X101.5480 Y101.5480 E3.0193
G1 X101.5480 Y105.7910 E3.2098
G1 X114.2090 Y118.4520 E4.0137
G1 X109.9670 Y118.4520 E4.2042
G1 X101.5480 Y110.0330 E4.7388
G1 X101.5480 Y114.2760 E4.9293
G1 X105.7240 Y118.4520 E5.1945
G92 E0.0000
G1 E-2 F2700 ; custom retraction
;layer 28, Z = 5.600
;fan28;
G1 Z5.600 F1200
G1 X101.2000 Y118.8000 F10000 ; custom feedrate
G1 E0 F2700 ; custom un-retraction/prime
G92 E0.0000
G1 X101.2000 Y101.2000 E0.6322 F4800 ; custom feedrate
G1 X104.8510 Y101.2000 E0.7633
G1 X104.8520 Y103.0930 E0.8313
G1 X108.9320 Y103.0930 E0.9779
G1 X108.9310 Y101.2000 E1.0459
G1 X110.2260 Y101.2000 E1.0924
G1 X110.2250 Y103.0930 E1.1604
G1 X114.3650 Y103.0930 E1.3091
G1 X114.3660 Y101.2000 E1.3771
G1 X118.8000 Y101.2000 E1.5364
G1 X118.8000 Y107.6100 E1.7666
G1 X116.8580 Y107.6090 E1.8364
G1 X116.8560 Y111.6900 E1.9830
G1 X118.8000 Y111.6910 E2.0528
G1 X118.8000 Y118.8000 E2.3082
G1 X101.2000 Y118.8000 E2.9404
G1 X100.7200 Y119.2800 F10000 ; custom feedrate
G92 E0.0000
G1 X100.7200 Y100.7200 E0.6667 F4800 ; custom feedrate
G1 X105.3300 Y100.7200 E0.8323
G1 X105.3310 Y102.6130 E0.9003
G1 X108.4520 Y102.6130 E1.0124
G1 X108.4510 Y100.7200 E1.0804
G1 X110.7070 Y100.7200 E1.1614
G1 X110.7060 Y102.6130 E1.2294
G1 X113.8850 Y102.6130 E1.3436
G1 X113.8860 Y100.7200 E1.4116
G1 X119.2800 Y100.7200 E1.6054
G1 X119.2800 Y108.0900 E1.8701
G1 X117.3380 Y108.0890 E1.9399
G1 X117.3360 Y111.2100 E2.0520
G1 X119.2800 Y111.2110 E2.1218
G1 X119.2800 Y119.2800 E2.4116
G1 X100.7200 Y119.2800 E3.0783
G1 X100.2400 Y119.7600 F10000 ; custom feedrate
G92 E0.0000
G1 X100.2400 Y100.2400 E0.7012 F3600 ; custom feedrate
G1 X105.8100 Y100.2400 E0.9013
G1 X105.8110 Y102.1330 E0.9693
G1 X107.9720 Y102.1330 E1.0469
G1 X107.9710 Y100.2400 E1.1149
G1 X111.1870 Y100.2400 E1.2304
G1 X111.1860 Y102.1330 E1.2984
G1 X113.4050 Y102.1330 E1.3781
G1 X113.4060 Y100.2400 E1.4461
G1 X119.7600 Y100.2400 E1.6743
G1 X119.7600 Y108.5700 E1.9736
G1 X117.8170 Y108.5700 E2.0433
G1 X117.8160 Y110.7300 E2.1210
G1 X119.7600 Y110.7310 E2.1908
G1 X119.7600 Y119.7600 E2.5151
G1 X100.2400 Y119.7600 E3.2163
G1 X109.9300 Y102.6030 F10000 ; custom feedrate
G92 E0.0000
G1 X109.9380 Y102.5950 E0.0004 F4800 ; custom feedrate
G1 X109.9380 Y101.9160 E0.0248
G1 X109.9310 Y101.9230 E0.0251
G1 X101.5480 Y105.7240 F10000 ; custom feedrate
G92 E0.0000
G1 X104.5030 Y102.7690 E0.1877 F6000 ; custom feedrate
G1 X104.5040 Y103.4410 E0.2179
G1 X108.0740 Y103.4410 E0.3782
G1 X101.5480 Y109.9670 E0.7925
G1 X101.5480 Y114.2090 E0.9830
G1 X112.3170 Y103.4410 E1.6668
G1 X114.7130 Y103.4410 E1.7744
G1 X114.7140 Y101.5480 E1.8594
G1 X118.4520 Y101.5480 E2.0273
G1 X101.5480 Y118.4520 E3.1007
G1 X105.7910 Y118.4520 E3.2912
G1 X116.5100 Y107.7330 E3.9718
G1 X116.5080 Y111.9770 E4.1624
G1 X110.0330 Y118.4520 E4.5736
G1 X114.2760 Y118.4520 E4.7641
G1 X118.4520 Y114.2760 E5.0292
G92 E0.0000
G1 E-2 F2700 ; custom retraction
;layer 29, Z = 5.800
;fan29;
G1 Z5.800 F1200
G1 X118.8000 Y111.6890 F10000 ; custom feedrate
G1 E0 F2700 ; custom un-retraction/prime
G92 E0.0000
G1 X118.8000 Y118.8000 E0.2554 F4800 ; custom feedrate
G1 X101.2000 Y118.8000 E0.8877
G1 X101.2000 Y101.2000 E1.5199
G1 X104.9620 Y101.2000 E1.6550
G1 X104.9630 Y103.0930 E1.7230
G1 X109.0510 Y103.0930 E1.8698
G1 X109.0500 Y101.2000 E1.9378
G1 X110.1050 Y101.2000 E1.9757
G1 X110.1040 Y103.0930 E2.0437
G1 X114.2380 Y103.0930 E2.1923
G1 X114.2390 Y101.2000 E2.2603
G1 X118.8000 Y101.2000 E2.4241
G1 X118.8000 Y107.6080 E2.6542
G1 X116.8580 Y107.6070 E2.7240
G1 X116.8560 Y111.6880 E2.8706
G1 X118.8000 Y111.6890 E2.9404
G1 X119.2800 Y111.2090 F10000 ; custom feedrate
G92 E0.0000
G1 X119.2800 Y119.2800 E0.2899 F4800 ; custom feedrate
G1 X100.7200 Y119.2800 E0.9566
G1 X100.7200 Y100.7200 E1.6233
G1 X105.4420 Y100.7200 E1.7929
G1 X105.4420 Y102.6130 E1.8609
G1 X108.5700 Y102.6130 E1.9733
G1 X108.5690 Y100.7200 E2.0413
G1 X110.5850 Y100.7200 E2.1137
G1 X110.5840 Y102.6130 E2.1817
G1 X113.7590 Y102.6130 E2.2957
G1 X113.7600 Y100.7200 E2.3637
G1 X119.2800 Y100.7200 E2.5620
G1 X119.2800 Y108.0880 E2.8267
G1 X117.3380 Y108.0870 E2.8964
G1 X117.3370 Y111.2080 E3.0085
G1 X119.2800 Y111.2090 E3.0783
G1 X119.7600 Y110.7290 F10000 ; custom feedrate
G92 E0.0000
G1 X119.7600 Y119.7600 E0.3244 F3600 ; custom feedrate
G1 X100.2400 Y119.7600 E1.0256
G1 X100.2400 Y100.2400 E1.7268
G1 X105.9210 Y100.2400 E1.9308
G1 X105.9220 Y102.1330 E1.9988
G1 X108.0900 Y102.1330 E2.0767
G1 X108.0890 Y100.2400 E2.1447
G1 X111.0650 Y100.2400 E2.2516
G1 X111.0640 Y102.1330 E2.3196
G1 X113.2790 Y102.1330 E2.3992
G1 X113.2800 Y100.2400 E2.4672
G1 X119.7600 Y100.2400 E2.6999
G1 X119.7600 Y108.5680 E2.9991
G1 X117.8180 Y108.5670 E3.0689
G1 X117.8170 Y110.7280 E3.1465
G1 X119.7600 Y110.7290 E3.2163
G92 E0.0000
G1 E-2 F2700 ; custom retraction
;zhop1
G1 X117.8170 Y110.7280 F10000 ; custom feedrate
G1 X117.8170 Y109.2190
G1 X109.6900 Y102.9020
G1 Z5.800 F1200
G1 E0 F2700 ; custom un-retraction/prime
G92 E0.0000
G1 X109.3380 Y102.5500 E0.0179 F4800 ; custom feedrate
G1 X109.3380 Y101.8710 E0.0423
G1 X109.8160 Y102.3490 E0.0665
G1 X109.8160 Y101.6700 E0.0909
G1 X109.6340 Y101.4880 E0.1002
G1 X111.0640 Y101.5950 F10000 ; custom feedrate
G1 X111.0640 Y102.1330
G1 X113.2790 Y102.1330
G1 X113.2790 Y101.7610
G1 X114.5870 Y101.8590
G92 E0.0000
G1 X118.4520 Y105.7240 E0.2454 F6000 ; custom feedrate
G1 X118.4520 Y107.2600 E0.3144
G1 X116.5100 Y107.2590 E0.4016
G1 X116.5100 Y108.0250 E0.4359
G1 X111.9260 Y103.4410 E0.7270
G1 X110.3560 Y103.4420 E0.7976
G1 X108.7990 Y103.4410 E0.8675
G1 X107.6840 Y103.4410 E0.9176
G1 X118.4520 Y114.2090 E1.6013
G1 X118.4520 Y118.4520 E1.7918
G1 X101.5480 Y101.5480 E2.8652
G1 X101.5480 Y105.7910 E3.0557
G1 X114.2090 Y118.4520 E3.8597
G1 X109.9670 Y118.4520 E4.0502
G1 X101.5480 Y110.0330 E4.5848
G1 X101.5480 Y114.2760 E4.7753
G1 X105.7240 Y118.4520 E5.0405
G92 E0.0000
G1 E-2 F2700 ; custom retraction
;layer 30, Z = 6.000
;fan30;
G1 Z6.000 F1200
G1 X101.2000 Y118.8000 F10000 ; custom feedrate
G1 E0 F2700 ; custom un-retraction/prime
G92 E0.0000
G1 X101.2000 Y101.2000 E0.6322 F4800 ; custom feedrate
G1 X105.0730 Y101.2000 E0.7713
G1 X105.0740 Y103.0930 E0.8393
G1 X109.1690 Y103.0930 E0.9864
G1 X109.1680 Y101.2000 E1.0544
G1 X109.9830 Y101.2000 E1.0837
G1 X109.9820 Y103.0930 E1.1517
G1 X114.1120 Y103.0930 E1.3001
G1 X114.1130 Y101.2000 E1.3681
G1 X118.8000 Y101.2000 E1.5364
G1 X118.8000 Y107.6060 E1.7665
G1 X116.8580 Y107.6050 E1.8363
G1 X116.8570 Y111.6860 E1.9829
G1 X118.8000 Y111.6860 E2.0527
G1 X118.8000 Y118.8000 E2.3082
G1 X101.2000 Y118.8000 E2.9404
G1 X100.7200 Y119.2800 F10000 ; custom feedrate
G92 E0.0000
G1 X100.7200 Y100.7200 E0.6667 F4800 ; custom feedrate
G1 X105.5530 Y100.7200 E0.8403
G1 X105.5530 Y102.6130 E0.9083
G1 X108.6890 Y102.6130 E1.0209
G1 X108.6880 Y100.7200 E1.0889
G1 X110.4630 Y100.7200 E1.1527
G1 X110.4620 Y102.6130 E1.2207
G1 X113.6320 Y102.6130 E1.3346
G1 X113.6330 Y100.7200 E1.4026
G1 X119.2800 Y100.7200 E1.6054
G1 X119.2800 Y108.0860 E1.8700
G1 X117.3380 Y108.0850 E1.9397
G1 X117.3370 Y111.2060 E2.0518
G1 X119.2800 Y111.2070 E2.1216
G1 X119.2800 Y119.2800 E2.4117
G1 X100.7200 Y119.2800 E3.0783
G1 X100.2400 Y119.7600 F10000 ; custom feedrate
G92 E0.0000
G1 X100.2400 Y100.2400 E0.7012 F3600 ; custom feedrate
G1 X106.0320 Y100.2400 E0.9092
G1 X106.0330 Y102.1330 E0.9772
G1 X108.2090 Y102.1330 E1.0554
G1 X108.2080 Y100.2400 E1.1234
G1 X110.9430 Y100.2400 E1.2217
G1 X110.9420 Y102.1330 E1.2897
G1 X113.1530 Y102.1330 E1.3691
G1 X113.1540 Y100.2400 E1.4371
G1 X119.7600 Y100.2400 E1.6744
G1 X119.7600 Y108.5660 E1.9735
G1 X117.8180 Y108.5650 E2.0432
G1 X117.8170 Y110.7260 E2.1208
G1 X119.7600 Y110.7270 E2.1906
G1 X119.7600 Y119.7600 E2.5151
G1 X100.2400 Y119.7600 E3.2163
G1 X109.6940 Y102.8390 F10000 ; custom feedrate
G92 E0.0000
G1 X109.6310 Y102.9020 E0.0032 F4800 ; custom feedrate
G1 X109.4570 Y102.9020 E0.0094
G1 X109.4570 Y102.3970 E0.0276
G1 X109.6940 Y102.1600 E0.0396
G1 X109.6950 Y101.4880 E0.0638
G1 X109.6870 Y101.4880 E0.0640
G1 X109.4560 Y101.7190 E0.0758
G1 X101.5480 Y105.7240 F10000 ; custom feedrate
G92 E0.0000
G1 X104.7250 Y102.5470 E0.2018 F6000 ; custom feedrate
G1 X104.7260 Y103.4410 E0.2419
G1 X108.0740 Y103.4410 E0.3922
G1 X101.5480 Y109.9670 E0.8066
G1 X101.5480 Y114.2090 E0.9971
G1 X112.3160 Y103.4410 E1.6809
G1 X114.4600 Y103.4410 E1.7771
G1 X114.4610 Y101.5480 E1.8622
G1 X118.4520 Y101.5480 E2.0414
G1 X101.5480 Y118.4520 E3.1148
G1 X105.7910 Y118.4520 E3.3053
G1 X116.5100 Y107.7320 E3.9860
G1 X116.5080 Y111.9770 E4.1765
G1 X110.0330 Y118.4520 E4.5877
G1 X114.2760 Y118.4520 E4.7782
G1 X118.4520 Y114.2760 E5.0434
G92 E0.0000
G1 E-2 F2700 ; custom retraction
;layer 31, Z = 6.200
;fan31;
G1 Z6.200 F1200
G1 X118.8000 Y111.6840 F10000 ; custom feedrate
G1 E0 F2700 ; custom un-retraction/prime
G92 E0.0000
G1 X118.8000 Y118.8000 E0.2556 F4800 ; custom feedrate
G1 X101.2000 Y118.8000 E0.8878
G1 X101.2000 Y101.2000 E1.5200
G1 X105.1840 Y101.2000 E1.6631
G1 X105.1850 Y103.0930 E1.7311
G1 X109.2880 Y103.0930 E1.8785
G1 X109.2870 Y101.2000 E1.9465
G1 X109.8610 Y101.2000 E1.9672
G1 X109.8600 Y103.0930 E2.0352
G1 X113.9860 Y103.0930 E2.1834
G1 X113.9870 Y101.2000 E2.2514
G1 X118.8000 Y101.2000 E2.4243
G1 X118.8000 Y107.6030 E2.6543
G1 X116.8590 Y107.6030 E2.7240
G1 X116.8570 Y111.6830 E2.8706
G1 X118.8000 Y111.6840 E2.9404
G1 X119.2800 Y111.2040 F10000 ; custom feedrate
G92 E0.0000
G1 X119.2800 Y119.2800 E0.2901 F4800 ; custom feedrate
G1 X100.7200 Y119.2800 E0.9568
G1 X100.7200 Y100.7200 E1.6235
G1 X105.6640 Y100.7200 E1.8010
G1 X105.6640 Y102.6130 E1.8691
G1 X108.8070 Y102.6130 E1.9819
G1 X108.8060 Y100.7200 E2.0500
G1 X110.3410 Y100.7200 E2.1051
G1 X110.3400 Y102.6130 E2.1731
G1 X113.5060 Y102.6130 E2.2868
G1 X113.5070 Y100.7200 E2.3548
G1 X119.2800 Y100.7200 E2.5622
G1 X119.2800 Y108.0840 E2.8267
G1 X117.3390 Y108.0830 E2.8965
G1 X117.3370 Y111.2040 E3.0086
G1 X119.2800 Y111.2040 E3.0783
G1 X119.7600 Y110.7250 F10000 ; custom feedrate
G92 E0.0000
G1 X119.7600 Y119.7600 E0.3246 F3600 ; custom feedrate
G1 X100.2400 Y119.7600 E1.0257
G1 X100.2400 Y100.2400 E1.7269
G1 X106.1430 Y100.2400 E1.9390
G1 X106.1440 Y102.1330 E2.0070
G1 X108.3270 Y102.1330 E2.0854
G1 X108.3260 Y100.2400 E2.1534
G1 X110.8210 Y100.2400 E2.2430
G1 X110.8200 Y102.1330 E2.3110
G1 X113.0260 Y102.1330 E2.3903
G1 X113.0270 Y100.2400 E2.4583
G1 X119.7600 Y100.2400 E2.7001
G1 X119.7600 Y108.5640 E2.9991
G1 X117.8180 Y108.5630 E3.0689
G1 X117.8170 Y110.7240 E3.1465
G1 X119.7600 Y110.7250 E3.2163
G92 E0.0000
G1 E-2 F2700 ; custom retraction
;zhop1
G1 X117.8170 Y110.7240 F10000 ; custom feedrate
G1 X117.8180 Y108.5630
G1 X118.4740 Y108.5630
G1 X114.3340 Y101.6060
G1 Z6.200 F1200
G1 E0 F2700 ; custom un-retraction/prime
G92 E0.0000
G1 X118.4520 Y105.7240 E0.2615 F6000 ; custom feedrate
G1 X118.4520 Y107.2550 E0.3302
G1 X116.5110 Y107.2550 E0.4174
G1 X116.5110 Y108.0250 E0.4520
G1 X111.9270 Y103.4410 E0.7431
G1 X107.6840 Y103.4410 E0.9336
G1 X118.4520 Y114.2090 E1.6173
G1 X118.4520 Y118.4520 E1.8078
G1 X101.5480 Y101.5480 E2.8812
G1 X101.5480 Y105.7910 E3.0717
G1 X114.2090 Y118.4520 E3.8757
G1 X109.9670 Y118.4520 E4.0662
G1 X101.5480 Y110.0330 E4.6008
G1 X101.5480 Y114.2760 E4.7913
G1 X105.7240 Y118.4520 E5.0565
G92 E0.0000
G1 E-2 F2700 ; custom retraction
;layer 32, Z = 6.400
;fan32;
G1 Z6.400 F1200
G1 X101.2000 Y118.8000 F10000 ; custom feedrate
G1 E0 F2700 ; custom un-retraction/prime
G92 E0.0000
G1 X101.2000 Y101.2000 E0.6322 F4800 ; custom feedrate
G1 X105.2950 Y101.2000 E0.7793
G1 X105.2960 Y103.0940 E0.8473
G1 X113.8590 Y103.0940 E1.1549
G1 X113.8600 Y101.2000 E1.2229
G1 X118.8000 Y101.2000 E1.4004
G1 X118.8000 Y107.6010 E1.6303
G1 X116.8590 Y107.6000 E1.7000
G1 X116.8570 Y111.6810 E1.8466
G1 X118.8000 Y111.6820 E1.9164
G1 X118.8000 Y118.8000 E2.1721
G1 X101.2000 Y118.8000 E2.8043
G1 X100.7200 Y119.2800 F10000 ; custom feedrate
G92 E0.0000
G1 X100.7200 Y100.7200 E0.6667 F4800 ; custom feedrate
G1 X105.7750 Y100.7200 E0.8483
G1 X105.7750 Y102.6140 E0.9163
G1 X108.9260 Y102.6140 E1.0294
G1 X108.9250 Y100.7200 E1.0975
G1 X110.2190 Y100.7200 E1.1440
G1 X110.2180 Y102.6140 E1.2120
G1 X113.3790 Y102.6140 E1.3255
G1 X113.3800 Y100.7200 E1.3935
G1 X119.2800 Y100.7200 E1.6055
G1 X119.2800 Y108.0820 E1.8699
G1 X117.3390 Y108.0810 E1.9396
G1 X117.3370 Y111.2010 E2.0517
G1 X119.2800 Y111.2020 E2.1215
G1 X119.2800 Y119.2800 E2.4117
G1 X100.7200 Y119.2800 E3.0783
G1 X100.2400 Y119.7600 F10000 ; custom feedrate
G92 E0.0000
G1 X100.2400 Y100.2400 E0.7012 F3600 ; custom feedrate
G1 X106.2540 Y100.2400 E0.9172
G1 X106.2550 Y102.1340 E0.9852
G1 X108.4460 Y102.1340 E1.0639
G1 X108.4450 Y100.2400 E1.1319
G1 X110.7000 Y100.2400 E1.2129
G1 X110.6990 Y102.1340 E1.2809
G1 X112.9000 Y102.1340 E1.3600
G1 X112.9010 Y100.2400 E1.4280
G1 X119.7600 Y100.2400 E1.6744
G1 X119.7600 Y108.5620 E1.9733
G1 X117.8190 Y108.5610 E2.0431
G1 X117.8180 Y110.7220 E2.1207
G1 X119.7600 Y110.7230 E2.1905
G1 X119.7600 Y119.7600 E2.5151
G1 X100.2400 Y119.7600 E3.2163
G1 X109.7320 Y102.8010 F10000 ; custom feedrate
G92 E0.0000
G1 X109.9300 Y102.6030 E0.0101 F6000 ; custom feedrate
G1 X109.9310 Y101.9230 E0.0345
G1 X109.2140 Y102.6400 E0.0709
G1 X109.2130 Y101.9620 E0.0953
G1 X109.9310 Y101.2440 E0.1317
G1 X109.9310 Y101.0080 E0.1402
G1 X109.4890 Y101.0080 E0.1561
G1 X109.2130 Y101.2830 E0.1701
G1 X108.4450 Y101.7280 F10000 ; custom feedrate
G1 X108.4460 Y102.1340
G1 X107.7460 Y102.1340
G1 X101.5480 Y105.7240
G92 E0.0000
G1 X104.9470 Y102.3250 E0.2159 F6000 ; custom feedrate
G1 X104.9480 Y103.4420 E0.2660
G1 X108.0730 Y103.4420 E0.4063
G1 X101.5480 Y109.9670 E0.8207
G1 X101.5480 Y114.2090 E1.0112
G1 X112.3160 Y103.4420 E1.6949
G1 X114.2070 Y103.4420 E1.7799
G1 X114.2090 Y101.5480 E1.8649
G1 X118.4520 Y101.5480 E2.0554
G1 X101.5480 Y118.4520 E3.1288
G1 X105.7910 Y118.4520 E3.3193
G1 X116.5110 Y107.7320 E4.0000
G1 X116.5090 Y111.9760 E4.1906
G1 X110.0330 Y118.4520 E4.6018
G1 X114.2760 Y118.4520 E4.7923
G1 X118.4520 Y114.2760 E5.0575
G92 E0.0000
G1 E-2 F2700 ; custom retraction
;layer 33, Z = 6.600
;fan33;
G1 Z6.600 F1200
G1 X118.8000 Y111.6800 F10000 ; custom feedrate
G1 E0 F2700 ; custom un-retraction/prime
G92 E0.0000
G1 X118.8000 Y118.8000 E0.2558 F4800 ; custom feedrate
G1 X101.2000 Y118.8000 E0.8880
G1 X101.2000 Y101.2000 E1.5202
G1 X105.4060 Y101.2000 E1.6713
G1 X105.4070 Y103.0940 E1.7393
G1 X113.7330 Y103.0940 E2.0384
G1 X113.7340 Y101.2000 E2.1064
G1 X118.8000 Y101.2000 E2.2884
G1 X118.8000 Y107.5990 E2.5182
G1 X116.8590 Y107.5980 E2.5879
G1 X116.8580 Y111.6790 E2.7345
G1 X118.8000 Y111.6800 E2.8043
G1 X119.2800 Y111.2000 F10000 ; custom feedrate
G92 E0.0000
G1 X119.2800 Y119.2800 E0.2902 F4800 ; custom feedrate
G1 X100.7200 Y119.2800 E0.9569
G1 X100.7200 Y100.7200 E1.6236
G1 X105.8860 Y100.7200 E1.8092
G1 X105.8860 Y102.6140 E1.8772
G1 X109.0440 Y102.6140 E1.9906
G1 X109.0430 Y100.7200 E2.0587
G1 X110.0980 Y100.7200 E2.0965
G1 X110.0970 Y102.6140 E2.1645
G1 X113.2530 Y102.6140 E2.2779
G1 X113.2540 Y100.7200 E2.3459
G1 X119.2800 Y100.7200 E2.5624
G1 X119.2800 Y108.0790 E2.8268
G1 X117.3390 Y108.0790 E2.8965
G1 X117.3380 Y111.1990 E3.0086
G1 X119.2800 Y111.2000 E3.0783
G1 X119.7600 Y110.7200 F10000 ; custom feedrate
G92 E0.0000
G1 X119.7600 Y119.7600 E0.3247 F3600 ; custom feedrate
G1 X100.2400 Y119.7600 E1.0259
G1 X100.2400 Y100.2400 E1.7271
G1 X106.3650 Y100.2400 E1.9471
G1 X106.3660 Y102.1340 E2.0151
G1 X108.5640 Y102.1340 E2.0941
G1 X108.5630 Y100.2400 E2.1621
G1 X110.5780 Y100.2400 E2.2345
G1 X110.5770 Y102.1340 E2.3025
G1 X112.7730 Y102.1340 E2.3814
G1 X112.7740 Y100.2400 E2.4494
G1 X119.7600 Y100.2400 E2.7003
G1 X119.7600 Y108.5600 E2.9992
G1 X117.8190 Y108.5590 E3.0689
G1 X117.8180 Y110.7200 E3.1465
G1 X119.7600 Y110.7200 E3.2163
G92 E0.0000
G1 E-2 F2700 ; custom retraction
;zhop1
G1 X117.8180 Y110.7200 F10000 ; custom feedrate
G1 X117.8190 Y109.2090
G1 X109.5890 Y102.8010
G1 Z6.600 F1200
G1 E0 F2700 ; custom un-retraction/prime
G92 E0.0000
G1 X109.3320 Y102.5440 E0.0130 F6000 ; custom feedrate
G1 X109.3320 Y101.8650 E0.0374
G1 X109.8090 Y102.3420 E0.0617
G1 X109.8090 Y101.6630 E0.0860
G1 X109.3320 Y101.1860 E0.1103
G1 X110.5770 Y101.2770 F10000 ; custom feedrate
G1 X110.5770 Y102.1340
G1 X112.7730 Y102.1340
G1 X112.7740 Y101.4380
G1 X114.2760 Y101.5480
G92 E0.0000
G1 X118.4520 Y105.7240 E0.2652 F6000 ; custom feedrate
G1 X118.4520 Y107.2510 E0.3337
G1 X116.5120 Y107.2500 E0.4209
G1 X116.5110 Y108.0260 E0.4557
G1 X111.9270 Y103.4420 E0.7468
G1 X107.6840 Y103.4420 E0.9373
G1 X118.4520 Y114.2090 E1.6210
G1 X118.4520 Y118.4520 E1.8115
G1 X101.5480 Y101.5480 E2.8849
G1 X101.5480 Y105.7910 E3.0754
G1 X114.2090 Y118.4520 E3.8794
G1 X109.9670 Y118.4520 E4.0699
G1 X101.5480 Y110.0330 E4.6045
G1 X101.5480 Y114.2760 E4.7950
G1 X105.7240 Y118.4520 E5.0602
G92 E0.0000
G1 E-2 F2700 ; custom retraction
;layer 34, Z = 6.800
;fan34;
G1 Z6.800 F1200
G1 X101.2000 Y118.8000 F10000 ; custom feedrate
G1 E0 F2700 ; custom un-retraction/prime
G92 E0.0000
G1 X101.2000 Y101.2000 E0.6322 F4800 ; custom feedrate
G1 X105.5170 Y101.2000 E0.7873
G1 X105.5180 Y103.0940 E0.8553
G1 X113.6060 Y103.0940 E1.1458
G1 X113.6070 Y101.2000 E1.2139
G1 X118.8000 Y101.2000 E1.4004
G1 X118.8000 Y107.5970 E1.6302
G1 X116.8600 Y107.5960 E1.6999
G1 X116.8580 Y111.6770 E1.8465
G1 X118.8000 Y111.6780 E1.9162
G1 X118.8000 Y118.8000 E2.1721
G1 X101.2000 Y118.8000 E2.8043
G1 X100.7200 Y119.2800 F10000 ; custom feedrate
G92 E0.0000
G1 X100.7200 Y100.7200 E0.6667 F4800 ; custom feedrate
G1 X105.9970 Y100.7200 E0.8562
G1 X105.9970 Y102.6140 E0.9243
G1 X109.1630 Y102.6140 E1.0380
G1 X109.1620 Y100.7200 E1.1060
G1 X109.9760 Y100.7200 E1.1352
G1 X109.9750 Y102.6140 E1.2033
G1 X113.1260 Y102.6140 E1.3165
G1 X113.1270 Y100.7200 E1.3845
G1 X119.2800 Y100.7200 E1.6055
G1 X119.2800 Y108.0770 E1.8698
G1 X117.3390 Y108.0760 E1.9395
G1 X117.3380 Y111.1970 E2.0516
G1 X119.2800 Y111.1980 E2.1213
G1 X119.2800 Y119.2800 E2.4117
G1 X100.7200 Y119.2800 E3.0784
G1 X100.2400 Y119.7600 F10000 ; custom feedrate
G92 E0.0000
G1 X100.2400 Y100.2400 E0.7012 F3600 ; custom feedrate
G1 X106.4760 Y100.2400 E0.9252
G1 X106.4770 Y102.1340 E0.9932
G1 X108.6830 Y102.1340 E1.0724
G1 X108.6820 Y100.2400 E1.1405
G1 X110.4560 Y100.2400 E1.2042
G1 X110.4550 Y102.1340 E1.2722
G1 X112.6470 Y102.1340 E1.3510
G1 X112.6480 Y100.2400 E1.4190
G1 X119.7600 Y100.2400 E1.6745
G1 X119.7600 Y108.5570 E1.9732
G1 X117.8190 Y108.5570 E2.0430
G1 X117.8180 Y110.7170 E2.1206
G1 X119.7600 Y110.7180 E2.1903
G1 X119.7600 Y119.7600 E2.5151
G1 X100.2400 Y119.7600 E3.2163
G1 X109.6870 Y102.1670 F10000 ; custom feedrate
G92 E0.0000
G1 X109.4510 Y102.4030 E0.0120 F6000 ; custom feedrate
G1 X109.4500 Y101.7250 E0.0364
G1 X109.6870 Y101.4880 E0.0484
G1 X109.6880 Y101.0080 E0.0657
G1 X109.4890 Y101.0080 E0.0728
G1 X109.4500 Y101.0460 E0.0748
G1 X108.6820 Y101.5010 F10000 ; custom feedrate
G1 X108.6830 Y102.1340
G1 X107.6130 Y102.1340
G1 X101.5480 Y105.7240
G92 E0.0000
G1 X105.1690 Y102.1030 E0.2299 F6000 ; custom feedrate
G1 X105.1700 Y103.4420 E0.2901
G1 X108.0730 Y103.4420 E0.4204
G1 X101.5480 Y109.9670 E0.8348
G1 X101.5480 Y114.2090 E1.0253
G1 X112.3160 Y103.4420 E1.7090
G1 X113.9540 Y103.4420 E1.7826
G1 X113.9550 Y101.8030 E1.8562
G1 X114.2090 Y101.5480 E1.8723
G1 X118.4520 Y101.5480 E2.0628
G1 X101.5480 Y118.4520 E3.1362
G1 X105.7910 Y118.4520 E3.3267
G1 X116.5120 Y107.7310 E4.0075
G1 X116.5100 Y111.9760 E4.1981
G1 X110.0330 Y118.4520 E4.6093
G1 X114.2760 Y118.4520 E4.7998
G1 X118.4520 Y114.2760 E5.0650
G92 E0.0000
G1 E-2 F2700 ; custom retraction
;layer 35, Z = 7.000
;fan35;
G1 Z7.000 F1200
G1 X118.8000 Y111.6760 F10000 ; custom feedrate
G1 E0 F2700 ; custom un-retraction/prime
G92 E0.0000
G1 X118.8000 Y118.8000 E0.2559 F4800 ; custom feedrate
G1 X101.2000 Y118.8000 E0.8881
G1 X101.2000 Y101.2000 E1.5203
G1 X105.6280 Y101.2000 E1.6794
G1 X105.6290 Y103.0940 E1.7474
G1 X113.4800 Y103.0940 E2.0294
G1 X113.4810 Y101.2000 E2.0975
G1 X118.8000 Y101.2000 E2.2885
G1 X118.8000 Y107.5950 E2.5183
G1 X116.8600 Y107.5940 E2.5879
G1 X116.8580 Y111.6750 E2.7345
G1 X118.8000 Y111.6760 E2.8043
G1 X119.2800 Y111.1960 F10000 ; custom feedrate
G92 E0.0000
G1 X119.2800 Y119.2800 E0.2904 F4800 ; custom feedrate
G1 X100.7200 Y119.2800 E0.9571
G1 X100.7200 Y100.7200 E1.6238
G1 X106.1080 Y100.7200 E1.8173
G1 X106.1090 Y102.6140 E1.8853
G1 X109.2810 Y102.6140 E1.9993
G1 X109.2800 Y100.7200 E2.0673
G1 X109.8540 Y100.7200 E2.0879
G1 X109.8530 Y102.6140 E2.1560
G1 X113.0000 Y102.6140 E2.2690
G1 X113.0010 Y100.7200 E2.3371
G1 X119.2800 Y100.7200 E2.5626
G1 X119.2800 Y108.0750 E2.8268
G1 X117.3400 Y108.0740 E2.8965
G1 X117.3380 Y111.1950 E3.0086
G1 X119.2800 Y111.1960 E3.0784
G1 X119.7600 Y110.7160 F10000 ; custom feedrate
G92 E0.0000
G1 X119.7600 Y119.7600 E0.3249 F3600 ; custom feedrate
G1 X100.2400 Y119.7600 E1.0260
G1 X100.2400 Y100.2400 E1.7272
G1 X106.5870 Y100.2400 E1.9552
G1 X106.5880 Y102.1340 E2.0233
G1 X108.8010 Y102.1340 E2.1027
G1 X108.8000 Y100.2400 E2.1708
G1 X110.3340 Y100.2400 E2.2259
G1 X110.3330 Y102.1340 E2.2939
G1 X112.5200 Y102.1340 E2.3725
G1 X112.5210 Y100.2400 E2.4405
G1 X119.7600 Y100.2400 E2.7005
G1 X119.7600 Y108.5550 E2.9992
G1 X117.8200 Y108.5540 E3.0689
G1 X117.8190 Y110.7150 E3.1465
G1 X119.7600 Y110.7160 E3.2163
G92 E0.0000
G1 E-2 F2700 ; custom retraction
;zhop1
G1 X117.8190 Y110.7150 F10000 ; custom feedrate
G1 X117.8200 Y108.5540
G1 X118.4670 Y108.5550
G1 X114.2760 Y101.5480
G1 Z7.000 F1200
G1 E0 F2700 ; custom un-retraction/prime
G92 E0.0000
G1 X118.4520 Y105.7240 E0.2652 F6000 ; custom feedrate
G1 X118.4520 Y107.2470 E0.3335
G1 X116.5120 Y107.2460 E0.4206
G1 X116.5120 Y108.0260 E0.4557
G1 X111.9270 Y103.4420 E0.7468
G1 X107.6850 Y103.4420 E0.9373
G1 X118.4520 Y114.2090 E1.6210
G1 X118.4520 Y118.4520 E1.8115
G1 X101.5480 Y101.5480 E2.8849
G1 X101.5480 Y105.7910 E3.0754
G1 X114.2090 Y118.4520 E3.8794
G1 X109.9670 Y118.4520 E4.0699
G1 X101.5480 Y110.0330 E4.6045
G1 X101.5480 Y114.2760 E4.7950
G1 X105.7240 Y118.4520 E5.0602
G92 E0.0000
G1 E-2 F2700 ; custom retraction
;layer 36, Z = 7.200
;fan36;
G1 Z7.200 F1200
G1 X101.2000 Y118.8000 F10000 ; custom feedrate
G1 E0 F2700 ; custom un-retraction/prime
G92 E0.0000
G1 X101.2000 Y101.2000 E0.6322 F4800 ; custom feedrate
G1 X105.7390 Y101.2000 E0.7952
G1 X105.7400 Y103.0940 E0.8633
G1 X113.3530 Y103.0940 E1.1368
G1 X113.3540 Y101.2000 E1.2048
G1 X118.8000 Y101.2000 E1.4004
G1 X118.8000 Y107.5930 E1.6301
G1 X116.8600 Y107.5920 E1.6997
G1 X116.8580 Y111.6730 E1.8463
G1 X118.8000 Y111.6730 E1.9161
G1 X118.8000 Y118.8000 E2.1721
G1 X101.2000 Y118.8000 E2.8043
G1 X100.7200 Y119.2800 F10000 ; custom feedrate
G92 E0.0000
G1 X100.7200 Y100.7200 E0.6667 F4800 ; custom feedrate
G1 X106.2190 Y100.7200 E0.8642
G1 X106.2200 Y102.6140 E0.9323
G1 X112.8740 Y102.6140 E1.1713
G1 X112.8750 Y100.7200 E1.2393
G1 X119.2800 Y100.7200 E1.4694
G1 X119.2800 Y108.0730 E1.7335
G1 X117.3400 Y108.0720 E1.8032
G1 X117.3390 Y111.1930 E1.9153
G1 X119.2800 Y111.1940 E1.9850
G1 X119.2800 Y119.2800 E2.2755
G1 X100.7200 Y119.2800 E2.9422
G1 X100.2400 Y119.7600 F10000 ; custom feedrate
G92 E0.0000
G1 X100.2400 Y100.2400 E0.7012 F3600 ; custom feedrate
G1 X106.6980 Y100.2400 E0.9332
G1 X106.6990 Y102.1340 E1.0012
G1 X108.9200 Y102.1340 E1.0810
G1 X108.9190 Y100.2400 E1.1490
G1 X110.2120 Y100.2400 E1.1955
G1 X110.2110 Y102.1340 E1.2635
G1 X112.3940 Y102.1340 E1.3419
G1 X112.3950 Y100.2400 E1.4100
G1 X119.7600 Y100.2400 E1.6745
G1 X119.7600 Y108.5530 E1.9731
G1 X117.8200 Y108.5520 E2.0428
G1 X117.8190 Y110.7130 E2.1204
G1 X119.7600 Y110.7140 E2.1902
G1 X119.7600 Y119.7600 E2.5151
G1 X100.2400 Y119.7600 E3.2163
G1 X109.5330 Y102.3210 F10000 ; custom feedrate
G92 E0.0000
G1 X109.9230 Y101.9310 E0.0198 F6000 ; custom feedrate
G1 X109.9240 Y101.2520 E0.0442
G1 X109.2070 Y101.9680 E0.0806
G1 X109.2070 Y101.2890 E0.1050
G1 X109.9240 Y100.5720 E0.1414
G1 X109.9240 Y100.5280 E0.1430
G1 X109.2900 Y100.5280 E0.1658
G1 X109.2070 Y100.6110 E0.1700
G1 X108.9190 Y100.8030 F10000 ; custom feedrate
G1 X108.9200 Y102.1340
G1 X106.9250 Y102.1340
G1 X101.5480 Y105.7240
G92 E0.0000
G1 X105.3910 Y101.8810 E0.2440 F6000 ; custom feedrate
G1 X105.3920 Y103.4420 E0.3141
G1 X108.0730 Y103.4420 E0.4345
G1 X101.5480 Y109.9670 E0.8488
G1 X101.5480 Y114.2090 E1.0393
G1 X112.3150 Y103.4420 E1.7230
G1 X113.7010 Y103.4420 E1.7853
G1 X113.7020 Y102.0560 E1.8475
G1 X114.2090 Y101.5480 E1.8798
G1 X118.4520 Y101.5480 E2.0703
G1 X101.5480 Y118.4520 E3.1437
G1 X105.7910 Y118.4520 E3.3342
G1 X116.5120 Y107.7300 E4.0150
G1 X116.5100 Y111.9750 E4.2056
G1 X110.0330 Y118.4520 E4.6168
G1 X114.2760 Y118.4520 E4.8073
G1 X118.4520 Y114.2760 E5.0725
G92 E0.0000
G1 E-2 F2700 ; custom retraction
;layer 37, Z = 7.400
;fan37;
G1 Z7.400 F1200
G1 X118.8000 Y111.6710 F10000 ; custom feedrate
G1 E0 F2700 ; custom un-retraction/prime
G92 E0.0000
G1 X118.8000 Y118.8000 E0.2561 F4800 ; custom feedrate
G1 X101.2000 Y118.8000 E0.8883
G1 X101.2000 Y101.2000 E1.5205
G1 X105.8500 Y101.2000 E1.6875
G1 X105.8510 Y103.0940 E1.7556
G1 X113.2270 Y103.0940 E2.0205
G1 X113.2280 Y101.2000 E2.0886
G1 X118.8000 Y101.2000 E2.2887
G1 X118.8000 Y107.5910 E2.5183
G1 X116.8610 Y107.5900 E2.5879
G1 X116.8590 Y111.6700 E2.7345
G1 X118.8000 Y111.6710 E2.8043
G1 X119.2800 Y111.1910 F10000 ; custom feedrate
G92 E0.0000
G1 X119.2800 Y119.2800 E0.2905 F4800 ; custom feedrate
G1 X100.7200 Y119.2800 E0.9572
G1 X100.7200 Y100.7200 E1.6239
G1 X106.3300 Y100.7200 E1.8254
G1 X106.3310 Y102.6140 E1.8935
G1 X112.7470 Y102.6140 E2.1240
G1 X112.7480 Y100.7200 E2.1920
G1 X119.2800 Y100.7200 E2.4267
G1 X119.2800 Y108.0710 E2.6907
G1 X117.3400 Y108.0700 E2.7604
G1 X117.3390 Y111.1910 E2.8725
G1 X119.2800 Y111.1910 E2.9422
G1 X119.7600 Y110.7120 F10000 ; custom feedrate
G92 E0.0000
G1 X119.7600 Y119.7600 E0.3250 F3600 ; custom feedrate
G1 X100.2400 Y119.7600 E1.0262
G1 X100.2400 Y100.2400 E1.7274
G1 X106.8090 Y100.2400 E1.9634
G1 X106.8100 Y102.1340 E2.0314
G1 X109.0380 Y102.1340 E2.1114
G1 X109.0370 Y100.2400 E2.1795
G1 X110.0900 Y100.2400 E2.2173
G1 X110.0890 Y102.1340 E2.2854
G1 X112.2670 Y102.1340 E2.3636
G1 X112.2680 Y100.2400 E2.4316
G1 X119.7600 Y100.2400 E2.7007
G1 X119.7600 Y108.5510 E2.9993
G1 X117.8200 Y108.5500 E3.0690
G1 X117.8190 Y110.7110 E3.1466
G1 X119.7600 Y110.7120 E3.2163
G92 E0.0000
G1 E-2 F2700 ; custom retraction
;zhop1
G1 X117.8190 Y110.7110 F10000 ; custom feedrate
G1 X117.8200 Y109.0790
G1 X109.7890 Y102.3220
G1 Z7.400 F1200
G1 E0 F2700 ; custom un-retraction/prime
G92 E0.0000
G1 X109.3260 Y101.8590 E0.0235 F6000 ; custom feedrate
G1 X109.3260 Y101.1800 E0.0479
G1 X109.8020 Y101.6560 E0.0721
G1 X109.8020 Y100.9770 E0.0965
G1 X109.3530 Y100.5280 E0.1193
G1 X110.0900 Y100.6810 F10000 ; custom feedrate
G1 X110.0890 Y102.1340
G1 X112.2670 Y102.1340
G1 X112.2680 Y101.1320
G1 X114.2760 Y101.5480
G92 E0.0000
G1 X118.4520 Y105.7240 E0.2652 F6000 ; custom feedrate
G1 X118.4520 Y107.2420 E0.3334
G1 X116.5130 Y107.2420 E0.4204
G1 X116.5120 Y108.0270 E0.4557
G1 X111.9280 Y103.4420 E0.7468
G1 X107.6850 Y103.4420 E0.9373
G1 X118.4520 Y114.2090 E1.6210
G1 X118.4520 Y118.4520 E1.8115
G1 X101.5480 Y101.5480 E2.8849
G1 X101.5480 Y105.7910 E3.0754
G1 X114.2090 Y118.4520 E3.8794
G1 X109.9670 Y118.4520 E4.0699
G1 X101.5480 Y110.0330 E4.6045
G1 X101.5480 Y114.2760 E4.7950
G1 X105.7240 Y118.4520 E5.0602
G92 E0.0000
G1 E-2 F2700 ; custom retraction
;layer 38, Z = 7.600
;fan38;
G1 Z7.600 F1200
G1 X101.2000 Y118.8000 F10000 ; custom feedrate
G1 E0 F2700 ; custom un-retraction/prime
G92 E0.0000
G1 X101.2000 Y101.2000 E0.6322 F4800 ; custom feedrate
G1 X105.9610 Y101.2000 E0.8032
G1 X105.9620 Y103.0950 E0.8713
G1 X113.1000 Y103.0950 E1.1277
G1 X113.1010 Y101.2000 E1.1958
G1 X118.8000 Y101.2000 E1.4005
G1 X118.8000 Y107.5880 E1.6299
G1 X116.8610 Y107.5870 E1.6996
G1 X116.8590 Y111.6680 E1.8462
G1 X118.8000 Y111.6690 E1.9159
G1 X118.8000 Y118.8000 E2.1720
G1 X101.2000 Y118.8000 E2.8042
G1 X100.7200 Y119.2800 F10000 ; custom feedrate
G92 E0.0000
G1 X100.7200 Y100.7200 E0.6667 F4800 ; custom feedrate
G1 X106.4410 Y100.7200 E0.8722
G1 X106.4420 Y102.6150 E0.9402
G1 X112.6210 Y102.6150 E1.1622
G1 X112.6220 Y100.7200 E1.2302
G1 X119.2800 Y100.7200 E1.4694
G1 X119.2800 Y108.0690 E1.7334
G1 X117.3410 Y108.0680 E1.8031
G1 X117.3390 Y111.1880 E1.9152
G1 X119.2800 Y111.1890 E1.9849
G1 X119.2800 Y119.2800 E2.2755
G1 X100.7200 Y119.2800 E2.9422
G1 X100.2400 Y119.7600 F10000 ; custom feedrate
G92 E0.0000
G1 X100.2400 Y100.2400 E0.7012 F3600 ; custom feedrate
G1 X106.9200 Y100.2400 E0.9411
G1 X106.9210 Y102.1350 E1.0092
G1 X109.1570 Y102.1350 E1.0895
G1 X109.1560 Y100.2400 E1.1575
G1 X109.9690 Y100.2400 E1.1867
G1 X109.9680 Y102.1350 E1.2548
G1 X112.1410 Y102.1350 E1.3329
G1 X112.1420 Y100.2400 E1.4009
G1 X119.7600 Y100.2400 E1.6746
G1 X119.7600 Y108.5490 E1.9730
G1 X117.8200 Y108.5480 E2.0427
G1 X117.8200 Y110.7090 E2.1203
G1 X119.7600 Y110.7100 E2.1900
G1 X119.7600 Y119.7600 E2.5151
G1 X100.2400 Y119.7600 E3.2163
G1 X109.6800 Y102.1750 F10000 ; custom feedrate
G92 E0.0000
G1 X109.5320 Y102.3220 E0.0075 F6000 ; custom feedrate
G1 X109.4450 Y102.3220 E0.0106
G1 X109.4440 Y101.7310 E0.0318
G1 X109.6800 Y101.4950 E0.0438
G1 X109.6800 Y100.8160 E0.0682
G1 X109.4440 Y101.0530 E0.0802
G1 X109.1560 Y101.2230 F10000 ; custom feedrate
G1 X109.1570 Y102.1350
G1 X107.6150 Y102.1350
G1 X101.5480 Y105.7240
G92 E0.0000
G1 X105.6130 Y101.6590 E0.2581 F6000 ; custom feedrate
G1 X105.6140 Y103.4430 E0.3382
G1 X108.0720 Y103.4430 E0.4486
G1 X101.5480 Y109.9670 E0.8629
G1 X101.5480 Y114.2090 E1.0534
G1 X112.3150 Y103.4430 E1.7371
G1 X113.4480 Y103.4430 E1.7880
G1 X113.4490 Y102.3090 E1.8389
G1 X114.2090 Y101.5480 E1.8872
G1 X118.4520 Y101.5480 E2.0777
G1 X101.5480 Y118.4520 E3.1511
G1 X105.7910 Y118.4520 E3.3416
G1 X116.5130 Y107.7300 E4.0224
G1 X116.5110 Y111.9740 E4.2130
G1 X110.0330 Y118.4520 E4.6243
G1 X114.2760 Y118.4520 E4.8148
G1 X118.4520 Y114.2760 E5.0800
G92 E0.0000
G1 E-2 F2700 ; custom retraction
;layer 39, Z = 7.800
;fan39;
G1 Z7.800 F1200
G1 X118.8000 Y111.6670 F10000 ; custom feedrate
G1 E0 F2700 ; custom un-retraction/prime
G92 E0.0000
G1 X118.8000 Y118.8000 E0.2562 F4800 ; custom feedrate
G1 X101.2000 Y118.8000 E0.8884
G1 X101.2000 Y101.2000 E1.5206
G1 X106.0720 Y101.2000 E1.6956
G1 X106.0730 Y103.0950 E1.7637
G1 X112.9740 Y103.0950 E2.0116
G1 X112.9750 Y101.2000 E2.0797
G1 X118.8000 Y101.2000 E2.2889
G1 X118.8000 Y107.5860 E2.5183
G1 X116.8610 Y107.5850 E2.5879
G1 X116.8590 Y111.6660 E2.7345
G1 X118.8000 Y111.6670 E2.8042
G1 X119.2800 Y111.1870 F10000 ; custom feedrate
G92 E0.0000
G1 X119.2800 Y119.2800 E0.2907 F4800 ; custom feedrate
G1 X100.7200 Y119.2800 E0.9574
G1 X100.7200 Y100.7200 E1.6241
G1 X106.5520 Y100.7200 E1.8336
G1 X106.5530 Y102.6150 E1.9016
G1 X112.4940 Y102.6150 E2.1151
G1 X112.4950 Y100.7200 E2.1831
G1 X119.2800 Y100.7200 E2.4268
G1 X119.2800 Y108.0660 E2.6907
G1 X117.3410 Y108.0660 E2.7604
G1 X117.3400 Y111.1860 E2.8725
G1 X119.2800 Y111.1870 E2.9422
G1 X119.7600 Y110.7070 F10000 ; custom feedrate
G92 E0.0000
G1 X119.7600 Y119.7600 E0.3252 F3600 ; custom feedrate
G1 X100.2400 Y119.7600 E1.0264
G1 X100.2400 Y100.2400 E1.7275
G1 X107.0320 Y100.2400 E1.9715
G1 X107.0320 Y102.1350 E2.0395
G1 X109.2750 Y102.1350 E2.1201
G1 X109.2740 Y100.2400 E2.1882
G1 X109.8470 Y100.2400 E2.2087
G1 X109.8460 Y102.1350 E2.2768
G1 X112.0140 Y102.1350 E2.3547
G1 X112.0150 Y100.2400 E2.4228
G1 X119.7600 Y100.2400 E2.7009
G1 X119.7600 Y108.5470 E2.9993
G1 X117.8210 Y108.5460 E3.0690
G1 X117.8200 Y110.7070 E3.1466
G1 X119.7600 Y110.7070 E3.2163
G92 E0.0000
G1 E-2 F2700 ; custom retraction
;zhop1
G1 X117.8200 Y110.7070 F10000 ; custom feedrate
G1 X117.8210 Y108.5460
G1 X118.4660 Y108.5460
G1 X114.2760 Y101.5480
G1 Z7.800 F1200
G1 E0 F2700 ; custom un-retraction/prime
G92 E0.0000
G1 X118.4520 Y105.7240 E0.2652 F6000 ; custom feedrate
G1 X118.4520 Y107.2380 E0.3332
G1 X116.5130 Y107.2370 E0.4202
G1 X116.5130 Y108.0280 E0.4557
G1 X111.9280 Y103.4430 E0.7468
G1 X107.6850 Y103.4430 E0.9373
G1 X118.4520 Y114.2090 E1.6210
G1 X118.4520 Y118.4520 E1.8115
G1 X101.5480 Y101.5480 E2.8849
G1 X101.5480 Y105.7910 E3.0754
G1 X114.2090 Y118.4520 E3.8794
G1 X109.9670 Y118.4520 E4.0699
G1 X101.5480 Y110.0330 E4.6045
G1 X101.5480 Y114.2760 E4.7950
G1 X105.7240 Y118.4520 E5.0602
G92 E0.0000
G1 E-2 F2700 ; custom retraction
;layer 40, Z = 8.000
;fan40;
G1 Z8.000 F1200
G1 X101.2000 Y118.8000 F10000 ; custom feedrate
G1 E0 F2700 ; custom un-retraction/prime
G92 E0.0000
G1 X101.2000 Y101.2000 E0.6322 F4800 ; custom feedrate
G1 X106.1830 Y101.2000 E0.8112
G1 X106.1840 Y103.0950 E0.8793
G1 X112.8470 Y103.0950 E1.1186
G1 X112.8480 Y101.2000 E1.1867
G1 X118.8000 Y101.2000 E1.4005
G1 X118.8000 Y107.5840 E1.6298
G1 X116.8620 Y107.5830 E1.6994
G1 X116.8600 Y111.6640 E1.8460
G1 X118.8000 Y111.6650 E1.9157
G1 X118.8000 Y118.8000 E2.1720
G1 X101.2000 Y118.8000 E2.8042
G1 X100.7200 Y119.2800 F10000 ; custom feedrate
G92 E0.0000
G1 X100.7200 Y100.7200 E0.6667 F4800 ; custom feedrate
G1 X106.6630 Y100.7200 E0.8802
G1 X106.6640 Y102.6150 E0.9482
G1 X112.3680 Y102.6150 E1.1531
G1 X112.3690 Y100.7200 E1.2212
G1 X119.2800 Y100.7200 E1.4694
G1 X119.2800 Y108.0640 E1.7333
G1 X117.3410 Y108.0630 E1.8029
G1 X117.3400 Y111.1840 E1.9150
G1 X119.2800 Y111.1850 E1.9847
G1 X119.2800 Y119.2800 E2.2755
G1 X100.7200 Y119.2800 E2.9422
G1 X100.2400 Y119.7600 F10000 ; custom feedrate
G92 E0.0000
G1 X100.2400 Y100.2400 E0.7012 F3600 ; custom feedrate
G1 X107.1430 Y100.2400 E0.9491
G1 X107.1430 Y102.1350 E1.0172
G1 X109.3940 Y102.1350 E1.0980
G1 X109.3930 Y100.2400 E1.1661
G1 X109.7250 Y100.2400 E1.1780
G1 X109.7240 Y102.1350 E1.2461
G1 X111.8880 Y102.1350 E1.3238
G1 X111.8890 Y100.2400 E1.3919
G1 X119.7600 Y100.2400 E1.6746
G1 X119.7600 Y108.5440 E1.9729
G1 X117.8210 Y108.5440 E2.0426
G1 X117.8200 Y110.7040 E2.1202
G1 X119.7600 Y110.7050 E2.1899
G1 X119.7600 Y119.7600 E2.5151
G1 X100.2400 Y119.7600 E3.2163
G1 X101.5480 Y105.7240 F10000 ; custom feedrate
G92 E0.0000
G1 X105.7240 Y101.5480 E0.2652 F6000 ; custom feedrate
G1 X105.8350 Y101.5480 E0.2702
G1 X105.8360 Y103.4430 E0.3552
G1 X108.0720 Y103.4430 E0.4556
G1 X101.5480 Y109.9670 E0.8699
G1 X101.5480 Y114.2090 E1.0604
G1 X112.3150 Y103.4430 E1.7441
G1 X113.1950 Y103.4430 E1.7836
G1 X113.1960 Y102.5620 E1.8232
G1 X114.2090 Y101.5480 E1.8876
G1 X118.4520 Y101.5480 E2.0781
G1 X101.5480 Y118.4520 E3.1515
G1 X105.7910 Y118.4520 E3.3420
G1 X116.5130 Y107.7290 E4.0229
G1 X116.5120 Y111.9740 E4.2134
G1 X110.0330 Y118.4520 E4.6248
G1 X114.2760 Y118.4520 E4.8153
G1 X118.4520 Y114.2760 E5.0805
G92 E0.0000
G1 E-2 F2700 ; custom retraction
;layer 41, Z = 8.200
;fan41;
G1 Z8.200 F1200
G1 X118.8000 Y111.6630 F10000 ; custom feedrate
G1 E0 F2700 ; custom un-retraction/prime
G92 E0.0000
G1 X118.8000 Y118.8000 E0.2564 F4800 ; custom feedrate
G1 X101.2000 Y118.8000 E0.8886
G1 X101.2000 Y101.2000 E1.5208
G1 X106.2940 Y101.2000 E1.7038
G1 X106.2950 Y103.0950 E1.7718
G1 X112.7210 Y103.0950 E2.0027
G1 X112.7220 Y101.2000 E2.0708
G1 X118.8000 Y101.2000 E2.2891
G1 X118.8000 Y107.5820 E2.5183
G1 X116.8620 Y107.5810 E2.5879
G1 X116.8600 Y111.6620 E2.7345
G1 X118.8000 Y111.6630 E2.8042
G1 X119.2800 Y111.1830 F10000 ; custom feedrate
G92 E0.0000
G1 X119.2800 Y119.2800 E0.2909 F4800 ; custom feedrate
G1 X100.7200 Y119.2800 E0.9576
G1 X100.7200 Y100.7200 E1.6242
G1 X106.7740 Y100.7200 E1.8417
G1 X106.7750 Y102.6150 E1.9098
G1 X112.2410 Y102.6150 E2.1061
