;FLAVOR:Marlin
;TIME:1325.86
;Filament used:0.817449m
;Layer Height:0.2
;MINX:94.357
;MINY:94.357
;MINZ:0.2
;MAXX:125.643
;MAXY:124.778
;MAXZ:27.2
;OuterWall Time:1069.05
;InnerWall Time:0
;Skin Time:215.412
;Support Time:0
;SkirtBrim Time:0
;Infill Time:0
;Support Infills Time:0
;Combing Time:10.4095
;Retraction Time:30.9916
;PrimeTower Time:0

;
;
;
;
;;;;;;;;;;;;;;;;;;;;;;;;;;;;;;;;;;;;;;;;;;;;;;;;;;;;;;;;;;;;;;;;;;;;;;;;;;
;Creality Print GCode Generated by CXEngine
;CRSLICE_GIT_HASH:6b8d75d
;Creality Print Version : V4.3.7.6619
;CXEngine Release Time:2023-09-20 15:19:09
;Gcode Generated Time:2023-12-28 21:56:19
;----------Machine Config--------------
;Machine Name:Ender-3 V3 SE
;Machine Height:250
;Machine Width:220
;Machine Depth:220
;Material Type:PLA
;Material Name:CR-PLA_1.75
;Number of Extruders:1
;ExtruderParams[0] Nozzle Diameter:1000
;----------Profile Config---------------
;Wall Thickness:0.8
;Top/Bottom Thickness:0.8
;Out Wall Line Width:0.4
;Inner Wall Line Width:0.4
;Inital Height:200
;Wall Line Count:1
;Infill Line Distance:0
;Infill Pattern:grid
;Infill Sparse Density:0
;Infill Wipe Distance:0.1
;Print Temperature:205
;Bed Temperature:60
;Support Enable:false
;Support Density:15
;Support Angle:60
;Adhesion Type:autobrim
;machine is belt:false
;machine belt offset:10
;machine belt offset Y:0
;Raft Base Line Spacing:1.6
;Wait Heatup Sync:true
;Enable Ironing:false
;Material Type:PLA
;Max volumetric speed:20
;Material Diameter:1.75
;Material Density:1.24
;Filament Cost:0.3
;Filament Weight:0
;Preview Img Type:png
;Screen Size:Sermoon D3
;----------Shell Config----------------
;Outer Wall Wipe Distance:200
;Outer Inset First:false
;Infill Before Walls:false
;Infill Overlap:0.13
;Fill Gaps Between Walls:everywhere
;Minimum Infill Area:15
;Top Surface Skin Layer:0
;Top Layers:0
;Z Seam Alignment:sharpest_corner
;Seam Corner Preference:z_seam_corner_inner
;Z Seam X:110
;Z Seam Y:220
;Horizontal Expansion:0
;Top/Bottom Pattern:zigzag
;Ironing Pattern:zigzag
;Vase Model:false
;----------Support Config----------------
;Support Type:everywhere
;Support Pattern:zigzag
;Support Infill Layer Thickness:0.15
;Minimum Support Area:1
;Enable Support Roof:true
;Support Roof Thickness:0.8
;Support Roof Pattern:lines
;Connect Support Lines:0
;Connect Support ZigZags:1
;Minimum Support X/Y Distance:0.2
;Support Line Distance:2.67
; ---------PrintSpeed & Travel----------
;Enable Print Cool:true
;Avoid Printed Parts Traveling:true
;Enable Retraction:true
;Retraction Distance:0.8
;Retraction Speed:40
;Retraction Prime Speed:40
;Maximum Retraction Count:100
;Minimum Extrusion Distance Window:0.8
;Z Hop When Retracted:false
;Z Hop Height:0.2
;Retract Before Outer Wall:true

;Outer Wall Speed:60
;Inner Wall Speed:90
;Infill Speed:180
;Top/Bottom Speed:50
;Travel Speed:150
;Initial Layer Speed:30
;Skirt/Brim Speed:25
;Prime Tower Speed:60
;Outer Wall Acceleration:1000
;Inner Wall Acceleration:2000
;Infill Acceleration:2500
;Top/Bottom Acceleration:2500
;Travel Acceleration:2500
;Initial Layer Print Acceleration:500
;Initial Layer Travel Acceleration:500
;Skirt/Brim Acceleration:500
;Combing Mode:noskin
; --------SpecialModel&Mesh Fixes--------
;Union Overlapping Volum:true
;Remove All Holes:false
;Maximum Travel Resolution:0.25
;Maximum Deviation:0.05
;Maximum Model Angle:0.872665
;IS Mold Print:false
;Make Overhang Printable:false
;Enable Coasting:false
;Coasting Volumes:0.064
;Coasting Speed:0.9
;Raft AirGap:0.25
;Layer0 ZOverLap:0.13
;Adaptive Layers:0
;---------------------End of Head--------------------------
M140 S60
M105
M190 S60
M104 S205
M82 ;absolute extrusion mode
M220 S100 ;Reset Feedrate
M221 S100 ;Reset Flowrate

G28 ;Home

G92 E0 ;Reset Extruder
G1 Z2.0 F3000 ;Move Z Axis up
G1 X10.1 Y20 Z0.28 F5000.0 ;Move to start position
M109 S205.000000
G1 X10.1 Y145.0 Z0.28 F1500.0 E15 ;Draw the first line
G1 X10.4 Y145.0 Z0.28 F5000.0 ;Move to side a little
G1 X10.4 Y20 Z0.28 F1500.0 E30 ;Draw the second line
G92 E0  ;Reset Extruder
G1 E-1.0000 F1800 ;Retract a bit
G1 Z2.0 F3000 ;Move Z Axis up
G1 E0.0000 F1800 

G92 E0
G92 E0
G1 F2400 E-0.8
;LAYER_COUNT:136

;LAYER:0
M106 S0
M204 S500
;MESH:0_0
G0 F4800 X95.242 Y95.242 Z0.2
;TYPE:WALL-OUTER
G1 F2400 E0
G1 F1800 X124.758 Y95.242 E1.07988
G1 X124.758 Y110 E1.61982
G1 X124.758 Y124.758 E2.15975
G1 X95.242 Y124.758 E3.23963
G1 X95.242 Y95.242 E4.31951
G0 F4800 X95.442 Y95.242
;;retract;;
G1 F2400 E3.75951
G1 X97.228 Y96.141 E3.53151
G1 F2400 E3.51951
G0 F4800 X95.682 Y95.682
;TYPE:SKIN
G1 F2400 E4.31951
G1 F1800 X95.682 Y124.318 E5.36719
G1 X124.318 Y124.318 E6.41487
G1 X124.318 Y110 E6.93871
G1 X124.318 Y95.682 E7.46255
G1 X95.682 Y95.682 E8.51023
G0 F4800 X95.362 Y95.682
G0 X118.643 Y95.42
G0 X123.877 Y95.362
G0 X123.877 Y96.121
G1 F1800 X123.501 Y96.121 E8.52399
G1 X123.877 Y96.498 E8.54347
G1 X123.877 Y97.12 E8.56622
G1 X122.878 Y96.121 E8.61791
G1 X122.256 Y96.121 E8.64067
G1 X123.877 Y97.742 E8.72454
G1 X123.877 Y98.364 E8.7473
G1 X121.634 Y96.121 E8.86335
G1 X121.012 Y96.121 E8.88611
G1 X123.877 Y98.987 E9.03437
G1 X123.877 Y99.609 E9.05713
G1 X120.389 Y96.121 E9.2376
G1 X119.767 Y96.121 E9.26036
G1 X123.877 Y100.231 E9.47301
G1 X123.877 Y100.853 E9.49577
G1 X119.145 Y96.121 E9.7406
G1 X118.523 Y96.121 E9.76336
G1 X123.877 Y101.476 E10.0404
G1 X123.877 Y102.098 E10.06316
G1 X117.9 Y96.121 E10.37242
G1 X117.278 Y96.121 E10.39517
G1 X123.877 Y102.72 E10.73661
G1 X123.877 Y103.342 E10.75936
G1 X116.656 Y96.121 E11.13298
G1 X116.034 Y96.121 E11.15574
G1 X123.877 Y103.965 E11.56157
G1 X123.877 Y104.587 E11.58432
G1 X115.411 Y96.121 E12.02236
G1 X114.789 Y96.121 E12.04512
G1 X123.877 Y105.209 E12.51534
G1 X123.877 Y105.831 E12.53809
G1 X114.167 Y96.121 E13.04049
G1 X113.545 Y96.121 E13.06325
G1 X123.877 Y106.454 E13.59786
G1 X123.877 Y107.076 E13.62062
G1 X112.922 Y96.121 E14.18744
G1 X112.3 Y96.121 E14.21019
G1 X123.877 Y107.698 E14.80919
G1 X123.877 Y108.32 E14.83195
G1 X111.678 Y96.121 E15.46313
G1 X111.056 Y96.121 E15.48589
G1 X123.877 Y108.943 E16.14928
G1 X123.877 Y109.565 E16.17204
G1 X110.433 Y96.121 E16.86764
G1 X109.811 Y96.121 E16.8904
G1 X123.877 Y110.187 E17.61818
G1 X123.877 Y110.809 E17.64094
G1 X109.189 Y96.121 E18.4009
G1 X108.567 Y96.121 E18.42366
G1 X123.877 Y111.432 E19.21584
G1 X123.877 Y112.054 E19.23859
G1 X107.944 Y96.121 E20.06298
G1 X107.322 Y96.121 E20.08573
G1 X123.877 Y112.676 E20.9423
G1 X123.877 Y113.299 E20.96509
G1 X106.7 Y96.121 E21.85387
G1 X106.078 Y96.121 E21.87662
G1 X123.877 Y113.921 E22.79758
G1 X123.877 Y114.543 E22.82034
G1 X105.455 Y96.121 E23.7735
G1 X104.833 Y96.121 E23.79626
G1 X123.877 Y115.165 E24.78161
G1 X123.877 Y115.788 E24.8044
G1 X104.211 Y96.121 E25.82196
G1 X103.589 Y96.121 E25.84471
G1 X123.877 Y116.41 E26.89445
G1 X123.877 Y117.032 E26.91721
G1 X102.966 Y96.121 E27.99916
G1 X102.344 Y96.121 E28.02192
G1 X123.877 Y117.654 E29.13605
G1 X123.877 Y118.277 E29.15884
G1 X101.722 Y96.121 E30.30518
G1 X101.1 Y96.121 E30.32794
G1 X123.877 Y118.899 E31.50646
G1 X123.877 Y119.521 E31.52921
G1 X100.477 Y96.121 E32.73994
G1 X99.855 Y96.121 E32.7627
G1 X123.877 Y120.143 E34.00561
G1 X123.877 Y120.766 E34.02841
G1 X99.233 Y96.121 E35.30353
G1 X98.61 Y96.121 E35.32632
G1 X123.877 Y121.388 E36.63365
G1 X123.877 Y122.01 E36.65641
G1 X97.988 Y96.121 E37.99592
G1 X97.366 Y96.121 E38.01868
G1 X123.877 Y122.632 E39.39038
G1 X123.877 Y123.255 E39.41317
G1 X96.744 Y96.121 E40.81707
G1 X96.121 Y96.121 E40.83987
G1 X123.877 Y123.877 E42.27598
G1 X123.255 Y123.877 E42.29874
G1 X96.121 Y96.744 E43.70264
G1 X96.121 Y97.366 E43.7254
G1 X122.632 Y123.877 E45.09709
G1 X122.01 Y123.877 E45.11985
G1 X96.121 Y97.988 E46.45936
G1 X96.121 Y98.61 E46.48212
G1 X121.388 Y123.877 E47.78945
G1 X120.766 Y123.877 E47.81221
G1 X96.121 Y99.233 E49.08733
G1 X96.121 Y99.855 E49.11008
G1 X120.143 Y123.877 E50.353
G1 X119.521 Y123.877 E50.37575
G1 X96.121 Y100.477 E51.58648
G1 X96.121 Y101.1 E51.60928
G1 X118.899 Y123.877 E52.7878
G1 X118.277 Y123.877 E52.81056
G1 X96.121 Y101.722 E53.9569
G1 X96.121 Y102.344 E53.97965
G1 X117.654 Y123.877 E55.09378
G1 X117.032 Y123.877 E55.11654
G1 X96.121 Y102.966 E56.19849
G1 X96.121 Y103.589 E56.22128
G1 X116.41 Y123.877 E57.27102
G1 X115.788 Y123.877 E57.29378
G1 X96.121 Y104.211 E58.31134
G1 X96.121 Y104.833 E58.33409
G1 X115.165 Y123.877 E59.31944
G1 X114.543 Y123.877 E59.3422
G1 X96.121 Y105.455 E60.29536
G1 X96.121 Y106.078 E60.31816
G1 X113.921 Y123.877 E61.23911
G1 X113.299 Y123.877 E61.26187
G1 X96.121 Y106.7 E62.15064
G1 X96.121 Y107.322 E62.1734
G1 X112.676 Y123.877 E63.02997
G1 X112.054 Y123.877 E63.05272
G1 X96.121 Y107.944 E63.87711
G1 X96.121 Y108.567 E63.8999
G1 X111.432 Y123.877 E64.69207
G1 X110.809 Y123.877 E64.71487
G1 X96.121 Y109.189 E65.47483
G1 X96.121 Y109.811 E65.49759
G1 X110.187 Y123.877 E66.22537
G1 X109.565 Y123.877 E66.24813
G1 X96.121 Y110.433 E66.94373
G1 X96.121 Y111.056 E66.96653
G1 X108.943 Y123.877 E67.62992
G1 X108.32 Y123.877 E67.65271
G1 X96.121 Y111.678 E68.2839
G1 X96.121 Y112.3 E68.30665
G1 X107.698 Y123.877 E68.90565
G1 X107.076 Y123.877 E68.92841
G1 X96.121 Y112.922 E69.49523
G1 X96.121 Y113.545 E69.51802
G1 X106.454 Y123.877 E70.05263
G1 X105.831 Y123.877 E70.07542
G1 X96.121 Y114.167 E70.57783
G1 X96.121 Y114.789 E70.60058
G1 X105.209 Y123.877 E71.0708
G1 X104.587 Y123.877 E71.09356
G1 X96.121 Y115.411 E71.53159
G1 X96.121 Y116.034 E71.55439
G1 X103.965 Y123.877 E71.96021
G1 X103.342 Y123.877 E71.98301
G1 X96.121 Y116.656 E72.35663
G1 X96.121 Y117.278 E72.37938
G1 X102.72 Y123.877 E72.72082
G1 X102.098 Y123.877 E72.74358
G1 X96.121 Y117.9 E73.05283
G1 X96.121 Y118.523 E73.07562
G1 X101.476 Y123.877 E73.35267
G1 X100.853 Y123.877 E73.37546
G1 X96.121 Y119.145 E73.6203
G1 X96.121 Y119.767 E73.64306
G1 X100.231 Y123.877 E73.85571
G1 X99.609 Y123.877 E73.87847
G1 X96.121 Y120.389 E74.05894
G1 X96.121 Y121.012 E74.08173
G1 X98.987 Y123.877 E74.22999
G1 X98.364 Y123.877 E74.25279
G1 X96.121 Y121.634 E74.36884
G1 X96.121 Y122.256 E74.3916
G1 X97.742 Y123.877 E74.47547
G1 X97.12 Y123.877 E74.49823
G1 X96.121 Y122.878 E74.54991
G1 X96.121 Y123.501 E74.57271
G1 X96.498 Y123.877 E74.59219
G1 X96.121 Y123.877 E74.60598
;;retract;;
G1 F2400 E74.04598
G1 X96.498 Y123.877
G1 X96.121 Y123.501
G1 X96.121 Y122.878
G1 X96.452 Y123.209
G1 X96.121 Y122.878 E73.99263
G1 X96.121 Y123.501 E73.92161
G1 X96.498 Y123.877 E73.86096
G1 X96.121 Y123.877 E73.81798
G1 F2400 E73.80598
;MESH:NONMESH
G0 F600 X96.121 Y123.877 Z0.4
G0 F4800 X95.362 Y123.877
G0 X95.492 Y95.492
G1 F2400 E74.60598
G0 F4800 X95.242 Y95.222
;TIME_ELAPSED:77.642042

;LAYER:1
M106 S127.5
M204 S750
;TYPE:WALL-OUTER
;MESH:0_0
G1 F2700 X95.642 Y95.222 E74.61928
G1 X124.377 Y95.222 E75.57501
G1 X124.778 Y95.222 E75.58835
G1 X124.778 Y95.622 E75.60166
G1 X124.778 Y109.599 E76.06653
G1 X124.778 Y110 E76.07987
G1 X124.778 Y110.4 E76.09317
G1 X124.778 Y124.377 E76.55805
G1 X124.778 Y124.778 E76.57139
G1 X124.377 Y124.778 E76.58473
G1 X95.622 Y124.778 E77.54112
G1 X95.222 Y124.778 E77.55442
G1 X95.222 Y124.377 E77.56776
G1 X95.222 Y95.622 E78.52416
G1 X95.222 Y95.222 E78.53746
G1 X95.242 Y95.222 E78.53813
M204 S1500
G0 F6900 X95.442 Y95.222
;;retract;;
G1 F2400 E77.97813
G1 F3450 X97.442 Y95.222 E77.75013
G1 F2400 E77.73813
G0 F6900 X95.622 Y95.622
;TYPE:SKIN
G1 F2400 E78.53813
G1 X95.622 Y124.378 E79.49456
G1 X124.378 Y124.378 E80.45098
G1 X124.378 Y110 E80.9292
G1 X124.378 Y95.622 E81.40741
G1 X95.622 Y95.622 E82.36384
G1 X96.021 Y96.021
G1 X96.022 Y96.31 E82.37345
G1 X96.311 Y96.021 E82.38705
G1 X96.877 Y96.021 E82.40587
G1 X96.022 Y96.876 E82.44609
G1 X96.022 Y97.442 E82.46491
G1 X97.442 Y96.021 E82.53173
G1 X98.008 Y96.021 E82.55055
G1 X96.022 Y98.007 E82.64397
G1 X96.022 Y98.573 E82.6628
G1 X98.574 Y96.021 E82.78283
G1 X99.139 Y96.021 E82.80163
G1 X96.022 Y99.139 E82.94826
G1 X96.022 Y99.704 E82.96706
G1 X99.705 Y96.021 E83.14029
G1 X100.271 Y96.021 E83.15912
G1 X96.022 Y100.27 E83.35898
G1 X96.022 Y100.836 E83.3778
G1 X100.836 Y96.021 E83.60426
G1 X101.402 Y96.021 E83.62309
G1 X96.022 Y101.401 E83.87615
G1 X96.022 Y101.967 E83.89497
G1 X101.968 Y96.021 E84.17465
G1 X102.534 Y96.021 E84.19348
G1 X96.022 Y102.533 E84.49978
G1 X96.022 Y103.098 E84.51857
G1 X103.099 Y96.021 E84.85145
G1 X103.665 Y96.021 E84.87028
G1 X96.022 Y103.664 E85.22978
G1 X96.022 Y104.23 E85.24861
G1 X104.231 Y96.021 E85.63473
G1 X104.796 Y96.021 E85.65353
G1 X96.022 Y104.796 E86.06625
G1 X96.022 Y105.361 E86.08504
G1 X105.362 Y96.021 E86.52437
G1 X105.928 Y96.021 E86.54319
G1 X96.022 Y105.927 E87.00914
G1 X96.022 Y106.493 E87.02797
G1 X106.493 Y96.021 E87.52051
G1 X107.059 Y96.021 E87.53934
G1 X96.022 Y107.058 E88.05849
G1 X96.022 Y107.624 E88.07731
G1 X107.625 Y96.021 E88.62308
G1 X108.19 Y96.021 E88.64187
G1 X96.022 Y108.19 E89.21424
G1 X96.022 Y108.755 E89.23303
G1 X108.756 Y96.021 E89.832
G1 X109.322 Y96.021 E89.85083
G1 X96.022 Y109.321 E90.47642
G1 X96.022 Y109.887 E90.49524
G1 X109.887 Y96.021 E91.14743
G1 X110.453 Y96.021 E91.16626
G1 X96.022 Y110.452 E91.84505
G1 X96.022 Y111.018 E91.86388
G1 X111.019 Y96.021 E92.56929
G1 X111.584 Y96.021 E92.58808
G1 X96.022 Y111.584 E93.32009
G1 X96.022 Y112.149 E93.33888
G1 X112.15 Y96.021 E94.0975
G1 X112.716 Y96.021 E94.11632
G1 X96.022 Y112.715 E94.90156
G1 X96.022 Y113.281 E94.92038
G1 X113.282 Y96.021 E95.73224
G1 X113.847 Y96.021 E95.75103
G1 X96.022 Y113.847 E96.58949
G1 X96.022 Y114.412 E96.60828
G1 X114.413 Y96.021 E97.47334
G1 X114.979 Y96.021 E97.49216
G1 X96.022 Y114.978 E98.38384
G1 X96.022 Y115.544 E98.40267
G1 X115.544 Y96.021 E99.32094
G1 X116.11 Y96.021 E99.33977
G1 X96.022 Y116.109 E100.28465
G1 X96.022 Y116.675 E100.30347
G1 X116.676 Y96.021 E101.27497
G1 X117.241 Y96.021 E101.29377
G1 X96.022 Y117.241 E102.29187
G1 X96.022 Y117.806 E102.31066
G1 X117.807 Y96.021 E103.33536
G1 X118.373 Y96.021 E103.35418
G1 X96.022 Y118.372 E104.4055
G1 X96.022 Y118.938 E104.42433
G1 X118.938 Y96.021 E105.50225
G1 X119.504 Y96.021 E105.52108
G1 X96.022 Y119.503 E106.6256
G1 X96.022 Y120.069 E106.64442
G1 X120.07 Y96.021 E107.77557
G1 X120.635 Y96.021 E107.79436
G1 X96.022 Y120.635 E108.9521
G1 X96.022 Y121.2 E108.9709
G1 X121.201 Y96.021 E110.15524
G1 X121.767 Y96.021 E110.17406
G1 X96.022 Y121.766 E111.38503
G1 X96.022 Y122.332 E111.40385
G1 X122.333 Y96.021 E112.64144
G1 X122.898 Y96.021 E112.66024
G1 X96.022 Y122.897 E113.9244
G1 X96.022 Y123.463 E113.94323
G1 X123.464 Y96.021 E115.23401
G1 X123.977 Y96.022 E115.25108
G1 X123.977 Y96.074 E115.2528
G1 X96.073 Y123.977 E116.5653
G1 X96.639 Y123.977 E116.58413
G1 X123.977 Y96.64 E117.87
G1 X123.977 Y97.205 E117.88879
G1 X97.205 Y123.977 E119.14806
G1 X97.77 Y123.977 E119.16685
G1 X123.977 Y97.771 E120.39953
G1 X123.977 Y98.337 E120.41835
G1 X98.336 Y123.977 E121.6244
G1 X98.902 Y123.977 E121.64323
G1 X123.977 Y98.903 E122.82266
G1 X123.977 Y99.468 E122.84145
G1 X99.468 Y123.977 E123.99428
G1 X100.033 Y123.977 E124.01307
G1 X123.977 Y100.034 E125.1393
G1 X123.977 Y100.6 E125.15812
G1 X100.599 Y123.977 E126.25773
G1 X101.165 Y123.977 E126.27655
G1 X123.977 Y101.165 E127.34956
G1 X123.977 Y101.731 E127.36839
G1 X101.73 Y123.977 E128.41479
G1 X102.296 Y123.977 E128.43362
G1 X123.977 Y102.297 E129.4534
G1 X123.977 Y102.862 E129.47219
G1 X102.862 Y123.977 E130.46538
G1 X103.427 Y123.977 E130.48417
G1 X123.977 Y103.428 E131.45076
G1 X123.977 Y103.994 E131.46958
G1 X103.993 Y123.977 E132.40954
G1 X104.559 Y123.977 E132.42837
G1 X123.977 Y104.559 E133.34173
G1 X123.977 Y105.125 E133.36056
G1 X105.124 Y123.977 E134.24732
G1 X105.69 Y123.977 E134.26615
G1 X123.977 Y105.691 E135.12629
G1 X123.977 Y106.256 E135.14508
G1 X106.256 Y123.977 E135.97862
G1 X106.821 Y123.977 E135.99741
G1 X123.977 Y106.822 E136.80436
G1 X123.977 Y107.388 E136.82318
G1 X107.387 Y123.977 E137.6035
G1 X107.953 Y123.977 E137.62232
G1 X123.977 Y107.953 E138.37604
G1 X123.977 Y108.519 E138.39487
G1 X108.518 Y123.977 E139.12199
G1 X109.084 Y123.977 E139.14082
G1 X123.977 Y109.085 E139.84131
G1 X123.977 Y109.651 E139.86014
G1 X109.65 Y123.977 E140.53401
G1 X110.216 Y123.977 E140.55284
