;FLAVOR:Marlin
;TIME:1325.87
;Filament used:0.737763m
;Layer Height:0.2
;MINX:94.357
;MINY:94.357
;MINZ:0.2
;MAXX:125.643
;MAXY:124.778
;MAXZ:27.2
;OuterWall Time:1069.05
;InnerWall Time:0
;Skin Time:215.412
;Support Time:0
;SkirtBrim Time:0
;Infill Time:0
;Support Infills Time:0
;Combing Time:10.4095
;Retraction Time:30.9925
;PrimeTower Time:0

;
;
;
;
;;;;;;;;;;;;;;;;;;;;;;;;;;;;;;;;;;;;;;;;;;;;;;;;;;;;;;;;;;;;;;;;;;;;;;;;;;
;Creality Print GCode Generated by CXEngine
;CRSLICE_GIT_HASH:6b8d75d
;Creality Print Version : V4.3.7.6619
;CXEngine Release Time:2023-09-20 15:19:09
;Gcode Generated Time:2023-12-28 22:41:59
;----------Machine Config--------------
;Machine Name:Ender-3 V3 SE
;Machine Height:250
;Machine Width:220
;Machine Depth:220
;Material Type:PLA
;Material Name:CR-PLA_1.75
;Number of Extruders:1
;ExtruderParams[0] Nozzle Diameter:1000
;----------Profile Config---------------
;Wall Thickness:0.8
;Top/Bottom Thickness:0.8
;Out Wall Line Width:0.4
;Inner Wall Line Width:0.4
;Inital Height:200
;Wall Line Count:1
;Infill Line Distance:0
;Infill Pattern:grid
;Infill Sparse Density:0
;Infill Wipe Distance:0.1
;Print Temperature:205
;Bed Temperature:60
;Support Enable:false
;Support Density:15
;Support Angle:60
;Adhesion Type:autobrim
;machine is belt:false
;machine belt offset:10
;machine belt offset Y:0
;Raft Base Line Spacing:1.6
;Wait Heatup Sync:true
;Enable Ironing:false
;Material Type:PLA
;Max volumetric speed:20
;Material Diameter:1.75
;Material Density:1.24
;Filament Cost:0.3
;Filament Weight:0
;Preview Img Type:png
;Screen Size:Sermoon D3
;----------Shell Config----------------
;Outer Wall Wipe Distance:200
;Outer Inset First:false
;Infill Before Walls:false
;Infill Overlap:0.13
;Fill Gaps Between Walls:everywhere
;Minimum Infill Area:15
;Top Surface Skin Layer:0
;Top Layers:0
;Z Seam Alignment:sharpest_corner
;Seam Corner Preference:z_seam_corner_inner
;Z Seam X:110
;Z Seam Y:220
;Horizontal Expansion:0
;Top/Bottom Pattern:zigzag
;Ironing Pattern:zigzag
;Vase Model:false
;----------Support Config----------------
;Support Type:everywhere
;Support Pattern:zigzag
;Support Infill Layer Thickness:0.15
;Minimum Support Area:1
;Enable Support Roof:true
;Support Roof Thickness:0.8
;Support Roof Pattern:lines
;Connect Support Lines:0
;Connect Support ZigZags:1
;Minimum Support X/Y Distance:0.2
;Support Line Distance:2.67
; ---------PrintSpeed & Travel----------
;Enable Print Cool:true
;Avoid Printed Parts Traveling:true
;Enable Retraction:true
;Retraction Distance:0.8
;Retraction Speed:40
;Retraction Prime Speed:40
;Maximum Retraction Count:100
;Minimum Extrusion Distance Window:0.8
;Z Hop When Retracted:false
;Z Hop Height:0.2
;Retract Before Outer Wall:true

;Outer Wall Speed:60
;Inner Wall Speed:90
;Infill Speed:180
;Top/Bottom Speed:50
;Travel Speed:150
;Initial Layer Speed:30
;Skirt/Brim Speed:25
;Prime Tower Speed:60
;Outer Wall Acceleration:1000
;Inner Wall Acceleration:2000
;Infill Acceleration:2500
;Top/Bottom Acceleration:2500
;Travel Acceleration:2500
;Initial Layer Print Acceleration:500
;Initial Layer Travel Acceleration:500
;Skirt/Brim Acceleration:500
;Combing Mode:noskin
; --------SpecialModel&Mesh Fixes--------
;Union Overlapping Volum:true
;Remove All Holes:false
;Maximum Travel Resolution:0.25
;Maximum Deviation:0.05
;Maximum Model Angle:0.872665
;IS Mold Print:false
;Make Overhang Printable:false
;Enable Coasting:false
;Coasting Volumes:0.064
;Coasting Speed:0.9
;Raft AirGap:0.25
;Layer0 ZOverLap:0.13
;Adaptive Layers:0
;---------------------End of Head--------------------------
M140 S60
M105
M190 S60
M104 S205
M82 ;absolute extrusion mode
M220 S100 ;Reset Feedrate
M221 S100 ;Reset Flowrate

G28 ;Home

G92 E0 ;Reset Extruder
G1 Z2.0 F3000 ;Move Z Axis up
G1 X10.1 Y20 Z0.28 F5000.0 ;Move to start position
M109 S205.000000
G1 X10.1 Y145.0 Z0.28 F1500.0 E15 ;Draw the first line
G1 X10.4 Y145.0 Z0.28 F5000.0 ;Move to side a little
G1 X10.4 Y20 Z0.28 F1500.0 E30 ;Draw the second line
G92 E0  ;Reset Extruder
G1 E-1.0000 F1800 ;Retract a bit
G1 Z2.0 F3000 ;Move Z Axis up
G1 E0.0000 F1800 

G92 E0
G92 E0
G1 F2400 E-0.8
;LAYER_COUNT:136

;LAYER:0
M106 S0
M204 S500
;MESH:0_0
G0 F4800 X95.242 Y95.242 Z0.2
;TYPE:WALL-OUTER
G1 F2400 E0
G1 F1800 X124.758 Y95.242 E0.91908
G1 X124.758 Y110 E1.37862
G1 X124.758 Y124.758 E1.83817
G1 X95.242 Y124.758 E2.75725
G1 X95.242 Y95.242 E3.67633
G0 F4800 X95.442 Y95.242
;;retract;;
G1 F2400 E3.11633
G1 X97.228 Y96.141 E2.88833
G1 F2400 E2.87633
G0 F4800 X95.682 Y95.682
;TYPE:SKIN
G1 F2400 E3.67633
G1 F1800 X95.682 Y124.318 E4.72401
G1 X124.318 Y124.318 E5.77169
G1 X124.318 Y110 E6.29553
G1 X124.318 Y95.682 E6.81938
G1 X95.682 Y95.682 E7.86706
G0 F4800 X95.362 Y95.682
G0 X118.643 Y95.42
G0 X123.877 Y95.362
G0 X123.877 Y96.121
G1 F1800 X123.501 Y96.121 E7.88081
G1 X123.877 Y96.498 E7.90029
G1 X123.877 Y97.12 E7.92305
G1 X122.878 Y96.121 E7.97474
G1 X122.256 Y96.121 E7.9975
G1 X123.877 Y97.742 E8.08137
G1 X123.877 Y98.364 E8.10412
G1 X121.634 Y96.121 E8.22018
G1 X121.012 Y96.121 E8.24293
G1 X123.877 Y98.987 E8.3912
G1 X123.877 Y99.609 E8.41395
G1 X120.389 Y96.121 E8.59442
G1 X119.767 Y96.121 E8.61718
G1 X123.877 Y100.231 E8.82984
G1 X123.877 Y100.853 E8.85259
G1 X119.145 Y96.121 E9.09743
G1 X118.523 Y96.121 E9.12019
G1 X123.877 Y101.476 E9.39723
G1 X123.877 Y102.098 E9.41999
G1 X117.9 Y96.121 E9.72924
G1 X117.278 Y96.121 E9.752
G1 X123.877 Y102.72 E10.09343
G1 X123.877 Y103.342 E10.11619
G1 X116.656 Y96.121 E10.48981
G1 X116.034 Y96.121 E10.51257
G1 X123.877 Y103.965 E10.91839
G1 X123.877 Y104.587 E10.94115
G1 X115.411 Y96.121 E11.37919
G1 X114.789 Y96.121 E11.40194
G1 X123.877 Y105.209 E11.87216
G1 X123.877 Y105.831 E11.89492
G1 X114.167 Y96.121 E12.39732
G1 X113.545 Y96.121 E12.42008
G1 X123.877 Y106.454 E12.95469
G1 X123.877 Y107.076 E12.97744
G1 X112.922 Y96.121 E13.54426
G1 X112.3 Y96.121 E13.56702
G1 X123.877 Y107.698 E14.16602
G1 X123.877 Y108.32 E14.18878
G1 X111.678 Y96.121 E14.81996
G1 X111.056 Y96.121 E14.84272
G1 X123.877 Y108.943 E15.50611
G1 X123.877 Y109.565 E15.52887
G1 X110.433 Y96.121 E16.22447
G1 X109.811 Y96.121 E16.24722
G1 X123.877 Y110.187 E16.97501
G1 X123.877 Y110.809 E16.99776
G1 X109.189 Y96.121 E17.75773
G1 X108.567 Y96.121 E17.78049
G1 X123.877 Y111.432 E18.57266
G1 X123.877 Y112.054 E18.59542
G1 X107.944 Y96.121 E19.4198
G1 X107.322 Y96.121 E19.44256
G1 X123.877 Y112.676 E20.29912
G1 X123.877 Y113.299 E20.32192
G1 X106.7 Y96.121 E21.21069
G1 X106.078 Y96.121 E21.23345
G1 X123.877 Y113.921 E22.15441
G1 X123.877 Y114.543 E22.17716
G1 X105.455 Y96.121 E23.13033
G1 X104.833 Y96.121 E23.15308
G1 X123.877 Y115.165 E24.13843
G1 X123.877 Y115.788 E24.16123
G1 X104.211 Y96.121 E25.17878
G1 X103.589 Y96.121 E25.20154
G1 X123.877 Y116.41 E26.25128
G1 X123.877 Y117.032 E26.27404
G1 X102.966 Y96.121 E27.35598
G1 X102.344 Y96.121 E27.37874
G1 X123.877 Y117.654 E28.49287
G1 X123.877 Y118.277 E28.51566
G1 X101.722 Y96.121 E29.662
G1 X101.1 Y96.121 E29.68476
G1 X123.877 Y118.899 E30.86328
G1 X123.877 Y119.521 E30.88604
G1 X100.477 Y96.121 E32.09677
G1 X99.855 Y96.121 E32.11953
G1 X123.877 Y120.143 E33.36244
G1 X123.877 Y120.766 E33.38523
G1 X99.233 Y96.121 E34.66036
G1 X98.61 Y96.121 E34.68315
G1 X123.877 Y121.388 E35.99048
G1 X123.877 Y122.01 E36.01324
G1 X97.988 Y96.121 E37.35275
G1 X97.366 Y96.121 E37.37551
G1 X123.877 Y122.632 E38.7472
G1 X123.877 Y123.255 E38.76999
G1 X96.744 Y96.121 E40.1739
G1 X96.121 Y96.121 E40.19669
G1 X123.877 Y123.877 E41.6328
G1 X123.255 Y123.877 E41.65556
G1 X96.121 Y96.744 E43.05947
G1 X96.121 Y97.366 E43.08222
G1 X122.632 Y123.877 E44.45392
G1 X122.01 Y123.877 E44.47667
G1 X96.121 Y97.988 E45.81619
G1 X96.121 Y98.61 E45.83894
G1 X121.388 Y123.877 E47.14627
G1 X120.766 Y123.877 E47.16903
G1 X96.121 Y99.233 E48.44415
G1 X96.121 Y99.855 E48.46691
G1 X120.143 Y123.877 E49.70982
G1 X119.521 Y123.877 E49.73258
G1 X96.121 Y100.477 E50.94331
G1 X96.121 Y101.1 E50.9661
G1 X118.899 Y123.877 E52.14463
G1 X118.277 Y123.877 E52.16738
G1 X96.121 Y101.722 E53.31372
G1 X96.121 Y102.344 E53.33648
G1 X117.654 Y123.877 E54.45061
G1 X117.032 Y123.877 E54.47337
G1 X96.121 Y102.966 E55.55531
G1 X96.121 Y103.589 E55.57811
G1 X116.41 Y123.877 E56.62785
G1 X115.788 Y123.877 E56.6506
G1 X96.121 Y104.211 E57.66816
G1 X96.121 Y104.833 E57.69092
G1 X115.165 Y123.877 E58.67627
G1 X114.543 Y123.877 E58.69902
G1 X96.121 Y105.455 E59.65219
G1 X96.121 Y106.078 E59.67498
G1 X113.921 Y123.877 E60.59594
G1 X113.299 Y123.877 E60.6187
G1 X96.121 Y106.7 E61.50747
G1 X96.121 Y107.322 E61.53023
G1 X112.676 Y123.877 E62.38679
G1 X112.054 Y123.877 E62.40955
G1 X96.121 Y107.944 E63.23393
G1 X96.121 Y108.567 E63.25673
G1 X111.432 Y123.877 E64.0489
G1 X110.809 Y123.877 E64.07169
G1 X96.121 Y109.189 E64.83166
G1 X96.121 Y109.811 E64.85442
G1 X110.187 Y123.877 E65.5822
G1 X109.565 Y123.877 E65.60496
G1 X96.121 Y110.433 E66.30056
G1 X96.121 Y111.056 E66.32335
G1 X108.943 Y123.877 E66.98674
G1 X108.32 Y123.877 E67.00954
G1 X96.121 Y111.678 E67.64072
G1 X96.121 Y112.3 E67.66348
G1 X107.698 Y123.877 E68.26248
G1 X107.076 Y123.877 E68.28523
G1 X96.121 Y112.922 E68.85205
G1 X96.121 Y113.545 E68.87485
G1 X106.454 Y123.877 E69.40946
G1 X105.831 Y123.877 E69.43225
G1 X96.121 Y114.167 E69.93465
G1 X96.121 Y114.789 E69.95741
G1 X105.209 Y123.877 E70.42763
G1 X104.587 Y123.877 E70.45038
G1 X96.121 Y115.411 E70.88842
G1 X96.121 Y116.034 E70.91121
G1 X103.965 Y123.877 E71.31704
G1 X103.342 Y123.877 E71.33983
G1 X96.121 Y116.656 E71.71345
G1 X96.121 Y117.278 E71.73621
G1 X102.72 Y123.877 E72.07765
G1 X102.098 Y123.877 E72.1004
G1 X96.121 Y117.9 E72.40966
G1 X96.121 Y118.523 E72.43245
G1 X101.476 Y123.877 E72.70949
G1 X100.853 Y123.877 E72.73229
G1 X96.121 Y119.145 E72.97712
G1 X96.121 Y119.767 E72.99988
G1 X100.231 Y123.877 E73.21253
G1 X99.609 Y123.877 E73.23529
G1 X96.121 Y120.389 E73.41576
G1 X96.121 Y121.012 E73.43856
G1 X98.987 Y123.877 E73.58682
G1 X98.364 Y123.877 E73.60961
G1 X96.121 Y121.634 E73.72567
G1 X96.121 Y122.256 E73.74842
G1 X97.742 Y123.877 E73.83229
G1 X97.12 Y123.877 E73.85505
G1 X96.121 Y122.878 E73.90674
G1 X96.121 Y123.501 E73.92953
G1 X96.498 Y123.877 E73.94901
G1 X96.121 Y123.877 E73.96281
;;retract;;
G1 F2400 E73.40281
G1 X96.498 Y123.877
G1 X96.121 Y123.501
G1 X96.121 Y122.878
G1 X96.452 Y123.209
G1 X96.121 Y122.878 E73.34945
G1 X96.121 Y123.501 E73.27843
G1 X96.498 Y123.877 E73.21778
G1 X96.121 Y123.877 E73.17481
G1 F2400 E73.16281
;MESH:NONMESH
G0 F600 X96.121 Y123.877 Z0.4
G0 F4800 X95.362 Y123.877
G0 X95.492 Y95.492
G1 F2400 E73.96281
G0 F4800 X95.242 Y95.222
;TIME_ELAPSED:77.642096

;LAYER:1
M106 S127.5
M204 S750
;TYPE:WALL-OUTER
;MESH:0_0
G1 F2700 X95.642 Y95.222 E73.97413
G1 X124.377 Y95.222 E74.78755
G1 X124.778 Y95.222 E74.7989
G1 X124.778 Y95.622 E74.81023
G1 X124.778 Y124.377 E75.62421
G1 X124.778 Y124.778 E75.63556
G1 X124.377 Y124.778 E75.64692
G1 X95.622 Y124.778 E76.4609
G1 X95.222 Y124.778 E76.47223
G1 X95.222 Y124.377 E76.48358
G1 X95.222 Y95.622 E77.29757
G1 X95.222 Y95.222 E77.30889
G1 X95.242 Y95.222 E77.30946
M204 S1500
G0 F6900 X95.442 Y95.222
;;retract;;
G1 F2400 E76.74946
G1 F3450 X97.442 Y95.222 E76.52146
G1 F2400 E76.50946
G0 F6900 X95.622 Y95.622
;TYPE:SKIN
G1 F2400 E77.30946
G1 X95.622 Y124.378 E78.26588
G1 X124.378 Y124.378 E79.22231
G1 X124.378 Y110 E79.70053
G1 X124.378 Y95.622 E80.17874
G1 X95.622 Y95.622 E81.13517
G1 X96.021 Y96.021
G1 X96.022 Y96.31 E81.14478
G1 X96.311 Y96.021 E81.15838
G1 X96.877 Y96.021 E81.1772
G1 X96.022 Y96.876 E81.21742
G1 X96.022 Y97.442 E81.23624
G1 X97.442 Y96.021 E81.30306
G1 X98.008 Y96.021 E81.32188
G1 X96.022 Y98.007 E81.4153
G1 X96.022 Y98.573 E81.43412
G1 X98.574 Y96.021 E81.55416
G1 X99.139 Y96.021 E81.57295
G1 X96.022 Y99.139 E81.71959
G1 X96.022 Y99.704 E81.73838
G1 X99.705 Y96.021 E81.91162
G1 X100.271 Y96.021 E81.93045
G1 X96.022 Y100.27 E82.13031
G1 X96.022 Y100.836 E82.14913
G1 X100.836 Y96.021 E82.37559
G1 X101.402 Y96.021 E82.39442
G1 X96.022 Y101.401 E82.64747
G1 X96.022 Y101.967 E82.6663
G1 X101.968 Y96.021 E82.94598
G1 X102.534 Y96.021 E82.96481
G1 X96.022 Y102.533 E83.27111
G1 X96.022 Y103.098 E83.2899
G1 X103.099 Y96.021 E83.62278
G1 X103.665 Y96.021 E83.64161
G1 X96.022 Y103.664 E84.00111
G1 X96.022 Y104.23 E84.01994
G1 X104.231 Y96.021 E84.40606
G1 X104.796 Y96.021 E84.42486
G1 X96.022 Y104.796 E84.83758
G1 X96.022 Y105.361 E84.85637
G1 X105.362 Y96.021 E85.2957
G1 X105.928 Y96.021 E85.31452
G1 X96.022 Y105.927 E85.78047
G1 X96.022 Y106.493 E85.7993
G1 X106.493 Y96.021 E86.29184
G1 X107.059 Y96.021 E86.31067
G1 X96.022 Y107.058 E86.82982
G1 X96.022 Y107.624 E86.84864
G1 X107.625 Y96.021 E87.39441
G1 X108.19 Y96.021 E87.4132
G1 X96.022 Y108.19 E87.98557
G1 X96.022 Y108.755 E88.00436
G1 X108.756 Y96.021 E88.60333
G1 X109.322 Y96.021 E88.62216
G1 X96.022 Y109.321 E89.24775
G1 X96.022 Y109.887 E89.26657
G1 X109.887 Y96.021 E89.91876
G1 X110.453 Y96.021 E89.93759
G1 X96.022 Y110.452 E90.61638
G1 X96.022 Y111.018 E90.6352
G1 X111.019 Y96.021 E91.34062
G1 X111.584 Y96.021 E91.35941
G1 X96.022 Y111.584 E92.09142
G1 X96.022 Y112.149 E92.11021
G1 X112.15 Y96.021 E92.86883
G1 X112.716 Y96.021 E92.88765
G1 X96.022 Y112.715 E93.67288
G1 X96.022 Y113.281 E93.69171
G1 X113.282 Y96.021 E94.50357
G1 X113.847 Y96.021 E94.52236
G1 X96.022 Y113.847 E95.36082
G1 X96.022 Y114.412 E95.37961
G1 X114.413 Y96.021 E96.24466
G1 X114.979 Y96.021 E96.26349
G1 X96.022 Y114.978 E97.15517
G1 X96.022 Y115.544 E97.17399
G1 X115.544 Y96.021 E98.09227
G1 X116.11 Y96.021 E98.1111
G1 X96.022 Y116.109 E99.05598
G1 X96.022 Y116.675 E99.0748
G1 X116.676 Y96.021 E100.0463
G1 X117.241 Y96.021 E100.06509
G1 X96.022 Y117.241 E101.06319
G1 X96.022 Y117.806 E101.08199
G1 X117.807 Y96.021 E102.10669
G1 X118.373 Y96.021 E102.12551
G1 X96.022 Y118.372 E103.17683
G1 X96.022 Y118.938 E103.19566
G1 X118.938 Y96.021 E104.27358
G1 X119.504 Y96.021 E104.29241
G1 X96.022 Y119.503 E105.39693
G1 X96.022 Y120.069 E105.41575
G1 X120.07 Y96.021 E106.5469
G1 X120.635 Y96.021 E106.56569
G1 X96.022 Y120.635 E107.72343
G1 X96.022 Y121.2 E107.74222
G1 X121.201 Y96.021 E108.92657
G1 X121.767 Y96.021 E108.94539
G1 X96.022 Y121.766 E110.15636
G1 X96.022 Y122.332 E110.17518
G1 X122.333 Y96.021 E111.41277
G1 X122.898 Y96.021 E111.43156
G1 X96.022 Y122.897 E112.69573
G1 X96.022 Y123.463 E112.71455
G1 X123.464 Y96.021 E114.00534
G1 X123.977 Y96.022 E114.0224
G1 X123.977 Y96.074 E114.02413
G1 X96.073 Y123.977 E115.33663
G1 X96.639 Y123.977 E115.35545
G1 X123.977 Y96.64 E116.64133
G1 X123.977 Y97.205 E116.66012
G1 X97.205 Y123.977 E117.91939
G1 X97.77 Y123.977 E117.93818
G1 X123.977 Y97.771 E119.17086
G1 X123.977 Y98.337 E119.18968
G1 X98.336 Y123.977 E120.39573
G1 X98.902 Y123.977 E120.41456
G1 X123.977 Y98.903 E121.59398
G1 X123.977 Y99.468 E121.61278
G1 X99.468 Y123.977 E122.76561
G1 X100.033 Y123.977 E122.7844
G1 X123.977 Y100.034 E123.91063
G1 X123.977 Y100.6 E123.92945
G1 X100.599 Y123.977 E125.02906
G1 X101.165 Y123.977 E125.04788
G1 X123.977 Y101.165 E126.12089
G1 X123.977 Y101.731 E126.13971
G1 X101.73 Y123.977 E127.18612
G1 X102.296 Y123.977 E127.20495
G1 X123.977 Y102.297 E128.22473
G1 X123.977 Y102.862 E128.24352
G1 X102.862 Y123.977 E129.23671
G1 X103.427 Y123.977 E129.2555
G1 X123.977 Y103.428 E130.22209
G1 X123.977 Y103.994 E130.24091
G1 X103.993 Y123.977 E131.18087
G1 X104.559 Y123.977 E131.1997
G1 X123.977 Y104.559 E132.11306
G1 X123.977 Y105.125 E132.13189
G1 X105.124 Y123.977 E133.01865
G1 X105.69 Y123.977 E133.03748
G1 X123.977 Y105.691 E133.89762
G1 X123.977 Y106.256 E133.91641
G1 X106.256 Y123.977 E134.74995
G1 X106.821 Y123.977 E134.76874
G1 X123.977 Y106.822 E135.57568
G1 X123.977 Y107.388 E135.59451
G1 X107.387 Y123.977 E136.37483
G1 X107.953 Y123.977 E136.39365
G1 X123.977 Y107.953 E137.14737
G1 X123.977 Y108.519 E137.1662
G1 X108.518 Y123.977 E137.89332
G1 X109.084 Y123.977 E137.91214
G1 X123.977 Y109.085 E138.61264
G1 X123.977 Y109.651 E138.63147
G1 X109.65 Y123.977 E139.30534
G1 X110.216 Y123.977 E139.32417
G1 X123.977 Y110.216 E139.97144
G1 X123.977 Y110.782 E139.99027
G1 X110.781 Y123.977 E140.61094
