; G-Code originally generated by Simplify3D(R) Version 4.1.2
; This calibration test gcode modified by the Teaching Tech Calibration website: https://teachingtechyt.github.io/calibration.html
;M80 ; power supply on
G90
M82
M106 S0
M140 S60 ; custom bed temp
M190 S60 ; custom bed temp
M104 S155 T0 ; custom hot end temp minus 50 degrees
G28 ; home all axes
;G29 ; probe ABL
M420 S1 ; restore ABL mesh
M109 S205 T0 ; custom hot end temp 
; custom start gcode
G28 ;Home

G92 E0 ;Reset Extruder
G1 Z2.0 F3000 ;Move Z Axis up
G1 X10.1 Y20 Z0.28 F5000.0 ;Move to start position
M109 S205.000000
G1 X10.1 Y145.0 Z0.28 F1500.0 E15 ;Draw the first line
G1 X10.4 Y145.0 Z0.28 F5000.0 ;Move to side a little
G1 X10.4 Y20 Z0.28 F1500.0 E30 ;Draw the second line
G92 E0  ;Reset Extruder
G1 E-1.0000 F1800 ;Retract a bit
G1 Z2.0 F3000 ;Move Z Axis up
G1 E0.0000 F1800 
G0 Z3; fix for delta printers that home at max
; square 1
;process Process
;layer 1, Z = 0.200
T0
G92 E0.0000
G1 E-2 F2700 ; custom retraction
;fan1;
G1 Z0.200 F1200
G1 X14.6360 Y16.3140 F10000 ; custom feedrate
G1 E0 F2700 ; custom un-retraction/prime
G92 E0.0000
G1 X16.3140 Y14.6360 E0.1023 F3000 ; custom feedrate
G1 X43.6860 Y14.6360 E1.2822
G1 X45.3640 Y16.3140 E1.3844
G1 X45.3640 Y43.6860 E2.5643
G1 X43.6860 Y45.3640 E2.6666
G1 X16.3140 Y45.3640 E3.8465
G1 X14.6360 Y43.6860 E3.9487
G1 X14.6360 Y16.3140 E5.1286
G92 E0.0000
G1 E-2 F2700 ; custom retraction
;zhop1
G1 X15.2120 Y16.5520 F10000 ; custom feedrate
G1 Z0.200 F1200
G1 E0 F2700 ; custom un-retraction/prime
G92 E0.0000
G1 X16.5520 Y15.2120 E0.0817 F3000 ; custom feedrate
G1 X43.4480 Y15.2120 E1.2410
G1 X44.7880 Y16.5520 E1.3227
G1 X44.7880 Y43.4480 E2.4820
G1 X43.4480 Y44.7880 E2.5637
G1 X16.5520 Y44.7880 E3.7231
G1 X15.2120 Y43.4480 E3.8048
G1 X15.2120 Y16.5520 E4.9641
G92 E0.0000
G1 E-2 F2700 ; custom retraction
;zhop1
G1 X17.7880 Y17.7880 F10000 ; custom feedrate
G1 X17.7880 Y18.2020
G1 X18.9400 Y18.9400
G1 Z0.200 F1200
G1 E0 F2700 ; custom un-retraction/prime
G92 E0.0000
G1 X41.0600 Y18.9400 E0.9535 F2400 ; custom feedrate
G1 X41.0600 Y41.0600 E1.9069
G1 X18.9400 Y41.0600 E2.8604
G1 X18.9400 Y18.9400 E3.8139
G1 X18.3640 Y18.3640 F10000 ; custom feedrate
G92 E0.0000
G1 X41.6360 Y18.3640 E1.0031 F2400 ; custom feedrate
G1 X41.6360 Y41.6360 E2.0063
G1 X18.3640 Y41.6360 E3.0094
G1 X18.3640 Y18.3640 E4.0125
G1 X17.7880 Y17.7880 F10000 ; custom feedrate
G92 E0.0000
G1 X42.2120 Y17.7880 E1.0528 F1800 ; custom feedrate
G1 X42.2120 Y42.2120 E2.1056
G1 X17.7880 Y42.2120 E3.1584
G1 X17.7880 Y17.7880 E4.2111
G1 X40.4650 Y19.2860 F10000 ; custom feedrate
G92 E0.0000
G1 X40.7140 Y19.5350 E0.0152 F2400 ; custom feedrate
G1 X40.7140 Y20.3500 E0.0503
G1 X39.6500 Y19.2860 E0.1152
G1 X38.8360 Y19.2860 E0.1503
G1 X40.7140 Y21.1640 E0.2648
G1 X40.7140 Y21.9790 E0.2999
G1 X38.0210 Y19.2860 E0.4640
G1 X37.2070 Y19.2860 E0.4992
G1 X40.7140 Y22.7930 E0.7130
G1 X40.7140 Y23.6080 E0.7481
G1 X36.3920 Y19.2860 E1.0116
G1 X35.5780 Y19.2860 E1.0467
G1 X40.7140 Y24.4220 E1.3598
G1 X40.7140 Y25.2370 E1.3949
G1 X34.7630 Y19.2860 E1.7577
G1 X33.9480 Y19.2860 E1.7928
G1 X40.7140 Y26.0520 E2.2053
G1 X40.7140 Y26.8660 E2.2404
G1 X33.1340 Y19.2860 E2.7025
G1 X32.3190 Y19.2860 E2.7376
G1 X40.7140 Y27.6810 E3.2494
G1 X40.7140 Y28.4950 E3.2845
G1 X31.5050 Y19.2860 E3.8459
G1 X30.6900 Y19.2860 E3.8810
G1 X40.7140 Y29.3100 E4.4921
G1 X40.7140 Y30.1250 E4.5272
G1 X29.8750 Y19.2860 E5.1879
G1 X29.0610 Y19.2860 E5.2231
G1 X40.7140 Y30.9390 E5.9334
G1 X40.7140 Y31.7540 E5.9686
G1 X28.2460 Y19.2860 E6.7286
G1 X27.4320 Y19.2860 E6.7637
G1 X40.7140 Y32.5680 E7.5734
G1 X40.7140 Y33.3830 E7.6085
G1 X26.6170 Y19.2860 E8.4679
G1 X25.8020 Y19.2860 E8.5030
G1 X40.7140 Y34.1980 E9.4120
G1 X40.7140 Y35.0120 E9.4471
G1 X24.9880 Y19.2860 E10.4058
G1 X24.1730 Y19.2860 E10.4409
G1 X40.7140 Y35.8270 E11.4493
G1 X40.7140 Y36.6410 E11.4844
G1 X23.3590 Y19.2860 E12.5424
G1 X22.5440 Y19.2860 E12.5775
G1 X40.7140 Y37.4560 E13.6851
G1 X40.7140 Y38.2700 E13.7202
G1 X21.7300 Y19.2860 E14.8775
G1 X20.9150 Y19.2860 E14.9127
G1 X40.7140 Y39.0850 E16.1196
G1 X40.7140 Y39.9000 E16.1547
G1 X20.1000 Y19.2860 E17.4113
G1 X19.2860 Y19.2860 E17.4465
G1 X40.7140 Y40.7140 E18.7527
G1 X39.9000 Y40.7140 E18.7879
G1 X19.2860 Y20.1000 E20.0445
G1 X19.2860 Y20.9150 E20.0796
G1 X39.0850 Y40.7140 E21.2865
G1 X38.2700 Y40.7140 E21.3217
G1 X19.2860 Y21.7300 E22.4790
G1 X19.2860 Y22.5440 E22.5141
G1 X37.4560 Y40.7140 E23.6217
G1 X36.6410 Y40.7140 E23.6568
G1 X19.2860 Y23.3590 E24.7148
G1 X19.2860 Y24.1730 E24.7499
G1 X35.8270 Y40.7140 E25.7583
G1 X35.0120 Y40.7140 E25.7934
G1 X19.2860 Y24.9880 E26.7521
G1 X19.2860 Y25.8020 E26.7872
G1 X34.1980 Y40.7140 E27.6962
G1 X33.3830 Y40.7140 E27.7313
G1 X19.2860 Y26.6170 E28.5907
G1 X19.2860 Y27.4320 E28.6258
G1 X32.5680 Y40.7140 E29.4355
G1 X31.7540 Y40.7140 E29.4706
G1 X19.2860 Y28.2460 E30.2307
G1 X19.2860 Y29.0610 E30.2658
G1 X30.9390 Y40.7140 E30.9762
G1 X30.1250 Y40.7140 E31.0113
G1 X19.2860 Y29.8750 E31.6720
G1 X19.2860 Y30.6900 E31.7071
G1 X29.3100 Y40.7140 E32.3182
G1 X28.4950 Y40.7140 E32.3533
G1 X19.2860 Y31.5050 E32.9147
G1 X19.2860 Y32.3190 E32.9499
G1 X27.6810 Y40.7140 E33.4616
G1 X26.8660 Y40.7140 E33.4967
G1 X19.2860 Y33.1340 E33.9588
G1 X19.2860 Y33.9480 E33.9939
G1 X26.0520 Y40.7140 E34.4064
G1 X25.2370 Y40.7140 E34.4415
G1 X19.2860 Y34.7630 E34.8043
G1 X19.2860 Y35.5770 E34.8394
G1 X24.4230 Y40.7140 E35.1525
G1 X23.6080 Y40.7140 E35.1877
G1 X19.2860 Y36.3920 E35.4511
G1 X19.2860 Y37.2070 E35.4863
G1 X22.7930 Y40.7140 E35.7001
G1 X21.9790 Y40.7140 E35.7352
G1 X19.2860 Y38.0210 E35.8994
G1 X19.2860 Y38.8360 E35.9345
G1 X21.1640 Y40.7140 E36.0490
G1 X20.3500 Y40.7140 E36.0841
G1 X19.2860 Y39.6500 E36.1489
G1 X19.2860 Y40.4650 E36.1840
G1 X19.5350 Y40.7140 E36.1992
G92 E0.0000
G1 E-2 F2700 ; custom retraction

; square 2
;process Process
;layer 1, Z = 0.200
T0
G92 E0.0000
G1 E-2 F2700 ; custom retraction
;fan1;
G1 Z0.200 F1200
G1 X14.6360 Y176.3140 F10000 ; custom feedrate
G1 E0 F2700 ; custom un-retraction/prime
G92 E0.0000
G1 X16.3140 Y174.6360 E0.1023 F3000 ; custom feedrate
G1 X43.6860 Y174.6360 E1.2822
G1 X45.3640 Y176.3140 E1.3844
G1 X45.3640 Y203.6860 E2.5643
G1 X43.6860 Y205.3640 E2.6666
G1 X16.3140 Y205.3640 E3.8465
G1 X14.6360 Y203.6860 E3.9487
G1 X14.6360 Y176.3140 E5.1286
G92 E0.0000
G1 E-2 F2700 ; custom retraction
;zhop1
G1 X15.2120 Y176.5520 F10000 ; custom feedrate
G1 Z0.200 F1200
G1 E0 F2700 ; custom un-retraction/prime
G92 E0.0000
G1 X16.5520 Y175.2120 E0.0817 F3000 ; custom feedrate
G1 X43.4480 Y175.2120 E1.2410
G1 X44.7880 Y176.5520 E1.3227
G1 X44.7880 Y203.4480 E2.4820
G1 X43.4480 Y204.7880 E2.5637
G1 X16.5520 Y204.7880 E3.7231
G1 X15.2120 Y203.4480 E3.8048
G1 X15.2120 Y176.5520 E4.9641
G92 E0.0000
G1 E-2 F2700 ; custom retraction
;zhop1
G1 X17.7880 Y177.7880 F10000 ; custom feedrate
G1 X17.7880 Y178.2020
G1 X18.9400 Y178.9400
G1 Z0.200 F1200
G1 E0 F2700 ; custom un-retraction/prime
G92 E0.0000
G1 X41.0600 Y178.9400 E0.9535 F2400 ; custom feedrate
G1 X41.0600 Y201.0600 E1.9069
G1 X18.9400 Y201.0600 E2.8604
G1 X18.9400 Y178.9400 E3.8139
G1 X18.3640 Y178.3640 F10000 ; custom feedrate
G92 E0.0000
G1 X41.6360 Y178.3640 E1.0031 F2400 ; custom feedrate
G1 X41.6360 Y201.6360 E2.0063
G1 X18.3640 Y201.6360 E3.0094
G1 X18.3640 Y178.3640 E4.0125
G1 X17.7880 Y177.7880 F10000 ; custom feedrate
G92 E0.0000
G1 X42.2120 Y177.7880 E1.0528 F1800 ; custom feedrate
G1 X42.2120 Y202.2120 E2.1056
G1 X17.7880 Y202.2120 E3.1584
G1 X17.7880 Y177.7880 E4.2111
G1 X40.4650 Y179.2860 F10000 ; custom feedrate
G92 E0.0000
G1 X40.7140 Y179.5350 E0.0152 F2400 ; custom feedrate
G1 X40.7140 Y180.3500 E0.0503
G1 X39.6500 Y179.2860 E0.1152
G1 X38.8360 Y179.2860 E0.1503
G1 X40.7140 Y181.1640 E0.2648
G1 X40.7140 Y181.9790 E0.2999
G1 X38.0210 Y179.2860 E0.4640
G1 X37.2070 Y179.2860 E0.4992
G1 X40.7140 Y182.7930 E0.7130
G1 X40.7140 Y183.6080 E0.7481
G1 X36.3920 Y179.2860 E1.0116
G1 X35.5780 Y179.2860 E1.0467
G1 X40.7140 Y184.4220 E1.3598
G1 X40.7140 Y185.2370 E1.3949
G1 X34.7630 Y179.2860 E1.7577
G1 X33.9480 Y179.2860 E1.7928
G1 X40.7140 Y186.0520 E2.2053
G1 X40.7140 Y186.8660 E2.2404
G1 X33.1340 Y179.2860 E2.7025
G1 X32.3190 Y179.2860 E2.7376
G1 X40.7140 Y187.6810 E3.2494
G1 X40.7140 Y188.4950 E3.2845
G1 X31.5050 Y179.2860 E3.8459
G1 X30.6900 Y179.2860 E3.8810
G1 X40.7140 Y189.3100 E4.4921
G1 X40.7140 Y190.1250 E4.5272
G1 X29.8750 Y179.2860 E5.1879
G1 X29.0610 Y179.2860 E5.2231
G1 X40.7140 Y190.9390 E5.9334
G1 X40.7140 Y191.7540 E5.9686
G1 X28.2460 Y179.2860 E6.7286
G1 X27.4320 Y179.2860 E6.7637
G1 X40.7140 Y192.5680 E7.5734
G1 X40.7140 Y193.3830 E7.6085
G1 X26.6170 Y179.2860 E8.4679
G1 X25.8020 Y179.2860 E8.5030
G1 X40.7140 Y194.1980 E9.4120
G1 X40.7140 Y195.0120 E9.4471
G1 X24.9880 Y179.2860 E10.4058
G1 X24.1730 Y179.2860 E10.4409
G1 X40.7140 Y195.8270 E11.4493
G1 X40.7140 Y196.6410 E11.4844
G1 X23.3590 Y179.2860 E12.5424
G1 X22.5440 Y179.2860 E12.5775
G1 X40.7140 Y197.4560 E13.6851
G1 X40.7140 Y198.2700 E13.7202
G1 X21.7300 Y179.2860 E14.8775
G1 X20.9150 Y179.2860 E14.9127
G1 X40.7140 Y199.0850 E16.1196
G1 X40.7140 Y199.9000 E16.1547
G1 X20.1000 Y179.2860 E17.4113
G1 X19.2860 Y179.2860 E17.4465
G1 X40.7140 Y200.7140 E18.7527
G1 X39.9000 Y200.7140 E18.7879
G1 X19.2860 Y180.1000 E20.0445
G1 X19.2860 Y180.9150 E20.0796
G1 X39.0850 Y200.7140 E21.2865
G1 X38.2700 Y200.7140 E21.3217
G1 X19.2860 Y181.7300 E22.4790
G1 X19.2860 Y182.5440 E22.5141
G1 X37.4560 Y200.7140 E23.6217
G1 X36.6410 Y200.7140 E23.6568
G1 X19.2860 Y183.3590 E24.7148
G1 X19.2860 Y184.1730 E24.7499
G1 X35.8270 Y200.7140 E25.7583
G1 X35.0120 Y200.7140 E25.7934
G1 X19.2860 Y184.9880 E26.7521
G1 X19.2860 Y185.8020 E26.7872
G1 X34.1980 Y200.7140 E27.6962
G1 X33.3830 Y200.7140 E27.7313
G1 X19.2860 Y186.6170 E28.5907
G1 X19.2860 Y187.4320 E28.6258
G1 X32.5680 Y200.7140 E29.4355
G1 X31.7540 Y200.7140 E29.4706
G1 X19.2860 Y188.2460 E30.2307
G1 X19.2860 Y189.0610 E30.2658
G1 X30.9390 Y200.7140 E30.9762
G1 X30.1250 Y200.7140 E31.0113
G1 X19.2860 Y189.8750 E31.6720
G1 X19.2860 Y190.6900 E31.7071
G1 X29.3100 Y200.7140 E32.3182
G1 X28.4950 Y200.7140 E32.3533
G1 X19.2860 Y191.5050 E32.9147
G1 X19.2860 Y192.3190 E32.9499
G1 X27.6810 Y200.7140 E33.4616
G1 X26.8660 Y200.7140 E33.4967
G1 X19.2860 Y193.1340 E33.9588
G1 X19.2860 Y193.9480 E33.9939
G1 X26.0520 Y200.7140 E34.4064
G1 X25.2370 Y200.7140 E34.4415
G1 X19.2860 Y194.7630 E34.8043
G1 X19.2860 Y195.5770 E34.8394
G1 X24.4230 Y200.7140 E35.1525
G1 X23.6080 Y200.7140 E35.1877
G1 X19.2860 Y196.3920 E35.4511
G1 X19.2860 Y197.2070 E35.4863
G1 X22.7930 Y200.7140 E35.7001
G1 X21.9790 Y200.7140 E35.7352
G1 X19.2860 Y198.0210 E35.8994
G1 X19.2860 Y198.8360 E35.9345
G1 X21.1640 Y200.7140 E36.0490
G1 X20.3500 Y200.7140 E36.0841
G1 X19.2860 Y199.6500 E36.1489
G1 X19.2860 Y200.4650 E36.1840
G1 X19.5350 Y200.7140 E36.1992
G92 E0.0000
G1 E-2 F2700 ; custom retraction

; square 3
;process Process
;layer 1, Z = 0.200
T0
G92 E0.0000
G1 E-2 F2700 ; custom retraction
;fan1;
G1 Z0.200 F1200
G1 X94.6360 Y96.3140 F10000 ; custom feedrate
G1 E0 F2700 ; custom un-retraction/prime
G92 E0.0000
G1 X96.3140 Y94.6360 E0.1023 F3000 ; custom feedrate
G1 X123.6860 Y94.6360 E1.2822
G1 X125.3640 Y96.3140 E1.3844
G1 X125.3640 Y123.6860 E2.5643
G1 X123.6860 Y125.3640 E2.6666
G1 X96.3140 Y125.3640 E3.8465
G1 X94.6360 Y123.6860 E3.9487
G1 X94.6360 Y96.3140 E5.1286
G92 E0.0000
G1 E-2 F2700 ; custom retraction
;zhop1
G1 X95.2120 Y96.5520 F10000 ; custom feedrate
G1 Z0.200 F1200
G1 E0 F2700 ; custom un-retraction/prime
G92 E0.0000
G1 X96.5520 Y95.2120 E0.0817 F3000 ; custom feedrate
G1 X123.4480 Y95.2120 E1.2410
G1 X124.7880 Y96.5520 E1.3227
G1 X124.7880 Y123.4480 E2.4820
G1 X123.4480 Y124.7880 E2.5637
G1 X96.5520 Y124.7880 E3.7231
G1 X95.2120 Y123.4480 E3.8048
G1 X95.2120 Y96.5520 E4.9641
G92 E0.0000
G1 E-2 F2700 ; custom retraction
;zhop1
G1 X97.7880 Y97.7880 F10000 ; custom feedrate
G1 X97.7880 Y98.2020
G1 X98.9400 Y98.9400
G1 Z0.200 F1200
G1 E0 F2700 ; custom un-retraction/prime
G92 E0.0000
G1 X121.0600 Y98.9400 E0.9535 F2400 ; custom feedrate
G1 X121.0600 Y121.0600 E1.9069
G1 X98.9400 Y121.0600 E2.8604
G1 X98.9400 Y98.9400 E3.8139
G1 X98.3640 Y98.3640 F10000 ; custom feedrate
G92 E0.0000
G1 X121.6360 Y98.3640 E1.0031 F2400 ; custom feedrate
G1 X121.6360 Y121.6360 E2.0063
G1 X98.3640 Y121.6360 E3.0094
G1 X98.3640 Y98.3640 E4.0125
G1 X97.7880 Y97.7880 F10000 ; custom feedrate
G92 E0.0000
G1 X122.2120 Y97.7880 E1.0528 F1800 ; custom feedrate
G1 X122.2120 Y122.2120 E2.1056
G1 X97.7880 Y122.2120 E3.1584
G1 X97.7880 Y97.7880 E4.2111
G1 X120.4650 Y99.2860 F10000 ; custom feedrate
G92 E0.0000
G1 X120.7140 Y99.5350 E0.0152 F2400 ; custom feedrate
G1 X120.7140 Y100.3500 E0.0503
G1 X119.6500 Y99.2860 E0.1152
G1 X118.8360 Y99.2860 E0.1503
G1 X120.7140 Y101.1640 E0.2648
G1 X120.7140 Y101.9790 E0.2999
G1 X118.0210 Y99.2860 E0.4640
G1 X117.2070 Y99.2860 E0.4992
G1 X120.7140 Y102.7930 E0.7130
G1 X120.7140 Y103.6080 E0.7481
G1 X116.3920 Y99.2860 E1.0116
G1 X115.5780 Y99.2860 E1.0467
G1 X120.7140 Y104.4220 E1.3598
G1 X120.7140 Y105.2370 E1.3949
G1 X114.7630 Y99.2860 E1.7577
G1 X113.9480 Y99.2860 E1.7928
G1 X120.7140 Y106.0520 E2.2053
G1 X120.7140 Y106.8660 E2.2404
G1 X113.1340 Y99.2860 E2.7025
G1 X112.3190 Y99.2860 E2.7376
G1 X120.7140 Y107.6810 E3.2494
G1 X120.7140 Y108.4950 E3.2845
G1 X111.5050 Y99.2860 E3.8459
G1 X110.6900 Y99.2860 E3.8810
G1 X120.7140 Y109.3100 E4.4921
G1 X120.7140 Y110.1250 E4.5272
G1 X109.8750 Y99.2860 E5.1879
G1 X109.0610 Y99.2860 E5.2231
G1 X120.7140 Y110.9390 E5.9334
G1 X120.7140 Y111.7540 E5.9686
G1 X108.2460 Y99.2860 E6.7286
G1 X107.4320 Y99.2860 E6.7637
G1 X120.7140 Y112.5680 E7.5734
G1 X120.7140 Y113.3830 E7.6085
G1 X106.6170 Y99.2860 E8.4679
G1 X105.8020 Y99.2860 E8.5030
G1 X120.7140 Y114.1980 E9.4120
G1 X120.7140 Y115.0120 E9.4471
G1 X104.9880 Y99.2860 E10.4058
G1 X104.1730 Y99.2860 E10.4409
G1 X120.7140 Y115.8270 E11.4493
G1 X120.7140 Y116.6410 E11.4844
G1 X103.3590 Y99.2860 E12.5424
G1 X102.5440 Y99.2860 E12.5775
G1 X120.7140 Y117.4560 E13.6851
G1 X120.7140 Y118.2700 E13.7202
G1 X101.7300 Y99.2860 E14.8775
G1 X100.9150 Y99.2860 E14.9127
G1 X120.7140 Y119.0850 E16.1196
G1 X120.7140 Y119.9000 E16.1547
G1 X100.1000 Y99.2860 E17.4113
G1 X99.2860 Y99.2860 E17.4465
G1 X120.7140 Y120.7140 E18.7527
G1 X119.9000 Y120.7140 E18.7879
G1 X99.2860 Y100.1000 E20.0445
G1 X99.2860 Y100.9150 E20.0796
G1 X119.0850 Y120.7140 E21.2865
G1 X118.2700 Y120.7140 E21.3217
G1 X99.2860 Y101.7300 E22.4790
G1 X99.2860 Y102.5440 E22.5141
G1 X117.4560 Y120.7140 E23.6217
G1 X116.6410 Y120.7140 E23.6568
G1 X99.2860 Y103.3590 E24.7148
G1 X99.2860 Y104.1730 E24.7499
G1 X115.8270 Y120.7140 E25.7583
G1 X115.0120 Y120.7140 E25.7934
G1 X99.2860 Y104.9880 E26.7521
G1 X99.2860 Y105.8020 E26.7872
G1 X114.1980 Y120.7140 E27.6962
G1 X113.3830 Y120.7140 E27.7313
G1 X99.2860 Y106.6170 E28.5907
G1 X99.2860 Y107.4320 E28.6258
G1 X112.5680 Y120.7140 E29.4355
G1 X111.7540 Y120.7140 E29.4706
G1 X99.2860 Y108.2460 E30.2307
G1 X99.2860 Y109.0610 E30.2658
G1 X110.9390 Y120.7140 E30.9762
G1 X110.1250 Y120.7140 E31.0113
G1 X99.2860 Y109.8750 E31.6720
G1 X99.2860 Y110.6900 E31.7071
G1 X109.3100 Y120.7140 E32.3182
G1 X108.4950 Y120.7140 E32.3533
G1 X99.2860 Y111.5050 E32.9147
G1 X99.2860 Y112.3190 E32.9499
G1 X107.6810 Y120.7140 E33.4616
G1 X106.8660 Y120.7140 E33.4967
G1 X99.2860 Y113.1340 E33.9588
G1 X99.2860 Y113.9480 E33.9939
G1 X106.0520 Y120.7140 E34.4064
G1 X105.2370 Y120.7140 E34.4415
G1 X99.2860 Y114.7630 E34.8043
G1 X99.2860 Y115.5770 E34.8394
G1 X104.4230 Y120.7140 E35.1525
G1 X103.6080 Y120.7140 E35.1877
G1 X99.2860 Y116.3920 E35.4511
G1 X99.2860 Y117.2070 E35.4863
G1 X102.7930 Y120.7140 E35.7001
G1 X101.9790 Y120.7140 E35.7352
G1 X99.2860 Y118.0210 E35.8994
G1 X99.2860 Y118.8360 E35.9345
G1 X101.1640 Y120.7140 E36.0490
G1 X100.3500 Y120.7140 E36.0841
G1 X99.2860 Y119.6500 E36.1489
G1 X99.2860 Y120.4650 E36.1840
G1 X99.5350 Y120.7140 E36.1992
G92 E0.0000
G1 E-2 F2700 ; custom retraction

; square 4
;process Process
;layer 1, Z = 0.200
T0
G92 E0.0000
G1 E-2 F2700 ; custom retraction
;fan1;
G1 Z0.200 F1200
G1 X174.6360 Y16.3140 F10000 ; custom feedrate
G1 E0 F2700 ; custom un-retraction/prime
G92 E0.0000
G1 X176.3140 Y14.6360 E0.1023 F3000 ; custom feedrate
G1 X203.6860 Y14.6360 E1.2822
G1 X205.3640 Y16.3140 E1.3844
G1 X205.3640 Y43.6860 E2.5643
G1 X203.6860 Y45.3640 E2.6666
G1 X176.3140 Y45.3640 E3.8465
G1 X174.6360 Y43.6860 E3.9487
G1 X174.6360 Y16.3140 E5.1286
G92 E0.0000
G1 E-2 F2700 ; custom retraction
;zhop1
G1 X175.2120 Y16.5520 F10000 ; custom feedrate
G1 Z0.200 F1200
G1 E0 F2700 ; custom un-retraction/prime
G92 E0.0000
G1 X176.5520 Y15.2120 E0.0817 F3000 ; custom feedrate
G1 X203.4480 Y15.2120 E1.2410
G1 X204.7880 Y16.5520 E1.3227
G1 X204.7880 Y43.4480 E2.4820
G1 X203.4480 Y44.7880 E2.5637
G1 X176.5520 Y44.7880 E3.7231
G1 X175.2120 Y43.4480 E3.8048
G1 X175.2120 Y16.5520 E4.9641
G92 E0.0000
G1 E-2 F2700 ; custom retraction
;zhop1
G1 X177.7880 Y17.7880 F10000 ; custom feedrate
G1 X177.7880 Y18.2020
G1 X178.9400 Y18.9400
G1 Z0.200 F1200
G1 E0 F2700 ; custom un-retraction/prime
G92 E0.0000
G1 X201.0600 Y18.9400 E0.9535 F2400 ; custom feedrate
G1 X201.0600 Y41.0600 E1.9069
G1 X178.9400 Y41.0600 E2.8604
G1 X178.9400 Y18.9400 E3.8139
G1 X178.3640 Y18.3640 F10000 ; custom feedrate
G92 E0.0000
G1 X201.6360 Y18.3640 E1.0031 F2400 ; custom feedrate
G1 X201.6360 Y41.6360 E2.0063
G1 X178.3640 Y41.6360 E3.0094
G1 X178.3640 Y18.3640 E4.0125
G1 X177.7880 Y17.7880 F10000 ; custom feedrate
G92 E0.0000
G1 X202.2120 Y17.7880 E1.0528 F1800 ; custom feedrate
G1 X202.2120 Y42.2120 E2.1056
G1 X177.7880 Y42.2120 E3.1584
G1 X177.7880 Y17.7880 E4.2111
G1 X200.4650 Y19.2860 F10000 ; custom feedrate
G92 E0.0000
G1 X200.7140 Y19.5350 E0.0152 F2400 ; custom feedrate
G1 X200.7140 Y20.3500 E0.0503
G1 X199.6500 Y19.2860 E0.1152
G1 X198.8360 Y19.2860 E0.1503
G1 X200.7140 Y21.1640 E0.2648
G1 X200.7140 Y21.9790 E0.2999
G1 X198.0210 Y19.2860 E0.4640
G1 X197.2070 Y19.2860 E0.4992
G1 X200.7140 Y22.7930 E0.7130
G1 X200.7140 Y23.6080 E0.7481
G1 X196.3920 Y19.2860 E1.0116
G1 X195.5780 Y19.2860 E1.0467
G1 X200.7140 Y24.4220 E1.3598
G1 X200.7140 Y25.2370 E1.3949
G1 X194.7630 Y19.2860 E1.7577
G1 X193.9480 Y19.2860 E1.7928
G1 X200.7140 Y26.0520 E2.2053
G1 X200.7140 Y26.8660 E2.2404
G1 X193.1340 Y19.2860 E2.7025
G1 X192.3190 Y19.2860 E2.7376
G1 X200.7140 Y27.6810 E3.2494
G1 X200.7140 Y28.4950 E3.2845
G1 X191.5050 Y19.2860 E3.8459
G1 X190.6900 Y19.2860 E3.8810
G1 X200.7140 Y29.3100 E4.4921
G1 X200.7140 Y30.1250 E4.5272
G1 X189.8750 Y19.2860 E5.1879
G1 X189.0610 Y19.2860 E5.2231
G1 X200.7140 Y30.9390 E5.9334
G1 X200.7140 Y31.7540 E5.9686
G1 X188.2460 Y19.2860 E6.7286
G1 X187.4320 Y19.2860 E6.7637
G1 X200.7140 Y32.5680 E7.5734
G1 X200.7140 Y33.3830 E7.6085
G1 X186.6170 Y19.2860 E8.4679
G1 X185.8020 Y19.2860 E8.5030
G1 X200.7140 Y34.1980 E9.4120
G1 X200.7140 Y35.0120 E9.4471
G1 X184.9880 Y19.2860 E10.4058
G1 X184.1730 Y19.2860 E10.4409
G1 X200.7140 Y35.8270 E11.4493
G1 X200.7140 Y36.6410 E11.4844
G1 X183.3590 Y19.2860 E12.5424
G1 X182.5440 Y19.2860 E12.5775
G1 X200.7140 Y37.4560 E13.6851
G1 X200.7140 Y38.2700 E13.7202
G1 X181.7300 Y19.2860 E14.8775
G1 X180.9150 Y19.2860 E14.9127
G1 X200.7140 Y39.0850 E16.1196
G1 X200.7140 Y39.9000 E16.1547
G1 X180.1000 Y19.2860 E17.4113
G1 X179.2860 Y19.2860 E17.4465
G1 X200.7140 Y40.7140 E18.7527
G1 X199.9000 Y40.7140 E18.7879
G1 X179.2860 Y20.1000 E20.0445
G1 X179.2860 Y20.9150 E20.0796
G1 X199.0850 Y40.7140 E21.2865
G1 X198.2700 Y40.7140 E21.3217
G1 X179.2860 Y21.7300 E22.4790
G1 X179.2860 Y22.5440 E22.5141
G1 X197.4560 Y40.7140 E23.6217
G1 X196.6410 Y40.7140 E23.6568
G1 X179.2860 Y23.3590 E24.7148
G1 X179.2860 Y24.1730 E24.7499
G1 X195.8270 Y40.7140 E25.7583
G1 X195.0120 Y40.7140 E25.7934
G1 X179.2860 Y24.9880 E26.7521
G1 X179.2860 Y25.8020 E26.7872
G1 X194.1980 Y40.7140 E27.6962
G1 X193.3830 Y40.7140 E27.7313
G1 X179.2860 Y26.6170 E28.5907
G1 X179.2860 Y27.4320 E28.6258
G1 X192.5680 Y40.7140 E29.4355
G1 X191.7540 Y40.7140 E29.4706
G1 X179.2860 Y28.2460 E30.2307
G1 X179.2860 Y29.0610 E30.2658
G1 X190.9390 Y40.7140 E30.9762
G1 X190.1250 Y40.7140 E31.0113
G1 X179.2860 Y29.8750 E31.6720
G1 X179.2860 Y30.6900 E31.7071
G1 X189.3100 Y40.7140 E32.3182
G1 X188.4950 Y40.7140 E32.3533
G1 X179.2860 Y31.5050 E32.9147
G1 X179.2860 Y32.3190 E32.9499
G1 X187.6810 Y40.7140 E33.4616
G1 X186.8660 Y40.7140 E33.4967
G1 X179.2860 Y33.1340 E33.9588
G1 X179.2860 Y33.9480 E33.9939
G1 X186.0520 Y40.7140 E34.4064
G1 X185.2370 Y40.7140 E34.4415
G1 X179.2860 Y34.7630 E34.8043
G1 X179.2860 Y35.5770 E34.8394
G1 X184.4230 Y40.7140 E35.1525
G1 X183.6080 Y40.7140 E35.1877
G1 X179.2860 Y36.3920 E35.4511
G1 X179.2860 Y37.2070 E35.4863
G1 X182.7930 Y40.7140 E35.7001
G1 X181.9790 Y40.7140 E35.7352
G1 X179.2860 Y38.0210 E35.8994
G1 X179.2860 Y38.8360 E35.9345
G1 X181.1640 Y40.7140 E36.0490
G1 X180.3500 Y40.7140 E36.0841
G1 X179.2860 Y39.6500 E36.1489
G1 X179.2860 Y40.4650 E36.1840
G1 X179.5350 Y40.7140 E36.1992
G92 E0.0000
G1 E-2 F2700 ; custom retraction

; square 5
;process Process
;layer 1, Z = 0.200
T0
G92 E0.0000
G1 E-2 F2700 ; custom retraction
;fan1;
G1 Z0.200 F1200
G1 X174.6360 Y176.3140 F10000 ; custom feedrate
G1 E0 F2700 ; custom un-retraction/prime
G92 E0.0000
G1 X176.3140 Y174.6360 E0.1023 F3000 ; custom feedrate
G1 X203.6860 Y174.6360 E1.2822
G1 X205.3640 Y176.3140 E1.3844
G1 X205.3640 Y203.6860 E2.5643
G1 X203.6860 Y205.3640 E2.6666
G1 X176.3140 Y205.3640 E3.8465
G1 X174.6360 Y203.6860 E3.9487
G1 X174.6360 Y176.3140 E5.1286
G92 E0.0000
G1 E-2 F2700 ; custom retraction
;zhop1
G1 X175.2120 Y176.5520 F10000 ; custom feedrate
G1 Z0.200 F1200
G1 E0 F2700 ; custom un-retraction/prime
G92 E0.0000
G1 X176.5520 Y175.2120 E0.0817 F3000 ; custom feedrate
G1 X203.4480 Y175.2120 E1.2410
G1 X204.7880 Y176.5520 E1.3227
G1 X204.7880 Y203.4480 E2.4820
G1 X203.4480 Y204.7880 E2.5637
G1 X176.5520 Y204.7880 E3.7231
G1 X175.2120 Y203.4480 E3.8048
G1 X175.2120 Y176.5520 E4.9641
G92 E0.0000
G1 E-2 F2700 ; custom retraction
;zhop1
G1 X177.7880 Y177.7880 F10000 ; custom feedrate
G1 X177.7880 Y178.2020
G1 X178.9400 Y178.9400
G1 Z0.200 F1200
G1 E0 F2700 ; custom un-retraction/prime
G92 E0.0000
G1 X201.0600 Y178.9400 E0.9535 F2400 ; custom feedrate
G1 X201.0600 Y201.0600 E1.9069
G1 X178.9400 Y201.0600 E2.8604
G1 X178.9400 Y178.9400 E3.8139
G1 X178.3640 Y178.3640 F10000 ; custom feedrate
G92 E0.0000
G1 X201.6360 Y178.3640 E1.0031 F2400 ; custom feedrate
G1 X201.6360 Y201.6360 E2.0063
G1 X178.3640 Y201.6360 E3.0094
G1 X178.3640 Y178.3640 E4.0125
G1 X177.7880 Y177.7880 F10000 ; custom feedrate
G92 E0.0000
G1 X202.2120 Y177.7880 E1.0528 F1800 ; custom feedrate
G1 X202.2120 Y202.2120 E2.1056
G1 X177.7880 Y202.2120 E3.1584
G1 X177.7880 Y177.7880 E4.2111
G1 X200.4650 Y179.2860 F10000 ; custom feedrate
G92 E0.0000
G1 X200.7140 Y179.5350 E0.0152 F2400 ; custom feedrate
G1 X200.7140 Y180.3500 E0.0503
G1 X199.6500 Y179.2860 E0.1152
G1 X198.8360 Y179.2860 E0.1503
G1 X200.7140 Y181.1640 E0.2648
G1 X200.7140 Y181.9790 E0.2999
G1 X198.0210 Y179.2860 E0.4640
G1 X197.2070 Y179.2860 E0.4992
G1 X200.7140 Y182.7930 E0.7130
G1 X200.7140 Y183.6080 E0.7481
G1 X196.3920 Y179.2860 E1.0116
G1 X195.5780 Y179.2860 E1.0467
G1 X200.7140 Y184.4220 E1.3598
G1 X200.7140 Y185.2370 E1.3949
G1 X194.7630 Y179.2860 E1.7577
G1 X193.9480 Y179.2860 E1.7928
G1 X200.7140 Y186.0520 E2.2053
G1 X200.7140 Y186.8660 E2.2404
G1 X193.1340 Y179.2860 E2.7025
G1 X192.3190 Y179.2860 E2.7376
G1 X200.7140 Y187.6810 E3.2494
G1 X200.7140 Y188.4950 E3.2845
G1 X191.5050 Y179.2860 E3.8459
G1 X190.6900 Y179.2860 E3.8810
G1 X200.7140 Y189.3100 E4.4921
G1 X200.7140 Y190.1250 E4.5272
G1 X189.8750 Y179.2860 E5.1879
G1 X189.0610 Y179.2860 E5.2231
G1 X200.7140 Y190.9390 E5.9334
G1 X200.7140 Y191.7540 E5.9686
G1 X188.2460 Y179.2860 E6.7286
G1 X187.4320 Y179.2860 E6.7637
G1 X200.7140 Y192.5680 E7.5734
G1 X200.7140 Y193.3830 E7.6085
G1 X186.6170 Y179.2860 E8.4679
G1 X185.8020 Y179.2860 E8.5030
G1 X200.7140 Y194.1980 E9.4120
G1 X200.7140 Y195.0120 E9.4471
G1 X184.9880 Y179.2860 E10.4058
G1 X184.1730 Y179.2860 E10.4409
G1 X200.7140 Y195.8270 E11.4493
G1 X200.7140 Y196.6410 E11.4844
G1 X183.3590 Y179.2860 E12.5424
G1 X182.5440 Y179.2860 E12.5775
G1 X200.7140 Y197.4560 E13.6851
G1 X200.7140 Y198.2700 E13.7202
G1 X181.7300 Y179.2860 E14.8775
G1 X180.9150 Y179.2860 E14.9127
G1 X200.7140 Y199.0850 E16.1196
G1 X200.7140 Y199.9000 E16.1547
G1 X180.1000 Y179.2860 E17.4113
G1 X179.2860 Y179.2860 E17.4465
G1 X200.7140 Y200.7140 E18.7527
G1 X199.9000 Y200.7140 E18.7879
G1 X179.2860 Y180.1000 E20.0445
G1 X179.2860 Y180.9150 E20.0796
G1 X199.0850 Y200.7140 E21.2865
G1 X198.2700 Y200.7140 E21.3217
G1 X179.2860 Y181.7300 E22.4790
G1 X179.2860 Y182.5440 E22.5141
G1 X197.4560 Y200.7140 E23.6217
G1 X196.6410 Y200.7140 E23.6568
G1 X179.2860 Y183.3590 E24.7148
G1 X179.2860 Y184.1730 E24.7499
G1 X195.8270 Y200.7140 E25.7583
G1 X195.0120 Y200.7140 E25.7934
G1 X179.2860 Y184.9880 E26.7521
G1 X179.2860 Y185.8020 E26.7872
G1 X194.1980 Y200.7140 E27.6962
G1 X193.3830 Y200.7140 E27.7313
G1 X179.2860 Y186.6170 E28.5907
G1 X179.2860 Y187.4320 E28.6258
G1 X192.5680 Y200.7140 E29.4355
G1 X191.7540 Y200.7140 E29.4706
G1 X179.2860 Y188.2460 E30.2307
G1 X179.2860 Y189.0610 E30.2658
G1 X190.9390 Y200.7140 E30.9762
G1 X190.1250 Y200.7140 E31.0113
G1 X179.2860 Y189.8750 E31.6720
G1 X179.2860 Y190.6900 E31.7071
G1 X189.3100 Y200.7140 E32.3182
G1 X188.4950 Y200.7140 E32.3533
G1 X179.2860 Y191.5050 E32.9147
G1 X179.2860 Y192.3190 E32.9499
G1 X187.6810 Y200.7140 E33.4616
G1 X186.8660 Y200.7140 E33.4967
G1 X179.2860 Y193.1340 E33.9588
G1 X179.2860 Y193.9480 E33.9939
G1 X186.0520 Y200.7140 E34.4064
G1 X185.2370 Y200.7140 E34.4415
G1 X179.2860 Y194.7630 E34.8043
G1 X179.2860 Y195.5770 E34.8394
G1 X184.4230 Y200.7140 E35.1525
G1 X183.6080 Y200.7140 E35.1877
G1 X179.2860 Y196.3920 E35.4511
G1 X179.2860 Y197.2070 E35.4863
G1 X182.7930 Y200.7140 E35.7001
G1 X181.9790 Y200.7140 E35.7352
G1 X179.2860 Y198.0210 E35.8994
G1 X179.2860 Y198.8360 E35.9345
G1 X181.1640 Y200.7140 E36.0490
G1 X180.3500 Y200.7140 E36.0841
G1 X179.2860 Y199.6500 E36.1489
G1 X179.2860 Y200.4650 E36.1840
G1 X179.5350 Y200.7140 E36.1992
G92 E0.0000
G1 E-2 F2700 ; custom retraction

G28 X0 ; home X axis
M106 S0 ; turn off cooling fan
M104 S0 ; turn off extruder
M140 S0 ; turn off bed
M84 ; disable motors
;customend
